example-Basic/bin/data/Shaders/ofxPostProcessing/luts/4.cube
TITLE "Generate by Resolve"
LUT_3D_SIZE 9
0.0918441 0.0911421 0.0898451
0.135973 0.110719 0.109468
0.180957 0.121294 0.120409
0.241596 0.127153 0.127153
0.313832 0.13106 0.131395
0.400031 0.134218 0.134661
0.484718 0.132418 0.134798
0.571481 0.124941 0.133532
0.650645 0.111101 0.13373
0.123079 0.143862 0.123995
0.149081 0.156191 0.128435
0.215702 0.179782 0.133593
0.291936 0.180499 0.134752
0.380606 0.184451 0.131716
0.476509 0.18529 0.128237
0.569696 0.181109 0.123674
0.666743 0.172656 0.119158
0.763317 0.159976 0.117693
0.129152 0.197818 0.144503
0.16112 0.198383 0.147417
0.2094 0.234302 0.135393
0.32459 0.283177 0.101381
0.439963 0.274388 0.0938582
0.540276 0.255512 0.0955062
0.642252 0.248814 0.0878767
0.745418 0.238926 0.0823224
0.849485 0.226093 0.0815137
0.0983597 0.26865 0.153826
0.150958 0.272236 0.155108
0.203143 0.275303 0.153552
0.279835 0.333547 0.0960403
0.423972 0.393469 0.0313573
0.579873 0.396719 0.017792
0.695201 0.358663 0.0232853
0.801007 0.328298 0.0308385
0.908568 0.314397 0.0290074
0.0677501 0.353902 0.154269
0.106188 0.354009 0.153841
0.186755 0.354559 0.152132
0.254948 0.37409 0.127291
0.357122 0.440711 0.0346685
0.510018 0.497551 0
0.699916 0.530785 0
0.821836 0.483192 0
0.938857 0.431434 0
0.0406043 0.454292 0.140627
0.0423285 0.45069 0.141497
0.141054 0.451759 0.136828
0.241505 0.447883 0.133562
0.320699 0.484215 0.089662
0.437934 0.547601 0
0.597162 0.605097 0
0.799329 0.663401 0
0.932296 0.616175 0
0.0138705 0.563256 0.105364
0.0144045 0.560678 0.10692
0.052903 0.558099 0.111681
0.203098 0.556069 0.123278
0.316442 0.550271 0.142611
0.403906 0.595956 0.0876936
0.523232 0.653925 0
0.6813 0.71313 0
0.883772 0.785794 0
0 0.682872 0.101717
0 0.681239 0.110033
0 0.678584 0.123278
0.145159 0.675105 0.139986
0.299565 0.669505 0.163607
0.419638 0.664958 0.189807
0.505699 0.711818 0.138003
0.61767 0.767697 0.00129702
0.762676 0.82237 0
0 0.82417 0.161685
0 0.823255 0.170779
0 0.821759 0.18555
0.123171 0.819059 0.206683
0.317769 0.815702 0.233646
0.458762 0.812757 0.265858
0.576165 0.812222 0.301106
0.649378 0.853452 0.261723
0.739208 0.899641 0.163973
0.126238 0.124147 0.156405
0.154345 0.125124 0.160357
0.185733 0.130922 0.160418
0.241871 0.138918 0.169635
0.310338 0.145083 0.173495
0.401984 0.148684 0.171389
0.509224 0.148928 0.156466
0.616907 0.143633 0.129595
0.690806 0.124422 0.130861
0.139651 0.165713 0.173449
0.166705 0.170184 0.176455
0.199023 0.169787 0.178714
0.262974 0.178408 0.184192
0.348165 0.185321 0.184176
0.458045 0.189746 0.175555
0.573724 0.190112 0.15024
0.688945 0.185306 0.113008
0.780697 0.168048 0.113695
0.119417 0.206973 0.186084
0.154269 0.214176 0.189639
0.209506 0.220996 0.193774
0.292409 0.244038 0.192172
0.393851 0.246494 0.186252
0.514092 0.251835 0.1664
0.637705 0.251987 0.12636
0.75584 0.246387 0.0769513
0.857603 0.230442 0.0786755
0.0831464 0.281331 0.201678
0.132937 0.283803 0.201358
0.21033 0.285527 0.20441
0.273136 0.302907 0.197375
0.405875 0.36524 0.148333
0.556115 0.369223 0.116915
0.689357 0.351873 0.0666819
0.807126 0.331777 0.0288701
0.913649 0.315831 0.028397
0.0633402 0.365484 0.205951
0.0932937 0.363149 0.206241
0.194629 0.364187 0.207904
0.270787 0.358129 0.208667
0.35314 0.415198 0.163287
0.504799 0.483665 0.0504463
0.700633 0.522774 0
0.827329 0.482918 0
0.943526 0.429282 0
0.0370336 0.461357 0.199237
0.0427863 0.457023 0.202396
0.157382 0.45745 0.200671
0.25626 0.452567 0.199008
0.337209 0.465003 0.183017
0.443381 0.538766 0.0690166
0.606455 0.606577 0
0.807904 0.66215 0
0.937575 0.612039 0
0.0116121 0.56611 0.18024
0.0122072 0.56321 0.181445
0.0893721 0.561303 0.178668
0.223682 0.557443 0.174411
0.329671 0.550332 0.171618
0.412497 0.599008 0.0893416
0.531975 0.657511 0
0.69041 0.715785 0
0.895521 0.787411 0
0 0.682994 0.1234
0 0.681285 0.12401
0 0.678492 0.125597
0.157565 0.674952 0.141421
0.30634 0.669367 0.165011
0.424216 0.665644 0.190112
0.509773 0.714214 0.134279
0.622934 0.76994 0
0.769757 0.824262 0
0 0.82536 0.1608
0 0.824399 0.170047
0 0.822843 0.184924
0.111498 0.820142 0.206256
0.314611 0.816632 0.233585
0.458457 0.813519 0.266194
0.576715 0.812924 0.301671
0.650599 0.854368 0.261677
0.741604 0.900816 0.161151
0.149065 0.142489 0.215213
0.177768 0.144778 0.221576
0.215152 0.14287 0.225467
0.25835 0.140597 0.224247
0.319966 0.146227 0.229572
0.405066 0.152956 0.237919
0.502754 0.161975 0.240284
0.617472 0.167468 0.232151
0.726299 0.144625 0.197818
0.171145 0.197436 0.244846
0.19617 0.198291 0.24773
0.230228 0.193225 0.24889
0.279011 0.185367 0.247105
0.34847 0.190463 0.249668
0.440314 0.198459 0.254353
0.541482 0.205447 0.250065
0.66717 0.20441 0.233845
0.791455 0.182284 0.189105
0.158724 0.239033 0.255772
0.197162 0.243687 0.257877
0.241764 0.24918 0.260212
0.289357 0.243854 0.26186
0.364675 0.246143 0.260838
0.461784 0.252674 0.258854
0.580194 0.259144 0.250187
0.721736 0.258732 0.226902
0.856214 0.238773 0.164523
0.0948806 0.288441 0.260105
0.147448 0.293812 0.263218
0.209796 0.299413 0.264317
0.28484 0.308324 0.265431
0.380056 0.323812 0.263813
0.496147 0.328939 0.258961
0.628656 0.337209 0.243763
0.770825 0.337453 0.20705
0.910857 0.317906 0.108995
0.0571908 0.381338 0.273304
0.0581826 0.378042 0.27013
0.156283 0.381186 0.267475
0.271 0.380377 0.265553
0.358877 0.382025 0.265202
0.494759 0.453346 0.234501
0.660243 0.470542 0.209445
0.803357 0.455222 0.159808
0.94725 0.422553 0.0160372
0.0315099 0.475257 0.264851
0.0327001 0.470924 0.263554
0.124178 0.469429 0.261524
0.262119 0.465858 0.262242
0.358206 0.456306 0.263203
0.448356 0.504646 0.23856
0.601343 0.58265 0.165805
0.806165 0.641154 0.0308385
0.946883 0.60264 0
0.00814832 0.576837 0.241657
0.00886549 0.572992 0.244068
0.0896925 0.569116 0.247883
0.248417 0.56379 0.250187
0.352987 0.555871 0.249271
0.439673 0.570809 0.234424
0.545632 0.643702 0.141909
0.703487 0.716747 0
0.913985 0.788266 0
0 0.687877 0.206348
0 0.68455 0.215167
0.0245975 0.680995 0.218143
0.200763 0.676463 0.214618
0.327672 0.670359 0.210864
0.434256 0.665904 0.206073
0.51574 0.717739 0.128923
0.631464 0.773465 0
0.781842 0.827344 0
0 0.827756 0.1579
0 0.826734 0.167468
0 0.825086 0.182803
0.0757153 0.82237 0.204807
0.30486 0.818524 0.232776
0.455772 0.815045 0.266255
0.576669 0.81413 0.302541
0.652293 0.855711 0.262058
0.745464 0.902785 0.156756
0.189639 0.174426 0.299657
0.217243 0.175708 0.305898
0.255207 0.1738 0.31107
0.302541 0.164385 0.311727
0.353368 0.150744 0.305837
0.419364 0.153552 0.305821
0.516182 0.16199 0.314977
0.630274 0.169329 0.318242
0.755764 0.176776 0.309667
0.216297 0.234485 0.335927
0.238849 0.231983 0.337392
0.273884 0.226581 0.33872
0.32369 0.2159 0.338781
0.383368 0.200168 0.333974
0.453635 0.199603 0.328817
0.552407 0.206332 0.331136
0.666636 0.212039 0.326863
0.790204 0.218296 0.31046
0.223011 0.284947 0.347784
0.249928 0.286793 0.349508
0.285542 0.28574 0.350866
0.331411 0.276539 0.350515
0.393851 0.261738 0.347677
0.470832 0.257008 0.341024
0.573754 0.262806 0.337636
0.691112 0.268589 0.32639
0.820783 0.276249 0.304662
0.184894 0.331868 0.350973
0.225559 0.334401 0.350652
0.277729 0.337682 0.348852
0.334569 0.34081 0.347463
0.389914 0.332967 0.347997
0.474403 0.324315 0.34258
0.580713 0.332235 0.332845
0.706905 0.344869 0.320256
0.861875 0.350134 0.296681
0.0849317 0.386435 0.347845
0.148043 0.389258 0.348486
0.219837 0.391211 0.347326
0.294026 0.39321 0.343923
0.37641 0.399359 0.340261
0.475456 0.411551 0.33872
0.600885 0.424033 0.331746
0.746853 0.440986 0.319524
0.899443 0.441215 0.278279
0.0280003 0.480156 0.348257
0.0282597 0.479438 0.345617
0.0586099 0.479912 0.341329
0.212177 0.482628 0.334661
0.353826 0.479057 0.330068
0.46215 0.473396 0.332784
0.603586 0.555917 0.320867
0.774884 0.5888 0.297536
0.927123 0.573251 0.219059
0.00364691 0.593164 0.321126
0.00433356 0.589364 0.319203
0.00543221 0.583459 0.317388
0.2047 0.577981 0.316365
0.36878 0.569284 0.323354
0.468223 0.558404 0.325307
0.564797 0.612406 0.310277
0.716609 0.697917 0.2392
0.926329 0.768902 0.0146334
0 0.701778 0.270893
0 0.698146 0.27483
0 0.692134 0.284779
0.223041 0.683452 0.300847
0.365286 0.675837 0.305089
0.468071 0.66804 0.302907
0.551598 0.697871 0.271534
0.650767 0.771008 0.103471
0.801389 0.832135 0
0 0.836835 0.186633
0 0.833295 0.209461
0 0.829297 0.226871
0.0344091 0.826581 0.221286
0.278111 0.822263 0.229999
0.446418 0.81796 0.265309
0.576684 0.815869 0.304173
0.654276 0.857435 0.263737
0.751354 0.905745 0.149935
0.241474 0.216007 0.400366
0.265309 0.215991 0.404517
0.300206 0.213565 0.408515
0.346746 0.206271 0.410681
0.401297 0.191226 0.408667
0.459083 0.169802 0.400519
0.538445 0.166598 0.400488
0.644938 0.168688 0.406867
0.77055 0.175967 0.408423
0.266804 0.270634 0.429969
0.286839 0.268009 0.430915
0.318425 0.262974 0.431876
0.36376 0.254002 0.432197
0.421256 0.239216 0.430884
0.487587 0.217655 0.425681
0.570825 0.211063 0.421363
0.678996 0.211551 0.421286
0.802426 0.217792 0.415
0.281773 0.323629 0.441169
0.30428 0.324498 0.441871
0.332418 0.320043 0.441855
0.373785 0.311696 0.441459
0.42948 0.298558 0.440314
0.499702 0.278981 0.437491
0.588998 0.267918 0.431876
0.701518 0.268574 0.426352
0.826123 0.276921 0.413321
0.281559 0.373877 0.438895
0.307286 0.376074 0.438453
0.342336 0.378408 0.438285
0.386175 0.378729 0.43801
0.432273 0.368292 0.43682
0.498512 0.351217 0.436027
0.59353 0.336339 0.42977
0.711025 0.339605 0.417884
0.838117 0.346914 0.396658
0.230213 0.420142 0.43743
0.266163 0.421759 0.435737
0.316289 0.424582 0.432532
0.377859 0.429221 0.427497
0.437522 0.433204 0.423758
0.49482 0.425147 0.423392
0.588754 0.411795 0.415427
0.707332 0.420691 0.400198
0.842939 0.439689 0.385214
0.0964828 0.482918 0.435691
0.153475 0.484062 0.43415
0.224277 0.48513 0.430472
0.303227 0.485939 0.423453
0.390112 0.487114 0.41503
0.4795 0.491997 0.408698
0.58648 0.508034 0.407462
0.727611 0.532784 0.405722
0.884474 0.553735 0.390082
0.00221256 0.590585 0.43032
0.00227359 0.590707 0.425635
0.00233463 0.59115 0.417639
0.0777447 0.591806 0.40647
0.303044 0.587976 0.397528
0.462913 0.580423 0.394507
0.574136 0.576272 0.399634
0.73254 0.679393 0.401755
0.91342 0.721981 0.351019
0 0.720974 0.374319
0 0.717952 0.366979
0 0.71223 0.361532
0.0177462 0.702693 0.365515
0.322133 0.69099 0.374746
0.490776 0.680217 0.388571
0.586191 0.671809 0.38819
0.68925 0.746151 0.358312
0.834485 0.828016 0.191409
0 0.850858 0.265476
0 0.852018 0.261143
0 0.848661 0.273671
0 0.838941 0.312612
0.32105 0.829038 0.341421
0.462547 0.823651 0.331792
0.580514 0.818921 0.3205
0.656382 0.859556 0.266957
0.759915 0.909895 0.139025
0.300786 0.265446 0.511635
0.320302 0.264439 0.513634
0.350439 0.26157 0.515938
0.39263 0.255024 0.517494
0.444984 0.243046 0.517388
0.505348 0.224109 0.514488
0.570642 0.196109 0.507134
0.666865 0.185672 0.512306
0.78471 0.174838 0.518975
0.323537 0.312367 0.530419
0.340352 0.309804 0.530846
0.367346 0.305211 0.531365
0.406897 0.297429 0.531594
0.458213 0.28513 0.531029
0.52018 0.266896 0.529046
0.592416 0.24036 0.525292
0.692103 0.226917 0.528145
0.814145 0.217319 0.531029
0.349554 0.368368 0.538827
0.36379 0.365743 0.538766
0.387015 0.361059 0.538628
0.422248 0.353246 0.538216
0.469673 0.341512 0.537408
0.529778 0.324376 0.535988
0.605249 0.299382 0.53489
0.70985 0.283528 0.536675
0.83566 0.277241 0.534585
0.360616 0.41915 0.535775
0.380255 0.42121 0.535485
0.408591 0.422889 0.535073
0.439963 0.417884 0.534493
0.480385 0.407752 0.5337
0.534493 0.392966 0.532616
0.609751 0.370489 0.533806
0.718029 0.351217 0.533745
0.846448 0.347158 0.524407
0.35462 0.465904 0.527779
0.377813 0.468391 0.526162
0.408621 0.471046 0.524437
0.446189 0.47277 0.523491
0.490181 0.471641 0.523033
0.536843 0.460014 0.522011
0.608454 0.440726 0.523491
0.718883 0.420981 0.517937
0.849882 0.424247 0.499763
0.291646 0.51017 0.526421
0.32015 0.511681 0.524544
0.360937 0.51397 0.521477
0.414725 0.517357 0.51667
0.47805 0.52224 0.509972
0.542794 0.527337 0.504845
0.604303 0.518639 0.50396
0.710369 0.505852 0.492287
0.840757 0.521675 0.473625
0.0984512 0.581247 0.531243
0.146502 0.582223 0.528832
0.221424 0.583368 0.524392
0.304158 0.584573 0.516976
0.389776 0.585672 0.505776
0.487449 0.587091 0.493782
0.58851 0.592569 0.486198
0.71635 0.624857 0.492348
0.881697 0.662699 0.495338
0 0.712032 0.530327
0 0.712795 0.524529
0 0.714092 0.514244
0 0.715373 0.496849
0.105547 0.713481 0.474952
0.416617 0.70251 0.467475
0.596643 0.691676 0.473442
0.703426 0.707698 0.48127
0.870939 0.821256 0.474174
0 0.875364 0.434867
0 0.875502 0.420325
0 0.875303 0.395148
0 0.868605 0.375036
0.0358129 0.853803 0.401953
0.463783 0.83769 0.444266
0.61828 0.829252 0.447471
0.707271 0.845106 0.417411
0.777279 0.91426 0.162676
0.369924 0.327306 0.639933
0.385779 0.325582 0.640574
0.410956 0.322148 0.641306
0.447288 0.315373 0.64181
0.494163 0.304433 0.641642
0.550591 0.287846 0.64036
0.615427 0.263569 0.63711
0.686503 0.228305 0.630274
0.797681 0.209903 0.644572
0.393118 0.369451 0.649027
0.406699 0.366949 0.649149
0.428977 0.362432 0.64918
0.462226 0.354833 0.649042
0.50631 0.343435 0.648585
0.560952 0.326833 0.647517
0.625895 0.303151 0.64538
0.700908 0.269169 0.64152
0.816205 0.249882 0.656016
0.418601 0.419944 0.651408
0.430289 0.41735 0.651331
0.449653 0.41294 0.651209
0.479271 0.405753 0.65098
0.519585 0.39498 0.650523
0.571054 0.379583 0.649836
0.634394 0.357809 0.648707
0.71194 0.32636 0.647883
0.831327 0.304784 0.662608
0.442451 0.474357 0.646845
0.4551 0.473884 0.646754
0.47129 0.469856 0.646708
0.496529 0.463249 0.64651
0.531853 0.453468 0.64622
0.578576 0.43949 0.645823
0.63856 0.419791 0.645319
0.718288 0.391028 0.647791
0.842008 0.367422 0.661234
0.443885 0.518151 0.638132
0.45832 0.51928 0.637903
0.480995 0.520745 0.637736
0.512718 0.52163 0.637873
0.545495 0.515206 0.637827
0.586221 0.503029 0.637446
0.641199 0.485878 0.636866
0.721798 0.460441 0.641794
0.849149 0.437995 0.650339
0.422766 0.560082 0.63212
0.441947 0.562142 0.630488
0.471565 0.565499 0.628077
0.509697 0.569375 0.625666
0.551232 0.571771 0.624979
0.597452 0.570672 0.625055
0.64538 0.557931 0.624002
0.724163 0.536202 0.628992
0.855482 0.51487 0.624949
0.338582 0.604639 0.633844
0.363272 0.606073 0.632212
0.401068 0.608515 0.629435
0.4533 0.61239 0.625177
0.515129 0.617624 0.619287
0.583185 0.623926 0.61146
0.651423 0.629602 0.605081
0.721614 0.618265 0.603342
0.854292 0.612482 0.583825
0.0240482 0.689723 0.652873
0.0686503 0.690944 0.650523
0.158648 0.692851 0.646326
0.257191 0.695689 0.639246
0.362844 0.699031 0.627817
0.463783 0.702037 0.609598
0.583032 0.703853 0.589715
0.706325 0.710857 0.580133
0.885771 0.789425 0.621836
0 0.868467 0.677913
0 0.870634 0.669566
0 0.874388 0.654688
0 0.878889 0.626902
0 0.883452 0.581704
0.0601968 0.873137 0.53608
0.579522 0.852171 0.554726
0.757198 0.841566 0.571038
0.851301 0.899199 0.536629
0.457374 0.41352 0.782269
0.469169 0.411322 0.782376
0.488365 0.407462 0.782452
0.517037 0.40061 0.782544
0.555154 0.390036 0.782574
0.602808 0.374563 0.782422
0.660044 0.352453 0.781903
0.727199 0.320577 0.780392
0.802853 0.273655 0.77612
0.474601 0.445365 0.78291
0.485084 0.442969 0.782971
0.502312 0.438605 0.783062
0.528679 0.431434 0.783169
0.564492 0.420813 0.783307
0.610025 0.4056 0.783429
0.665751 0.384161 0.783429
0.732525 0.353872 0.783032
0.810498 0.309987 0.781353
0.49572 0.486946 0.781094
0.504829 0.484413 0.781186
0.520104 0.48014 0.781323
0.543679 0.473121 0.781537
0.576318 0.46273 0.781842
0.618738 0.448081 0.782315
0.671916 0.427756 0.782834
0.737423 0.399161 0.783429
0.816632 0.35848 0.783703
0.520714 0.537331 0.776593
0.528099 0.534798 0.776837
0.541146 0.530785 0.77705
0.561685 0.524285 0.777417
0.590585 0.514626 0.777951
0.628977 0.500923 0.778637
0.678477 0.481819 0.779583
0.741695 0.454841 0.780804
0.820874 0.417319 0.782177
0.534722 0.584344 0.770718
0.545525 0.584939 0.77113
0.561425 0.584482 0.772076
0.578515 0.578119 0.773541
0.604135 0.569574 0.77409
0.639216 0.557671 0.774762
0.685725 0.541283 0.775525
0.746838 0.518212 0.77641
0.828748 0.485893 0.781979
0.531991 0.626001 0.764233
0.542382 0.626642 0.76463
0.559289 0.627573 0.765377
0.584619 0.628595 0.766629
0.618128 0.62884 0.768704
0.651667 0.620615 0.769894
0.694224 0.606668 0.77023
0.752956 0.586847 0.770581
0.840574 0.558587 0.781537
0.488365 0.663661 0.765805
0.504295 0.665507 0.764904
0.529931 0.668559 0.763394
0.567056 0.67332 0.760983
0.611688 0.678798 0.758648
0.656931 0.682048 0.759564
0.70782 0.681102 0.761288
0.761578 0.665232 0.760479
0.854475 0.640116 0.773144
0.354055 0.712169 0.772625
0.377691 0.713893 0.771527
0.414084 0.71667 0.769696
0.465019 0.720913 0.766751
0.526925 0.726696 0.762539
0.599374 0.734279 0.756649
0.68455 0.744152 0.747539
0.773816 0.755047 0.736889
0.859449 0.742107 0.732647
0 0.826154 0.820386
0 0.828717 0.819287
0 0.832914 0.817166
0 0.839078 0.813123
0.0339666 0.846448 0.80528
0.31754 0.852171 0.789303
0.488334 0.864179 0.757641
0.72221 0.871092 0.714153
0.886015 0.87718 0.726452
0.56228 0.531609 0.946929
0.570062 0.529259 0.94725
0.583108 0.525307 0.947753
0.603098 0.518441 0.948638
0.63061 0.508247 0.949874
0.666148 0.4934 0.951614
0.711345 0.471794 0.953948
0.768338 0.439689 0.957076
0.836484 0.395636 0.960861
0.574166 0.554177 0.946502
0.581353 0.551766 0.946822
0.593423 0.547631 0.947402
0.612192 0.540795 0.948333
0.638315 0.530678 0.949722
0.672435 0.51632 0.951568
0.71632 0.495232 0.954009
0.772137 0.464195 0.957244
0.839246 0.421363 0.961273
0.589258 0.585168 0.946654
0.595789 0.582818 0.947051
0.60679 0.578759 0.947723
0.624125 0.572091 0.94876
0.648463 0.562295 0.950256
0.680674 0.548363 0.952224
0.722988 0.528115 0.954818
0.777661 0.498787 0.95819
0.84387 0.458366 0.962325
0.606302 0.624643 0.94844
0.612131 0.622324 0.948852
0.622065 0.618372 0.949584
0.637797 0.612009 0.950729
0.660197 0.602609 0.952346
0.690394 0.589319 0.954452
0.731029 0.569879 0.957229
0.784665 0.541863 0.960754
0.850584 0.504387 0.96495
0.631083 0.673655 0.943908
0.6327 0.66891 0.944991
0.636637 0.661372 0.946746
0.650767 0.655299 0.948974
0.672007 0.647211 0.95201
0.700862 0.635874 0.956039
0.740322 0.619028 0.960754
0.793515 0.593469 0.965057
0.859937 0.559197 0.969146
0.628779 0.709651 0.934798
0.636912 0.709926 0.935668
0.650462 0.710262 0.937224
0.671061 0.710124 0.939788
0.685863 0.698573 0.943801
0.713039 0.687648 0.948379
0.75259 0.672175 0.954437
0.80734 0.649409 0.962234
0.874968 0.620188 0.970932
0.605936 0.749691 0.923049
0.618112 0.751247 0.923018
0.634607 0.752483 0.924102
0.659327 0.754162 0.925963
0.68954 0.754696 0.930037
0.727398 0.753231 0.936187
0.765927 0.73933 0.943923
0.823987 0.71899 0.953429
0.898619 0.693095 0.963775
0.374029 0.792752 0.928512
0.400397 0.794217 0.92813
0.441093 0.796704 0.927535
0.498726 0.800626 0.926635
0.570428 0.80621 0.925383
0.657176 0.814176 0.923735
0.755627 0.824765 0.92224
0.838437 0.824033 0.935943
0.923751 0.804608 0.951003
0 0.924437 0.931579
0 0.926513 0.931502
0 0.930083 0.931411
0 0.935851 0.931258
0 0.944076 0.930983
0 0.95198 0.930175
0.393851 0.957702 0.928481
0.72015 0.962081 0.929381
0.978592 0.962798 0.935317
