example-Basic/bin/data/Shaders/ofxPostProcessing/luts/4.cube
TITLE "Generate by Resolve"
LUT_3D_SIZE 5
0.0918441 0.0911421 0.0898451
0.180957 0.121294 0.120409
0.313832 0.13106 0.131395
0.484718 0.132418 0.134798
0.650645 0.111101 0.13373
0.129152 0.197818 0.144503
0.2094 0.234302 0.135393
0.439963 0.274388 0.0938582
0.642252 0.248814 0.0878767
0.849485 0.226093 0.0815137
0.0677501 0.353902 0.154269
0.186755 0.354559 0.152132
0.357122 0.440711 0.0346685
0.699916 0.530785 0
0.938857 0.431434 0
0.0138705 0.563256 0.105364
0.052903 0.558099 0.111681
0.316442 0.550271 0.142611
0.523232 0.653925 0
0.883772 0.785794 0
0 0.82417 0.161685
0 0.821759 0.18555
0.317769 0.815702 0.233646
0.576165 0.812222 0.301106
0.739208 0.899641 0.163973
0.149065 0.142489 0.215213
0.215152 0.14287 0.225467
0.319966 0.146227 0.229572
0.502754 0.161975 0.240284
0.726299 0.144625 0.197818
0.158724 0.239033 0.255772
0.241764 0.24918 0.260212
0.364675 0.246143 0.260838
0.580194 0.259144 0.250187
0.856214 0.238773 0.164523
0.0571908 0.381338 0.273304
0.156283 0.381186 0.267475
0.358877 0.382025 0.265202
0.660243 0.470542 0.209445
0.94725 0.422553 0.0160372
0.00814832 0.576837 0.241657
0.0896925 0.569116 0.247883
0.352987 0.555871 0.249271
0.545632 0.643702 0.141909
0.913985 0.788266 0
0 0.827756 0.1579
0 0.825086 0.182803
0.30486 0.818524 0.232776
0.576669 0.81413 0.302541
0.745464 0.902785 0.156756
0.241474 0.216007 0.400366
0.300206 0.213565 0.408515
0.401297 0.191226 0.408667
0.538445 0.166598 0.400488
0.77055 0.175967 0.408423
0.281773 0.323629 0.441169
0.332418 0.320043 0.441855
0.42948 0.298558 0.440314
0.588998 0.267918 0.431876
0.826123 0.276921 0.413321
0.230213 0.420142 0.43743
0.316289 0.424582 0.432532
0.437522 0.433204 0.423758
0.588754 0.411795 0.415427
0.842939 0.439689 0.385214
0.00221256 0.590585 0.43032
0.00233463 0.59115 0.417639
0.303044 0.587976 0.397528
0.574136 0.576272 0.399634
0.91342 0.721981 0.351019
0 0.850858 0.265476
0 0.848661 0.273671
0.32105 0.829038 0.341421
0.580514 0.818921 0.3205
0.759915 0.909895 0.139025
0.369924 0.327306 0.639933
0.410956 0.322148 0.641306
0.494163 0.304433 0.641642
0.615427 0.263569 0.63711
0.797681 0.209903 0.644572
0.418601 0.419944 0.651408
0.449653 0.41294 0.651209
0.519585 0.39498 0.650523
0.634394 0.357809 0.648707
0.831327 0.304784 0.662608
0.443885 0.518151 0.638132
0.480995 0.520745 0.637736
0.545495 0.515206 0.637827
0.641199 0.485878 0.636866
0.849149 0.437995 0.650339
0.338582 0.604639 0.633844
0.401068 0.608515 0.629435
0.515129 0.617624 0.619287
0.651423 0.629602 0.605081
0.854292 0.612482 0.583825
0 0.868467 0.677913
0 0.874388 0.654688
0 0.883452 0.581704
0.579522 0.852171 0.554726
0.851301 0.899199 0.536629
0.56228 0.531609 0.946929
0.583108 0.525307 0.947753
0.63061 0.508247 0.949874
0.711345 0.471794 0.953948
0.836484 0.395636 0.960861
0.589258 0.585168 0.946654
0.60679 0.578759 0.947723
0.648463 0.562295 0.950256
0.722988 0.528115 0.954818
0.84387 0.458366 0.962325
0.631083 0.673655 0.943908
0.636637 0.661372 0.946746
0.672007 0.647211 0.95201
0.740322 0.619028 0.960754
0.859937 0.559197 0.969146
0.605936 0.749691 0.923049
0.634607 0.752483 0.924102
0.68954 0.754696 0.930037
0.765927 0.73933 0.943923
0.898619 0.693095 0.963775
0 0.924437 0.931579
0 0.930083 0.931411
0 0.944076 0.930983
0.393851 0.957702 0.928481
0.978592 0.962798 0.935317
