example-Basic/bin/data/Shaders/ofxPostProcessing/luts/4.cube
TITLE "Generate by Resolve"
LUT_3D_SIZE 33
0.0918441 0.0911421 0.0898451
0.111162 0.100374 0.0990616
0.119158 0.103975 0.102724
0.127337 0.10753 0.106249
0.135973 0.110719 0.109468
0.145617 0.113695 0.112474
0.156329 0.116609 0.115434
0.168063 0.119051 0.118029
0.180957 0.121294 0.120409
0.195071 0.123293 0.122576
0.209918 0.124804 0.124361
0.225467 0.126116 0.125872
0.241596 0.127153 0.127153
0.25832 0.128008 0.128191
0.275654 0.128862 0.129152
0.294057 0.12987 0.13022
0.313832 0.13106 0.131395
0.334997 0.132219 0.132586
0.356909 0.13315 0.133562
0.378653 0.133806 0.134218
0.400031 0.134218 0.134661
0.421088 0.13431 0.134905
0.442161 0.134096 0.135012
0.463447 0.133532 0.134951
0.484718 0.132418 0.134798
0.506355 0.130953 0.134539
0.528161 0.129122 0.134142
0.550301 0.127291 0.133776
0.571481 0.124941 0.133532
0.591806 0.121981 0.133318
0.611521 0.118608 0.133349
0.631342 0.115084 0.13344
0.650645 0.111101 0.13373
0.107881 0.116091 0.107317
0.118395 0.120455 0.110307
0.126055 0.124086 0.111864
0.136309 0.127031 0.114885
0.144686 0.127443 0.116838
0.154147 0.128664 0.119005
0.165499 0.131228 0.121538
0.17847 0.13402 0.124025
0.192966 0.136782 0.126314
0.208621 0.139239 0.128252
0.225086 0.141238 0.129778
0.242435 0.142962 0.130999
0.260288 0.14432 0.131868
0.278569 0.145388 0.132479
0.297444 0.146319 0.132921
0.317189 0.147265 0.133349
0.338293 0.148318 0.133928
0.360754 0.149416 0.134524
0.383719 0.150256 0.134844
0.406226 0.150622 0.134905
0.428061 0.150591 0.134783
0.449699 0.150408 0.134539
0.471443 0.149966 0.134173
0.493355 0.149096 0.133684
0.515877 0.148013 0.13312
0.539055 0.146639 0.132433
0.561975 0.144854 0.131792
0.584649 0.142702 0.131167
0.606867 0.140261 0.130663
0.628885 0.137453 0.13022
0.650172 0.134096 0.130083
0.672251 0.130831 0.129992
0.693874 0.126955 0.130266
0.113603 0.125154 0.113436
0.122225 0.126848 0.116075
0.127749 0.131121 0.116884
0.13576 0.135012 0.117647
0.149157 0.140566 0.121096
0.159869 0.141558 0.123217
0.171176 0.142123 0.125093
0.184146 0.143465 0.127031
0.199161 0.146075 0.129046
0.215747 0.148836 0.1308
0.23331 0.151217 0.132143
0.251606 0.153201 0.133089
0.270314 0.154665 0.133639
0.289555 0.15584 0.133898
0.30927 0.156741 0.133974
0.329747 0.157595 0.134035
0.351568 0.158618 0.134249
0.374609 0.159594 0.134478
0.397986 0.160266 0.134447
0.420996 0.160494 0.134188
0.443397 0.160494 0.133761
0.46537 0.160204 0.133242
0.487419 0.159518 0.132631
0.509804 0.158602 0.13193
0.532631 0.157397 0.131167
0.556054 0.155856 0.130312
0.579721 0.154101 0.129427
0.602945 0.151873 0.128618
0.625635 0.149371 0.128008
0.6486 0.146746 0.127474
0.670878 0.143496 0.127214
0.693675 0.1402 0.127138
0.716289 0.136385 0.12723
0.118685 0.134051 0.118822
0.126543 0.1346 0.121004
0.130739 0.137179 0.12195
0.137743 0.14255 0.122866
0.147738 0.148257 0.123583
0.163577 0.156085 0.126619
0.177646 0.158389 0.12874
0.191745 0.159289 0.130434
0.207034 0.159884 0.131853
0.223651 0.160754 0.133028
0.241993 0.16286 0.133974
0.261295 0.165103 0.134554
0.281056 0.166735 0.134722
0.301198 0.167895 0.134569
0.321828 0.168856 0.134234
0.34313 0.16968 0.133883
0.365698 0.170565 0.133684
0.389517 0.171496 0.133486
0.41352 0.172061 0.133028
0.436957 0.172183 0.132403
0.459632 0.171969 0.131716
0.481834 0.171496 0.130953
0.504402 0.170748 0.130022
0.527398 0.169818 0.12903
0.550759 0.168414 0.128054
0.574716 0.166766 0.127062
0.598779 0.164904 0.125978
0.622446 0.162661 0.125032
0.645838 0.160174 0.124346
0.669017 0.15729 0.123766
0.692332 0.154238 0.123323
0.715877 0.151003 0.123033
0.739467 0.147265 0.123247
0.123079 0.143862 0.123995
0.130861 0.144137 0.125704
0.134813 0.144518 0.126726
0.140337 0.149325 0.127611
0.149081 0.156191 0.128435
0.161563 0.163867 0.12874
0.176654 0.170855 0.130282
0.197223 0.1776 0.132296
0.215702 0.179782 0.133593
0.23386 0.18027 0.134432
0.252552 0.179965 0.13492
0.271565 0.179583 0.135073
0.291936 0.180499 0.134752
0.31313 0.181796 0.134081
0.334707 0.182727 0.133272
0.357046 0.183551 0.132448
0.380606 0.184451 0.131716
0.405173 0.18529 0.130999
0.429648 0.185733 0.130205
0.453452 0.185687 0.129259
0.476509 0.18529 0.128237
0.499229 0.184619 0.127184
0.522301 0.183719 0.12607
0.545769 0.182559 0.124865
0.569696 0.181109 0.123674
0.594293 0.179522 0.122347
0.618814 0.177584 0.121096
0.643 0.17528 0.120027
0.666743 0.172656 0.119158
0.690639 0.169863 0.118425
0.714672 0.166857 0.117952
0.73875 0.163531 0.117708
0.763317 0.159976 0.117693
0.126879 0.155138 0.12961
0.135103 0.15523 0.130861
0.139345 0.155276 0.131579
0.14403 0.157305 0.132219
0.151247 0.163775 0.132937
0.161975 0.172 0.133104
0.176928 0.181628 0.132342
0.192645 0.187945 0.13257
0.219318 0.199512 0.132906
0.242451 0.203555 0.132967
0.263233 0.20354 0.132998
0.284092 0.202472 0.132876
0.304845 0.200641 0.132509
0.325612 0.198672 0.131899
0.347509 0.198367 0.130816
0.370855 0.199145 0.129412
0.395331 0.200061 0.128191
0.420706 0.200839 0.127001
0.445884 0.201129 0.125719
0.470192 0.200961 0.124392
0.493614 0.200427 0.123125
0.516808 0.199512 0.121843
0.540352 0.198398 0.12047
0.564385 0.197192 0.119036
0.588937 0.195666 0.11754
0.614054 0.193973 0.115984
0.638865 0.191836 0.114672
0.663478 0.189517 0.113481
0.68777 0.186908 0.112459
0.712322 0.184131 0.11165
0.736782 0.181079 0.111055
0.761395 0.177661 0.110887
0.786709 0.174197 0.110887
0.129473 0.167849 0.135134
0.138537 0.1682 0.136263
0.143282 0.168185 0.136904
0.148302 0.168292 0.137469
0.154513 0.172473 0.137697
0.163684 0.180713 0.137423
0.176623 0.190707 0.136416
0.193606 0.201419 0.134066
0.212055 0.209079 0.132464
0.241962 0.223026 0.129656
0.270115 0.229328 0.127504
0.294087 0.229175 0.12665
0.317128 0.227207 0.125902
0.339727 0.224292 0.125216
0.362142 0.220996 0.124575
0.385031 0.218189 0.123857
0.40972 0.217472 0.122576
0.435843 0.218097 0.120867
0.46154 0.21825 0.119234
0.48629 0.217945 0.117586
0.510277 0.217212 0.116045
0.534005 0.216159 0.114565
0.558022 0.214847 0.113008
0.582574 0.213397 0.111345
0.607599 0.211719 0.109712
0.633143 0.209934 0.107958
0.658534 0.207874 0.106447
0.683421 0.205402 0.10518
0.708293 0.202823 0.104097
0.73315 0.199893 0.103349
0.758083 0.196826 0.102754
0.783413 0.193591 0.10248
0.80914 0.190036 0.102541
0.130388 0.182177 0.140169
0.140566 0.182528 0.141314
0.146059 0.18262 0.141939
0.151949 0.182498 0.142535
0.158175 0.183185 0.143023
0.165927 0.189715 0.142382
0.177096 0.199908 0.140459
0.192599 0.211673 0.137331
0.211627 0.223239 0.132738
0.233722 0.233326 0.12842
0.263645 0.246693 0.122606
0.297353 0.255894 0.116976
0.325887 0.256855 0.114351
0.350881 0.254139 0.113298
0.375616 0.250446 0.11249
0.400473 0.246296 0.112032
0.425681 0.242374 0.111833
0.450965 0.238956 0.111559
0.476326 0.237125 0.110506
0.501518 0.236606 0.108659
0.525887 0.235554 0.106966
0.550195 0.234272 0.105287
0.574807 0.232822 0.103471
0.599832 0.231159 0.101717
0.625528 0.229496 0.099855
0.651484 0.227588 0.0980392
0.677195 0.22536 0.0964523
0.702358 0.222843 0.0951553
0.727596 0.220111 0.0941787
0.752773 0.217212 0.0933547
0.778134 0.214099 0.0927901
0.803861 0.210788 0.092668
0.830182 0.207416 0.0927749
0.129152 0.197818 0.144503
0.140551 0.198367 0.145632
0.146853 0.198535 0.146197
0.153826 0.198596 0.146807
0.16112 0.198383 0.147417
0.168719 0.199863 0.147509
0.178195 0.208988 0.145403
0.191546 0.221027 0.141436
0.2094 0.234302 0.135393
0.230701 0.246906 0.127871
0.255283 0.258289 0.120211
0.285801 0.270436 0.11191
0.32459 0.283177 0.101381
0.357794 0.28629 0.0958267
0.385077 0.282918 0.0946365
0.412543 0.278935 0.093904
0.439963 0.274388 0.0938582
0.466575 0.269123 0.0945754
0.491875 0.263645 0.0955673
0.516091 0.258762 0.0961318
0.540276 0.255512 0.0955062
0.565194 0.254017 0.0936599
0.590417 0.25243 0.0917525
0.616037 0.250675 0.0897841
0.642252 0.248814 0.0878767
0.668482 0.246738 0.0859541
0.69453 0.244465 0.0843977
0.719966 0.241825 0.0831922
0.745418 0.238926 0.0823224
0.770977 0.235981 0.081529
0.796658 0.232792 0.0811627
0.822782 0.229572 0.0810864
0.849485 0.226093 0.0815137
0.125185 0.214389 0.148104
0.138186 0.21529 0.14905
0.145464 0.215656 0.149599
0.153582 0.215778 0.150149
0.162097 0.215732 0.150713
0.170871 0.215518 0.151232
0.179843 0.219669 0.150271
0.191058 0.230381 0.146242
0.206546 0.243824 0.139422
0.226505 0.258091 0.130282
0.250141 0.271626 0.119295
0.276799 0.283497 0.107973
0.308186 0.295033 0.0969863
0.349477 0.309941 0.0816968
0.388449 0.316533 0.0724346
0.420066 0.314015 0.0706798
0.449851 0.309514 0.0697795
0.478431 0.304006 0.0701305
0.505257 0.297475 0.0720226
0.530495 0.290242 0.0745251
0.554971 0.283192 0.0767681
0.579431 0.277287 0.0780041
0.604578 0.273533 0.0775311
0.630854 0.271687 0.0755322
0.657542 0.269749 0.0734569
0.684062 0.267491 0.0715953
0.710277 0.264988 0.070161
0.735988 0.262242 0.0690471
0.761746 0.259236 0.0682841
0.787549 0.256138 0.0677806
0.813443 0.252857 0.0677653
0.839902 0.249622 0.0679637
0.867002 0.246235 0.0686503
0.117861 0.231708 0.150683
0.133257 0.233112 0.151492
0.141604 0.233661 0.15201
0.150912 0.233906 0.152483
0.160845 0.233997 0.152987
0.170886 0.23386 0.153521
0.181094 0.234287 0.153719
0.191363 0.241047 0.150805
0.204532 0.253285 0.144213
0.222019 0.267765 0.134173
0.243961 0.282704 0.121736
0.269718 0.29688 0.107012
0.298024 0.308934 0.091722
0.330709 0.320806 0.0771649
0.373404 0.337377 0.0644999
0.418555 0.348013 0.0554208
0.455329 0.347051 0.0518196
0.485801 0.341299 0.0523842
0.514412 0.334386 0.0537423
0.541466 0.326665 0.0548867
0.567605 0.318273 0.0560922
0.593194 0.309789 0.0571756
0.618631 0.302037 0.057557
0.644556 0.295888 0.0572366
0.671229 0.292103 0.0564279
0.69807 0.289677 0.0547494
0.724346 0.286946 0.0534218
0.750347 0.284092 0.0525368
0.776379 0.280964 0.0520485
0.802365 0.27776 0.0518959
0.828565 0.274388 0.0521706
0.855207 0.271031 0.0529183
0.882597 0.267704 0.0540322
0.107393 0.24947 0.152453
0.125536 0.251362 0.153185
0.13521 0.25214 0.153613
0.14583 0.252598 0.153933
0.157015 0.252857 0.154345
0.168658 0.252888 0.154757
0.180484 0.252522 0.15523
0.191882 0.253956 0.154589
0.203586 0.263447 0.149126
0.218509 0.277256 0.139284
0.237934 0.292515 0.125795
0.261707 0.307851 0.110079
0.289662 0.322805 0.0910658
0.31989 0.335576 0.0736553
0.354742 0.348882 0.0623484
0.398978 0.365469 0.0495155
0.448096 0.37911 0.036408
0.488426 0.38056 0.0314946
0.518807 0.373236 0.0320439
0.547723 0.365225 0.033402
0.575845 0.35668 0.0353094
0.603464 0.347723 0.0373541
0.630732 0.338521 0.0394598
0.657801 0.329458 0.0416266
0.68452 0.321202 0.0433661
0.710826 0.314305 0.0431373
0.737011 0.310292 0.0422217
0.763363 0.307301 0.0411688
0.789517 0.304021 0.0403601
0.815717 0.30071 0.0396735
0.842069 0.297185 0.0391852
0.868894 0.293812 0.0388495
0.896406 0.290486 0.0386053
0.0983597 0.26865 0.153826
0.115053 0.270146 0.154208
0.126253 0.271061 0.154513
0.138354 0.271733 0.154772
0.150958 0.272236 0.155108
0.164263 0.272404 0.155337
0.177554 0.272145 0.155581
0.190784 0.271641 0.155871
0.203143 0.275303 0.153552
0.216251 0.286931 0.145052
0.23299 0.302007 0.131563
0.25417 0.317632 0.115267
0.279835 0.333547 0.0960403
0.310018 0.349599 0.0733349
0.343099 0.363958 0.0574807
0.37966 0.377523 0.0456092
0.423972 0.393469 0.0313573
0.473701 0.40827 0.0205386
0.516884 0.412161 0.0166934
0.549844 0.405402 0.0167697
0.579873 0.396719 0.017792
0.609384 0.387701 0.0189364
0.638575 0.378424 0.0201267
0.667308 0.368856 0.0214237
0.695201 0.358663 0.0232853
0.72221 0.34847 0.0261082
0.748486 0.33962 0.0289158
0.774624 0.331823 0.0312657
0.801007 0.328298 0.0308385
0.82742 0.32491 0.0305333
0.854032 0.321324 0.030518
0.881025 0.317784 0.029984
0.908568 0.314397 0.0290074
0.0900893 0.288655 0.154711
0.101717 0.289174 0.154894
0.114702 0.290394 0.155016
0.12871 0.291341 0.155169
0.142947 0.292042 0.155291
0.157916 0.292363 0.155367
0.172717 0.292287 0.155474
0.187533 0.291829 0.155596
0.201801 0.291737 0.155398
0.214954 0.29839 0.150164
0.229511 0.311574 0.13846
0.24802 0.327291 0.121874
0.270985 0.343435 0.102739
0.298741 0.360189 0.0793469
0.331441 0.377554 0.0585031
0.366735 0.392859 0.041062
0.403525 0.405554 0.0279698
0.446342 0.419806 0.0196841
0.495674 0.435508 0.0124514
0.542565 0.443061 0.00784314
0.580163 0.438346 0.00654612
0.61146 0.429313 0.00650034
0.642329 0.419959 0.00653086
0.672511 0.4103 0.00666819
0.701778 0.400046 0.00735485
0.729976 0.389013 0.00941482
0.757458 0.3776 0.0117647
0.784314 0.366064 0.0140688
0.810819 0.357473 0.0150149
0.837293 0.350271 0.0178531
0.864118 0.346716 0.0185397
0.891325 0.343069 0.0191958
0.918959 0.33962 0.019791
0.0807813 0.309224 0.15523
0.0910964 0.309422 0.155367
0.10071 0.310033 0.155337
0.11696 0.311284 0.155261
0.133089 0.3122 0.155154
0.149722 0.312657 0.155032
0.166369 0.312718 0.155001
0.182681 0.312367 0.154955
0.198672 0.311666 0.154955
0.213672 0.312901 0.153536
0.227466 0.322194 0.145037
0.243473 0.336965 0.129625
0.263905 0.353506 0.109972
0.288853 0.370306 0.0877852
0.318502 0.38764 0.0632944
0.352697 0.405295 0.0417334
0.388983 0.420462 0.0268254
0.425574 0.431998 0.0181888
0.466514 0.444938 0.0122835
0.516197 0.461814 0.00569161
0.568093 0.473716 0.000885023
0.610117 0.472404 0
0.642557 0.462913 0
0.673945 0.45304 0
0.704372 0.442557 0
0.733745 0.431373 0
0.762509 0.419898 0.000244144
0.7906 0.407843 0.000839246
0.818128 0.395636 0.00183108
0.845396 0.384161 0.00427253
0.872511 0.375555 0.00508125
0.899901 0.369543 0.00569161
0.927565 0.366003 0.00674449
0.0734112 0.330953 0.155215
0.081529 0.330617 0.155261
0.0880751 0.330602 0.15523
0.102815 0.331609 0.155047
0.12108 0.332692 0.154788
0.139712 0.333349 0.154421
0.158175 0.333516 0.154177
0.176135 0.333303 0.153964
0.193606 0.332647 0.153811
0.210651 0.331701 0.153887
0.226078 0.334813 0.150301
0.240757 0.346944 0.137728
0.258549 0.363546 0.118364
0.28069 0.380453 0.0966049
0.307164 0.397375 0.0713054
0.337911 0.414511 0.0485237
0.372839 0.431647 0.0293889
0.409903 0.446677 0.0161593
0.446571 0.457755 0.0107576
0.487541 0.470649 0.00563058
0.538842 0.489265 0
0.592889 0.503807 0
0.637446 0.505562 0
0.672114 0.496956 0
0.703532 0.486122 0
0.73402 0.474876 0
0.763851 0.463188 0
0.792996 0.451209 0
0.821683 0.43888 0
0.850111 0.426215 0
0.878401 0.413565 0
0.906523 0.402899 0
0.934585 0.394003 0
0.0677501 0.353902 0.154269
0.0705882 0.352728 0.154482
0.0767681 0.352651 0.154498
0.0864271 0.352834 0.154284
0.106188 0.354009 0.153841
0.127306 0.354879 0.153262
0.147677 0.355215 0.152789
0.167605 0.355093 0.152438
0.186755 0.354559 0.152132
0.205447 0.353658 0.151949
0.223392 0.352789 0.151492
0.238926 0.359518 0.143908
0.254948 0.37409 0.127291
0.274449 0.391028 0.10573
0.298024 0.407614 0.0822003
0.325536 0.424048 0.0570077
0.357122 0.440711 0.0346685
0.392676 0.457481 0.0183719
0.430488 0.472694 0.00860609
0.468544 0.484657 0.00407416
0.510018 0.497551 0
0.56051 0.515877 0
0.615106 0.532723 0
0.662257 0.537789 0
0.699916 0.530785 0
0.731411 0.519341 0
0.762142 0.507561 0
0.792203 0.495476 0
0.821836 0.483192 0
0.851209 0.47068 0
0.880552 0.457938 0
0.909728 0.444923 0
0.938857 0.431434 0
0.0614023 0.378119 0.152285
0.0617838 0.376699 0.152621
0.0648508 0.376242 0.152743
0.0721294 0.376013 0.152483
0.0877394 0.376577 0.152117
0.111559 0.377661 0.151308
0.134829 0.378225 0.150546
0.157031 0.378241 0.149966
0.178225 0.377829 0.149462
0.198642 0.37702 0.149065
0.218372 0.37586 0.148775
0.236622 0.376822 0.146334
0.252766 0.386694 0.13463
0.270115 0.402472 0.114702
0.291051 0.418616 0.0928511
0.315709 0.434424 0.068101
0.344167 0.450507 0.0430915
0.37644 0.466865 0.0226291
0.412512 0.483421 0.00900282
0.451286 0.498985 0.00244144
0.490745 0.511955 0
0.532479 0.524773 0
0.581247 0.542107 0
0.635386 0.560647 0
0.685908 0.569726 0
0.72668 0.564813 0
0.75819 0.55288 0
0.789105 0.540612 0
0.819516 0.528328 0
0.849622 0.515862 0
0.879637 0.503197 0
0.909453 0.490349 0
0.939086 0.477104 0
0.0545968 0.40325 0.149279
0.0549325 0.401984 0.149523
0.0551461 0.40119 0.149706
0.0596933 0.400717 0.149722
0.0707103 0.40061 0.149493
0.0929885 0.40148 0.148653
0.119188 0.402213 0.147463
0.144244 0.402411 0.146639
0.167758 0.402152 0.145861
0.190127 0.401434 0.145235
0.211643 0.400397 0.144793
0.232471 0.399039 0.144381
0.250935 0.402472 0.138964
0.267597 0.41474 0.123415
0.286076 0.430259 0.103746
0.308156 0.445472 0.0820783
0.333822 0.461036 0.0555123
0.36318 0.477012 0.0306096
0.396277 0.493278 0.0125124
0.433051 0.509834 0.0015259
0.472633 0.525826 0
0.51313 0.539544 0
0.55465 0.551934 0
0.601068 0.567773 0
0.654719 0.587716 0
0.709392 0.600183 0
0.751781 0.598001 0
0.784894 0.586633 0
0.816144 0.574182 0
0.846998 0.561685 0
0.877516 0.549065 0
0.907774 0.536217 0
0.937636 0.523125 0
0.0476081 0.428672 0.145327
0.0479286 0.427512 0.145678
0.0481117 0.426825 0.145724
0.0483558 0.42594 0.146059
0.0561379 0.425467 0.145998
0.0715953 0.42562 0.145403
0.100587 0.42652 0.143893
0.129122 0.426963 0.142763
0.155352 0.426871 0.141649
0.179919 0.426322 0.140764
0.203479 0.425361 0.140047
0.226047 0.424109 0.139437
0.247532 0.423011 0.138491
0.265782 0.429435 0.130159
0.283085 0.442451 0.114992
0.302831 0.457115 0.0960708
0.326024 0.472297 0.0724041
0.352773 0.487892 0.0456092
0.383017 0.503868 0.021088
0.416815 0.520226 0.0043946
0.454108 0.536797 0
0.494026 0.552712 0
0.534798 0.566583 0
0.575967 0.578454 0
0.6206 0.592508 0
0.674464 0.613352 0
0.731075 0.629633 0
0.775418 0.630289 0
0.811719 0.621073 0
0.843397 0.608377 0
0.87454 0.595621 0
0.905257 0.582605 0
0.935424 0.569421 0
0.0406043 0.454292 0.140627
0.0409094 0.453178 0.140932
0.0410773 0.452537 0.140902
0.0413062 0.451698 0.141192
0.0423285 0.45069 0.141497
0.0526741 0.45037 0.141146
0.0801099 0.451102 0.139773
0.111696 0.451682 0.138186
0.141054 0.451759 0.136828
0.168185 0.451316 0.135775
0.193866 0.450462 0.134798
0.21825 0.449287 0.133913
0.241505 0.447883 0.133562
0.262959 0.448615 0.132784
0.281605 0.456245 0.125292
0.299855 0.469413 0.110002
0.320699 0.484215 0.089662
0.3449 0.499458 0.0640421
0.372503 0.515175 0.0364843
0.403555 0.531334 0.0132601
0.437934 0.547601 0
0.475151 0.563592 0
0.514733 0.578958 0
0.555871 0.593042 0
0.597162 0.605097 0
0.641077 0.618341 0
0.693965 0.638911 0
0.750576 0.65774 0
0.799329 0.663401 0
0.838697 0.656001 0
0.870527 0.643015 0
0.901732 0.629694 0
0.932296 0.616175 0
0.0336919 0.480201 0.134844
0.0339513 0.47921 0.134951
0.0341192 0.478614 0.134981
0.0343328 0.477806 0.13518
0.0345769 0.47686 0.135332
0.0404517 0.476188 0.135348
0.0583658 0.476173 0.134554
0.0914015 0.476799 0.132692
0.124514 0.476967 0.13109
0.154726 0.476631 0.129702
0.182666 0.475868 0.128573
0.208896 0.474845 0.12784
0.233921 0.47361 0.12874
0.258061 0.472145 0.131884
0.279835 0.473976 0.132097
0.298802 0.482933 0.123171
0.317891 0.496742 0.106477
0.339727 0.511711 0.0850538
0.364843 0.52723 0.0575418
0.393225 0.543069 0.0282292
0.424674 0.558892 0.00630198
0.458961 0.574487 0
0.495827 0.589731 0
0.535256 0.604852 0
0.576577 0.619318 0
0.618265 0.631815 0
0.662028 0.644968 0
0.713405 0.664683 0
0.769833 0.686412 0
0.823651 0.696651 0
0.865263 0.691341 0
0.896986 0.677623 0
0.928023 0.663645 0
0.0268559 0.506889 0.127275
0.0270848 0.506004 0.127413
0.0272526 0.505394 0.127367
0.0274205 0.504677 0.127611
0.0276493 0.503822 0.127703
0.0279088 0.50277 0.127947
0.0376898 0.502205 0.127657
0.0678416 0.502556 0.125872
0.104936 0.502831 0.123903
0.138949 0.502617 0.12224
0.169619 0.502022 0.121706
0.197971 0.501152 0.122621
0.22504 0.500038 0.125536
0.25095 0.498695 0.129534
0.275914 0.497154 0.134035
0.298085 0.499901 0.133333
0.317388 0.510216 0.122667
0.337255 0.524712 0.10486
0.360052 0.53994 0.0825208
0.385885 0.555367 0.0538796
0.414542 0.570672 0.0235447
0.44593 0.58584 0.00241093
0.479973 0.600855 0
0.516655 0.615778 0
0.555749 0.630747 0
0.597131 0.645563 0
0.639033 0.658503 0
0.683131 0.671992 0
0.733074 0.690593 0
0.789014 0.714351 0
0.848051 0.729473 0
0.88864 0.724392 0
0.922423 0.711894 0
0.0202029 0.534569 0.117617
0.0204013 0.53373 0.117891
0.0205234 0.533211 0.117784
0.0206912 0.532525 0.117983
0.0208743 0.531762 0.11809
0.0211032 0.530831 0.118029
0.0238499 0.529809 0.11809
0.0436866 0.529549 0.117449
0.081117 0.529839 0.116289
0.119493 0.529809 0.115328
0.153887 0.529366 0.116976
0.185199 0.528588 0.12018
0.21474 0.52752 0.123919
0.242802 0.526238 0.128054
0.269551 0.524758 0.132631
0.295384 0.523079 0.137591
0.317968 0.526848 0.135943
0.337545 0.538552 0.123781
0.35816 0.553307 0.105455
0.381552 0.5682 0.0830396
0.407584 0.583001 0.0545968
0.43624 0.597742 0.0236362
0.467552 0.612528 0.00209049
0.501442 0.627253 0
0.537606 0.641947 0
0.576211 0.656748 0
0.617426 0.671748 0
0.660136 0.685588 0
0.704555 0.69958 0
0.752819 0.716487 0
0.807996 0.740063 0
0.866728 0.758007 0
0.911101 0.757153 0
0.0138705 0.563256 0.105364
0.0140536 0.562417 0.10544
0.0141299 0.561975 0.105837
0.0142519 0.561379 0.106355
0.0144045 0.560678 0.10692
0.0145876 0.559808 0.107591
0.014786 0.558831 0.108339
0.0241855 0.558175 0.109743
0.052903 0.558099 0.111681
0.0952773 0.55819 0.113588
0.135363 0.557839 0.116167
0.170718 0.557076 0.119463
0.203098 0.556069 0.123278
0.233494 0.554803 0.127581
0.262287 0.553384 0.132296
0.289952 0.551781 0.137423
0.316442 0.550271 0.142611
0.339223 0.554864 0.140291
0.359075 0.567285 0.12726
0.38024 0.581613 0.109361
0.403906 0.595956 0.0876936
0.430091 0.610346 0.0598764
0.458717 0.624811 0.0281834
0.489799 0.639323 0.00447089
0.523232 0.653925 0
0.558968 0.668574 0
0.597223 0.68333 0
0.638071 0.69839 0
0.6813 0.71313 0
0.725887 0.727443 0
0.772091 0.742412 0
0.826764 0.765957 0
0.883772 0.785794 0
0.00805676 0.592309 0.0934005
0.00817884 0.591608 0.0941024
0.00822461 0.591211 0.0956741
0.00828565 0.590723 0.0975052
0.00836194 0.590066 0.0999008
0.0084535 0.58938 0.102571
0.00854505 0.588586 0.105531
0.00866712 0.58764 0.109026
0.0235294 0.587076 0.112184
0.0669566 0.587076 0.114382
0.113756 0.586816 0.116945
0.154208 0.586084 0.120272
0.190066 0.585061 0.124254
0.223117 0.583841 0.128725
0.254292 0.582452 0.133639
0.283864 0.580911 0.138994
0.312245 0.579202 0.144701
0.338979 0.578317 0.149538
0.361929 0.583398 0.146853
0.382086 0.595697 0.134142
0.403555 0.609644 0.117037
0.427359 0.623682 0.0962081
0.453483 0.637888 0.0691997
0.48188 0.652216 0.036759
0.51252 0.666667 0.0089723
0.545586 0.681239 0
0.580911 0.695918 0
0.618692 0.710613 0
0.658824 0.725307 0
0.702388 0.740856 0
0.746899 0.755383 0
0.792569 0.769833 0
0.845136 0.791302 0
0.00270085 0.621775 0.0925917
0.00276188 0.62118 0.0951247
0.0027924 0.620783 0.0967117
0.00283818 0.620371 0.0986191
0.00288396 0.619806 0.100999
0.00294499 0.61915 0.103731
0.00302129 0.618448 0.106737
0.00309758 0.617594 0.110292
0.00740063 0.616724 0.113985
0.0386816 0.616297 0.116945
0.0889906 0.615976 0.119753
0.136065 0.615274 0.123171
0.175845 0.614282 0.127291
0.211948 0.613077 0.13196
0.245686 0.611673 0.137133
0.277409 0.610147 0.142672
0.307576 0.608499 0.148608
0.336477 0.60676 0.154849
0.363409 0.606378 0.159625
0.386465 0.611948 0.156847
0.406729 0.624292 0.144472
0.428244 0.63798 0.127947
0.451942 0.651911 0.10753
0.477836 0.666056 0.0811475
0.505898 0.680369 0.0475319
0.536339 0.694881 0.0133516
0.568887 0.709468 0
0.603723 0.723995 0
0.640558 0.738323 0
0.679728 0.75259 0
0.722881 0.768368 0
0.767285 0.782803 0
0.812604 0.796948 0
0 0.651926 0.0958724
0 0.651408 0.0984207
0 0.651057 0.0999313
0 0.65066 0.101946
0 0.650156 0.104265
0 0.649546 0.107012
0 0.648844 0.110201
0 0.648081 0.113588
0 0.647196 0.11751
