example-Basic/bin/data/Shaders/ofxPostProcessing/luts/6.cube
TITLE "Generate by Resolve"
LUT_3D_SIZE 9
0.0180056 0.0180056 0.0180056
0.0222934 0.0222934 0.0222934
0.0345006 0.0345006 0.0345006
0.0562142 0.0562142 0.0562142
0.0878614 0.0878614 0.0878614
0.130465 0.130465 0.130465
0.188052 0.188052 0.188052
0.268849 0.268849 0.268849
0.376776 0.376776 0.376776
0.0447852 0.0447852 0.0447852
0.0629282 0.0629282 0.0629282
0.0883497 0.0883497 0.0883497
0.112337 0.112337 0.112337
0.14432 0.14432 0.14432
0.187961 0.187961 0.187961
0.246998 0.246998 0.246998
0.327657 0.327657 0.327657
0.433097 0.433097 0.433097
0.0987716 0.0987716 0.0987716
0.107424 0.107424 0.107424
0.144015 0.144015 0.144015
0.198062 0.198062 0.198062
0.240482 0.240482 0.240482
0.284779 0.284779 0.284779
0.341207 0.341207 0.341207
0.418006 0.418006 0.418006
0.51574 0.51574 0.51574
0.184115 0.184115 0.184115
0.183642 0.183642 0.183642
0.217273 0.217273 0.217273
0.274479 0.274479 0.274479
0.355962 0.355962 0.355962
0.403494 0.403494 0.403494
0.466682 0.466682 0.466682
0.535943 0.535943 0.535943
0.620935 0.620935 0.620935
0.300603 0.300603 0.300603
0.300053 0.300053 0.300053
0.315068 0.315068 0.315068
0.365866 0.365866 0.365866
0.431342 0.431342 0.431342
0.522148 0.522148 0.522148
0.580468 0.580468 0.580468
0.648692 0.648692 0.648692
0.722988 0.722988 0.722988
0.44094 0.44094 0.44094
0.440696 0.440696 0.440696
0.440589 0.440589 0.440589
0.479912 0.479912 0.479912
0.534295 0.534295 0.534295
0.596155 0.596155 0.596155
0.680095 0.680095 0.680095
0.738201 0.738201 0.738201
0.796033 0.796033 0.796033
0.594949 0.594949 0.594949
0.595209 0.595209 0.595209
0.595621 0.595621 0.595621
0.611063 0.611063 0.611063
0.653376 0.653376 0.653376
0.699168 0.699168 0.699168
0.744961 0.744961 0.744961
0.801022 0.801022 0.801022
0.854841 0.854841 0.854841
0.741787 0.741787 0.741787
0.742306 0.742306 0.742306
0.74316 0.74316 0.74316
0.744701 0.744701 0.744701
0.770123 0.770123 0.770123
0.800427 0.800427 0.800427
0.830747 0.830747 0.830747
0.859129 0.859129 0.859129
0.890867 0.890867 0.890867
0.862943 0.862943 0.862943
0.863645 0.863645 0.863645
0.864759 0.864759 0.864759
0.866529 0.866529 0.866529
0.874586 0.874586 0.874586
0.892042 0.892042 0.892042
0.910033 0.910033 0.910033
0.928267 0.928267 0.928267
0.947021 0.947021 0.947021
0.0193484 0.0193484 0.0193484
0.0321202 0.0321202 0.0321202
0.0370031 0.0370031 0.0370031
0.0738842 0.0738842 0.0738842
0.12781 0.12781 0.12781
0.182254 0.182254 0.182254
0.240436 0.240436 0.240436
0.316716 0.316716 0.316716
0.415656 0.415656 0.415656
0.0720531 0.0720531 0.0720531
0.106493 0.106493 0.106493
0.125505 0.125505 0.125505
0.152926 0.152926 0.152926
0.18941 0.18941 0.18941
0.23534 0.23534 0.23534
0.293538 0.293538 0.293538
0.369528 0.369528 0.369528
0.465995 0.465995 0.465995
0.155016 0.155016 0.155016
0.16434 0.16434 0.16434
0.194202 0.194202 0.194202
0.241428 0.241428 0.241428
0.281529 0.281529 0.281529
0.323583 0.323583 0.323583
0.378973 0.378973 0.378973
0.451209 0.451209 0.451209
0.541009 0.541009 0.541009
0.252232 0.252232 0.252232
0.25156 0.25156 0.25156
0.266941 0.266941 0.266941
0.321447 0.321447 0.321447
0.391867 0.391867 0.391867
0.438911 0.438911 0.438911
0.495384 0.495384 0.495384
0.558907 0.558907 0.558907
0.63798 0.63798 0.63798
0.362112 0.362112 0.362112
0.361517 0.361517 0.361517
0.362493 0.362493 0.362493
0.407691 0.407691 0.407691
0.467872 0.467872 0.467872
0.549584 0.549584 0.549584
0.603021 0.603021 0.603021
0.66659 0.66659 0.66659
0.732967 0.732967 0.732967
0.489677 0.489677 0.489677
0.489448 0.489448 0.489448
0.489235 0.489235 0.489235
0.513161 0.513161 0.513161
0.563226 0.563226 0.563226
0.620172 0.620172 0.620172
0.696056 0.696056 0.696056
0.749081 0.749081 0.749081
0.803449 0.803449 0.803449
0.627863 0.627863 0.627863
0.628107 0.628107 0.628107
0.628428 0.628428 0.628428
0.633753 0.633753 0.633753
0.671824 0.671824 0.671824
0.713985 0.713985 0.713985
0.75642 0.75642 0.75642
0.810315 0.810315 0.810315
0.859251 0.859251 0.859251
0.75819 0.75819 0.75819
0.758633 0.758633 0.758633
0.759411 0.759411 0.759411
0.760601 0.760601 0.760601
0.778973 0.778973 0.778973
0.80766 0.80766 0.80766
0.836393 0.836393 0.836393
0.863478 0.863478 0.863478
0.894881 0.894881 0.894881
0.869108 0.869108 0.869108
0.869688 0.869688 0.869688
0.870604 0.870604 0.870604
0.872206 0.872206 0.872206
0.87718 0.87718 0.87718
0.894194 0.894194 0.894194
0.911849 0.911849 0.911849
0.929793 0.929793 0.929793
0.948379 0.948379 0.948379
0.0276951 0.0276951 0.0276951
0.0482032 0.0482032 0.0482032
0.0693217 0.0693217 0.0693217
0.0677958 0.0677958 0.0677958
0.0962997 0.0962997 0.0962997
0.158434 0.158434 0.158434
0.250278 0.250278 0.250278
0.35758 0.35758 0.35758
0.456168 0.456168 0.456168
0.0833906 0.0833906 0.0833906
0.121218 0.121218 0.121218
0.142763 0.142763 0.142763
0.141222 0.141222 0.141222
0.188571 0.188571 0.188571
0.262699 0.262699 0.262699
0.343709 0.343709 0.343709
0.416037 0.416037 0.416037
0.501534 0.501534 0.501534
0.162936 0.162936 0.162936
0.201266 0.201266 0.201266
0.256916 0.256916 0.256916
0.28838 0.28838 0.28838
0.327413 0.327413 0.327413
0.370733 0.370733 0.370733
0.424094 0.424094 0.424094
0.489738 0.489738 0.489738
0.569879 0.569879 0.569879
0.303105 0.303105 0.303105
0.3308 0.3308 0.3308
0.346609 0.346609 0.346609
0.386282 0.386282 0.386282
0.439841 0.439841 0.439841
0.482277 0.482277 0.482277
0.528786 0.528786 0.528786
0.587304 0.587304 0.587304
0.657877 0.657877 0.657877
0.441337 0.441337 0.441337
0.446021 0.446021 0.446021
0.445151 0.445151 0.445151
0.464729 0.464729 0.464729
0.517342 0.517342 0.517342
0.584543 0.584543 0.584543
0.633371 0.633371 0.633371
0.68867 0.68867 0.68867
0.744976 0.744976 0.744976
0.555352 0.555352 0.555352
0.555138 0.555138 0.555138
0.55494 0.55494 0.55494
0.559548 0.559548 0.559548
0.602869 0.602869 0.602869
0.652461 0.652461 0.652461
0.717708 0.717708 0.717708
0.764019 0.764019 0.764019
0.813703 0.813703 0.813703
0.671595 0.671595 0.671595
0.671733 0.671733 0.671733
0.671962 0.671962 0.671962
0.672267 0.672267 0.672267
0.697093 0.697093 0.697093
0.734524 0.734524 0.734524
0.772519 0.772519 0.772519
0.823636 0.823636 0.823636
0.865476 0.865476 0.865476
0.780972 0.780972 0.780972
0.781338 0.781338 0.781338
0.781964 0.781964 0.781964
0.782956 0.782956 0.782956
0.79144 0.79144 0.79144
0.817914 0.817914 0.817914
0.84448 0.84448 0.84448
0.869749 0.869749 0.869749
0.900832 0.900832 0.900832
0.877821 0.877821 0.877821
0.878386 0.878386 0.878386
0.879271 0.879271 0.879271
0.88069 0.88069 0.88069
0.882856 0.882856 0.882856
0.897429 0.897429 0.897429
0.914595 0.914595 0.914595
0.932174 0.932174 0.932174
0.950561 0.950561 0.950561
0.0455329 0.0455329 0.0455329
0.0655833 0.0655833 0.0655833
0.0982528 0.0982528 0.0982528
0.122744 0.122744 0.122744
0.112673 0.112673 0.112673
0.132158 0.132158 0.132158
0.193973 0.193973 0.193973
0.291554 0.291554 0.291554
0.41854 0.41854 0.41854
0.121813 0.121813 0.121813
0.140352 0.140352 0.140352
0.171435 0.171435 0.171435
0.198459 0.198459 0.198459
0.185824 0.185824 0.185824
0.212116 0.212116 0.212116
0.286107 0.286107 0.286107
0.387732 0.387732 0.387732
0.500877 0.500877 0.500877
0.173938 0.173938 0.173938
0.216648 0.216648 0.216648
0.283131 0.283131 0.283131
0.315709 0.315709 0.315709
0.310201 0.310201 0.310201
0.360037 0.360037 0.360037
0.435828 0.435828 0.435828
0.517601 0.517601 0.517601
0.597696 0.597696 0.597696
0.304982 0.304982 0.304982
0.34052 0.34052 0.34052
0.395087 0.395087 0.395087
0.459571 0.459571 0.459571
0.490166 0.490166 0.490166
0.527108 0.527108 0.527108
0.568307 0.568307 0.568307
0.618769 0.618769 0.618769
0.67805 0.67805 0.67805
0.474632 0.474632 0.474632
0.494987 0.494987 0.494987
0.52636 0.52636 0.52636
0.544854 0.544854 0.544854
0.579782 0.579782 0.579782
0.627771 0.627771 0.627771
0.668086 0.668086 0.668086
0.709804 0.709804 0.709804
0.757855 0.757855 0.757855
0.607889 0.607889 0.607889
0.621607 0.621607 0.621607
0.632898 0.632898 0.632898
0.632776 0.632776 0.632776
0.650904 0.650904 0.650904
0.691966 0.691966 0.691966
0.743984 0.743984 0.743984
0.78265 0.78265 0.78265
0.826032 0.826032 0.826032
0.722133 0.722133 0.722133
0.722469 0.722469 0.722469
0.72253 0.72253 0.72253
0.722637 0.722637 0.722637
0.727855 0.727855 0.727855
0.759838 0.759838 0.759838
0.793027 0.793027 0.793027
0.837873 0.837873 0.837873
0.873625 0.873625 0.873625
0.808728 0.808728 0.808728
0.809003 0.809003 0.809003
0.809445 0.809445 0.809445
0.810162 0.810162 0.810162
0.811276 0.811276 0.811276
0.830732 0.830732 0.830732
0.854978 0.854978 0.854978
0.878172 0.878172 0.878172
0.909331 0.909331 0.909331
0.889418 0.889418 0.889418
0.88986 0.88986 0.88986
0.890639 0.890639 0.890639
0.891829 0.891829 0.891829
0.893553 0.893553 0.893553
0.901473 0.901473 0.901473
0.918166 0.918166 0.918166
0.935378 0.935378 0.935378
0.953689 0.953689 0.953689
0.0704356 0.0704356 0.0704356
0.0897231 0.0897231 0.0897231
0.121599 0.121599 0.121599
0.172213 0.172213 0.172213
0.19733 0.19733 0.19733
0.178286 0.178286 0.178286
0.191791 0.191791 0.191791
0.239216 0.239216 0.239216
0.328573 0.328573 0.328573
0.148226 0.148226 0.148226
0.166201 0.166201 0.166201
0.197345 0.197345 0.197345
0.246784 0.246784 0.246784
0.273335 0.273335 0.273335
0.252232 0.252232 0.252232
0.264012 0.264012 0.264012
0.319844 0.319844 0.319844
0.411688 0.411688 0.411688
0.221683 0.221683 0.221683
0.274052 0.274052 0.274052
0.310048 0.310048 0.310048
0.354742 0.354742 0.354742
0.384466 0.384466 0.384466
0.366506 0.366506 0.366506
0.379843 0.379843 0.379843
0.445563 0.445563 0.445563
0.536294 0.536294 0.536294
0.318578 0.318578 0.318578
0.353048 0.353048 0.353048
0.41004 0.41004 0.41004
0.486152 0.486152 0.486152
0.516777 0.516777 0.516777
0.507729 0.507729 0.507729
0.544961 0.544961 0.544961
0.608118 0.608118 0.608118
0.676707 0.676707 0.676707
0.467628 0.467628 0.467628
0.493706 0.493706 0.493706
0.533333 0.533333 0.533333
0.586542 0.586542 0.586542
0.639979 0.639979 0.639979
0.664439 0.664439 0.664439
0.69485 0.69485 0.69485
0.727993 0.727993 0.727993
0.767544 0.767544 0.767544
0.634836 0.634836 0.634836
0.647532 0.647532 0.647532
0.666499 0.666499 0.666499
0.692775 0.692775 0.692775
0.708217 0.708217 0.708217
0.7346 0.7346 0.7346
0.77084 0.77084 0.77084
0.801953 0.801953 0.801953
0.834714 0.834714 0.834714
0.743175 0.743175 0.743175
0.750393 0.750393 0.750393
0.761913 0.761913 0.761913
0.773571 0.773571 0.773571
0.774166 0.774166 0.774166
0.788098 0.788098 0.788098
0.816632 0.816632 0.816632
0.853483 0.853483 0.853483
0.883101 0.883101 0.883101
0.833005 0.833005 0.833005
0.836866 0.836866 0.836866
0.839887 0.839887 0.839887
0.840497 0.840497 0.840497
0.841169 0.841169 0.841169
0.846113 0.846113 0.846113
0.867872 0.867872 0.867872
0.888869 0.888869 0.888869
0.918868 0.918868 0.918868
0.903609 0.903609 0.903609
0.904082 0.904082 0.904082
0.904662 0.904662 0.904662
0.905608 0.905608 0.905608
0.906935 0.906935 0.906935
0.908904 0.908904 0.908904
0.922881 0.922881 0.922881
0.939834 0.939834 0.939834
0.958114 0.958114 0.958114
0.104143 0.104143 0.104143
0.123552 0.123552 0.123552
0.156207 0.156207 0.156207
0.208209 0.208209 0.208209
0.279347 0.279347 0.279347
0.298299 0.298299 0.298299
0.269749 0.269749 0.269749
0.267872 0.267872 0.267872
0.284367 0.284367 0.284367
0.183505 0.183505 0.183505
0.202167 0.202167 0.202167
0.234134 0.234134 0.234134
0.283162 0.283162 0.283162
0.348501 0.348501 0.348501
0.368154 0.368154 0.368154
0.339071 0.339071 0.339071
0.335363 0.335363 0.335363
0.348104 0.348104 0.348104
0.296132 0.296132 0.296132
0.316258 0.316258 0.316258
0.345312 0.345312 0.345312
0.388586 0.388586 0.388586
0.444236 0.444236 0.444236
0.465736 0.465736 0.465736
0.43888 0.43888 0.43888
0.430457 0.430457 0.430457
0.446983 0.446983 0.446983
0.349386 0.349386 0.349386
0.39472 0.39472 0.39472
0.465919 0.465919 0.465919
0.513237 0.513237 0.513237
0.555459 0.555459 0.555459
0.578897 0.578897 0.578897
0.556924 0.556924 0.556924
0.540383 0.540383 0.540383
0.591424 0.591424 0.591424
0.484169 0.484169 0.484169
0.508415 0.508415 0.508415
0.545296 0.545296 0.545296
0.597513 0.597513 0.597513
0.661936 0.661936 0.661936
0.686137 0.686137 0.686137
0.672435 0.672435 0.672435
0.69836 0.69836 0.69836
0.747326 0.747326 0.747326
0.621347 0.621347 0.621347
0.637583 0.637583 0.637583
0.662409 0.662409 0.662409
0.696712 0.696712 0.696712
0.737819 0.737819 0.737819
0.777615 0.777615 0.777615
0.79469 0.79469 0.79469
0.816571 0.816571 0.816571
0.841779 0.841779 0.841779
0.760449 0.760449 0.760449
0.767849 0.767849 0.767849
0.779675 0.779675 0.779675
0.795117 0.795117 0.795117
0.814542 0.814542 0.814542
0.825849 0.825849 0.825849
0.844144 0.844144 0.844144
0.870039 0.870039 0.870039
0.893675 0.893675 0.893675
0.844831 0.844831 0.844831
0.848508 0.848508 0.848508
0.85452 0.85452 0.85452
0.863371 0.863371 0.863371
0.872389 0.872389 0.872389
0.873579 0.873579 0.873579
0.883467 0.883467 0.883467
0.902052 0.902052 0.902052
0.9281 0.9281 0.9281
0.91284 0.91284 0.91284
0.914534 0.914534 0.914534
0.917617 0.917617 0.917617
0.921401 0.921401 0.921401
0.922988 0.922988 0.922988
0.924392 0.924392 0.924392
0.929305 0.929305 0.929305
0.945968 0.945968 0.945968
0.963912 0.963912 0.963912
0.153948 0.153948 0.153948
0.175036 0.175036 0.175036
0.210498 0.210498 0.210498
0.264714 0.264714 0.264714
0.336416 0.336416 0.336416
0.420874 0.420874 0.420874
0.424949 0.424949 0.424949
0.384009 0.384009 0.384009
0.355993 0.355993 0.355993
0.234318 0.234318 0.234318
0.25417 0.25417 0.25417
0.286915 0.286915 0.286915
0.336538 0.336538 0.336538
0.401083 0.401083 0.401083
0.475441 0.475441 0.475441
0.480934 0.480934 0.480934
0.440681 0.440681 0.440681
0.412192 0.412192 0.412192
0.346761 0.346761 0.346761
0.364431 0.364431 0.364431
0.393133 0.393133 0.393133
0.435569 0.435569 0.435569
0.489174 0.489174 0.489174
0.550362 0.550362 0.550362
0.558984 0.558984 0.558984
0.52285 0.52285 0.52285
0.493462 0.493462 0.493462
0.434867 0.434867 0.434867
0.476707 0.476707 0.476707
0.516167 0.516167 0.516167
0.549126 0.549126 0.549126
0.590494 0.590494 0.590494
0.637461 0.637461 0.637461
0.649332 0.649332 0.649332
0.619425 0.619425 0.619425
0.581949 0.581949 0.581949
0.501396 0.501396 0.501396
0.524498 0.524498 0.524498
0.568307 0.568307 0.568307
0.639765 0.639765 0.639765
0.683696 0.683696 0.683696
0.71693 0.71693 0.71693
0.732387 0.732387 0.732387
0.712444 0.712444 0.712444
0.682002 0.682002 0.682002
0.636164 0.636164 0.636164
0.650843 0.650843 0.650843
0.672663 0.672663 0.672663
0.703838 0.703838 0.703838
0.742138 0.742138 0.742138
0.791119 0.791119 0.791119
0.808804 0.808804 0.808804
0.797406 0.797406 0.797406
0.813535 0.813535 0.813535
0.74667 0.74667 0.74667
0.755596 0.755596 0.755596
0.769589 0.769589 0.769589
0.790127 0.790127 0.790127
0.815488 0.815488 0.815488
0.844388 0.844388 0.844388
0.872572 0.872572 0.872572
0.884413 0.884413 0.884413
0.900008 0.900008 0.900008
0.854292 0.854292 0.854292
0.859007 0.859007 0.859007
0.865278 0.865278 0.865278
0.874464 0.874464 0.874464
0.885496 0.885496 0.885496
0.898085 0.898085 0.898085
0.905653 0.905653 0.905653
0.918105 0.918105 0.918105
0.938216 0.938216 0.938216
0.919661 0.919661 0.919661
0.92134 0.92134 0.92134
0.924254 0.924254 0.924254
0.928985 0.928985 0.928985
0.935271 0.935271 0.935271
0.942 0.942 0.942
0.943862 0.943862 0.943862
0.953033 0.953033 0.953033
0.971405 0.971405 0.971405
0.229053 0.229053 0.229053
0.252827 0.252827 0.252827
0.290074 0.290074 0.290074
0.345815 0.345815 0.345815
0.418051 0.418051 0.418051
0.499977 0.499977 0.499977
0.581704 0.581704 0.581704
0.565896 0.565896 0.565896
0.512825 0.512825 0.512825
0.305898 0.305898 0.305898
0.326802 0.326802 0.326802
0.359716 0.359716 0.359716
0.408774 0.408774 0.408774
0.470207 0.470207 0.470207
0.539742 0.539742 0.539742
0.612726 0.612726 0.612726
0.59971 0.59971 0.59971
0.549004 0.549004 0.549004
0.410346 0.410346 0.410346
0.427405 0.427405 0.427405
0.454551 0.454551 0.454551
0.495781 0.495781 0.495781
0.546517 0.546517 0.546517
0.605249 0.605249 0.605249
0.666407 0.666407 0.666407
0.659098 0.659098 0.659098
0.612634 0.612634 0.612634
0.520729 0.520729 0.520729
0.537453 0.537453 0.537453
0.558999 0.558999 0.558999
0.592737 0.592737 0.592737
0.633844 0.633844 0.633844
0.677729 0.677729 0.677729
0.72256 0.72256 0.72256
0.720928 0.720928 0.720928
0.683955 0.683955 0.683955
0.547387 0.547387 0.547387
0.579538 0.579538 0.579538
0.627741 0.627741 0.627741
0.678386 0.678386 0.678386
0.70898 0.70898 0.70898
0.741634 0.741634 0.741634
0.775677 0.775677 0.775677
0.780911 0.780911 0.780911
0.755474 0.755474 0.755489
0.6421 0.6421 0.6421
0.655497 0.655497 0.655497
0.674891 0.674891 0.674891
0.710552 0.710552 0.710552
0.769451 0.769451 0.769451
0.805249 0.805249 0.805249
0.830304 0.830304 0.830304
0.840574 0.840574 0.840574
0.826291 0.826291 0.826291
0.758083 0.758083 0.758083
0.766033 0.766033 0.766033
0.779049 0.779049 0.779049
0.797314 0.797314 0.797314
0.819623 0.819623 0.819623
0.846174 0.846174 0.846174
0.880995 0.880995 0.880995
0.893462 0.893462 0.893462
0.884352 0.884352 0.884352
0.843015 0.843015 0.843015
0.847684 0.847684 0.847684
0.855131 0.855131 0.855131
0.866285 0.866285 0.866285
0.880552 0.880552 0.880552
0.897505 0.897505 0.897505
0.916747 0.916747 0.916747
0.937224 0.937224 0.937224
0.946685 0.946685 0.946685
0.921904 0.921904 0.921904
0.92459 0.92459 0.92459
0.928985 0.928985 0.928985
0.935454 0.935454 0.935454
0.94197 0.94197 0.94197
0.950225 0.950225 0.950225
0.960235 0.960235 0.960235
0.967163 0.967163 0.967163
0.981781 0.981781 0.981781
0.353063 0.353063 0.353063
0.377081 0.377081 0.377081
0.41413 0.41413 0.41413
0.468452 0.468452 0.468452
0.534096 0.534096 0.534096
0.605692 0.605692 0.605692
0.675837 0.675837 0.675837
0.736492 0.736492 0.736492
0.709529 0.709529 0.709529
0.413504 0.413504 0.413504
0.434043 0.434043 0.434043
0.46688 0.46688 0.46688
0.517021 0.517021 0.517021
0.574243 0.574243 0.574243
0.636606 0.636606 0.636606
0.697475 0.697475 0.697475
0.751583 0.751583 0.751583
0.728847 0.728847 0.728847
0.490257 0.490257 0.490257
0.508476 0.508476 0.508476
0.535225 0.535225 0.535225
0.574121 0.574121 0.574121
0.62295 0.62295 0.62295
0.675319 0.675319 0.675319
0.727794 0.727794 0.727794
0.775845 0.775845 0.775845
0.758877 0.758877 0.758877
0.579278 0.579278 0.579278
0.594232 0.594232 0.594232
0.616541 0.616541 0.616541
0.648707 0.648707 0.648707
0.686687 0.686687 0.686687
0.727733 0.727733 0.727733
0.769833 0.769833 0.769833
0.809735 0.809735 0.809735
0.801221 0.801221 0.801221
0.633433 0.633433 0.633433
0.657938 0.657938 0.657938
0.688579 0.688579 0.688579
0.714488 0.714488 0.714488
0.74432 0.74432 0.74432
0.777905 0.777905 0.777905
0.813199 0.813199 0.813199
0.846326 0.846326 0.846326
0.844968 0.844968 0.844968
0.633097 0.633097 0.633097
0.653391 0.653391 0.653391
0.693355 0.693355 0.693355
0.749722 0.749722 0.749722
0.800183 0.800183 0.800183
0.827619 0.827619 0.827619
0.855055 0.855055 0.855055
0.880781 0.880781 0.880781
0.882322 0.882322 0.882322
0.775937 0.775937 0.775937
0.781125 0.781125 0.781125
0.789471 0.789471 0.789471
0.802747 0.802747 0.802747
0.822583 0.822583 0.822583
0.867308 0.867308 0.867308
0.894911 0.894911 0.894911
0.91281 0.91281 0.91281
0.919051 0.919051 0.919051
0.869581 0.869581 0.869581
0.873182 0.873182 0.873182
0.878035 0.878035 0.878035
0.885222 0.885222 0.885222
0.894743 0.894743 0.894743
0.906462 0.906462 0.906462
0.920821 0.920821 0.920821
0.946563 0.946563 0.946563
0.957183 0.957183 0.957183
0.924712 0.924712 0.924712
0.926772 0.926772 0.926772
0.930068 0.930068 0.930068
0.935119 0.935119 0.935119
0.942168 0.942168 0.942168
0.95137 0.95137 0.95137
0.963439 0.963439 0.963439
0.979217 0.979217 0.979217
0.999725 0.999725 0.999725
