example-Basic/bin/data/Shaders/ofxPostProcessing/luts/6.cube
TITLE "Generate by Resolve"
LUT_3D_SIZE 33
0.0180056 0.0180056 0.0180056
0.0180362 0.0180362 0.0180362
0.0182345 0.0182345 0.0182345
0.0200809 0.0200809 0.0200809
0.0222934 0.0222934 0.0222934
0.0248264 0.0248264 0.0248264
0.0274968 0.0274968 0.0274968
0.0306096 0.0306096 0.0306096
0.0345006 0.0345006 0.0345006
0.0391241 0.0391241 0.0391241
0.0443275 0.0443275 0.0443275
0.0500496 0.0500496 0.0500496
0.0562142 0.0562142 0.0562142
0.063035 0.063035 0.063035
0.0706493 0.0706493 0.0706493
0.0789807 0.0789807 0.0789807
0.0878614 0.0878614 0.0878614
0.0973373 0.0973373 0.0973373
0.107637 0.107637 0.107637
0.1187 0.1187 0.1187
0.130465 0.130465 0.130465
0.143053 0.143053 0.143053
0.156802 0.156802 0.156802
0.171801 0.171801 0.171801
0.188052 0.188052 0.188052
0.205829 0.205829 0.205829
0.225147 0.225147 0.225147
0.246174 0.246174 0.246174
0.268849 0.268849 0.268849
0.293034 0.293034 0.293034
0.319051 0.319051 0.319051
0.346883 0.346883 0.346883
0.376776 0.376776 0.376776
0.0226444 0.0226444 0.0226444
0.0273442 0.0273442 0.0273442
0.0321813 0.0321813 0.0321813
0.0348363 0.0348363 0.0348363
0.0377508 0.0377508 0.0377508
0.040528 0.040528 0.040528
0.0433661 0.0433661 0.0433661
0.0467079 0.0467079 0.0467079
0.0505989 0.0505989 0.0505989
0.055024 0.055024 0.055024
0.0601053 0.0601053 0.0601053
0.0658579 0.0658579 0.0658579
0.0721752 0.0721752 0.0721752
0.079118 0.079118 0.079118
0.0867475 0.0867475 0.0867475
0.0950637 0.0950637 0.0950637
0.10399 0.10399 0.10399
0.113603 0.113603 0.113603
0.124056 0.124056 0.124056
0.13521 0.13521 0.13521
0.147036 0.147036 0.147036
0.159869 0.159869 0.159869
0.173846 0.173846 0.173846
0.188876 0.188876 0.188876
0.205386 0.205386 0.205386
0.223392 0.223392 0.223392
0.242832 0.242832 0.242832
0.263828 0.263828 0.263828
0.286503 0.286503 0.286503
0.310674 0.310674 0.310704
0.336614 0.336614 0.336614
0.364401 0.364401 0.364401
0.393896 0.393896 0.393896
0.0278935 0.0278935 0.0278935
0.0322881 0.0322881 0.0322881
0.0370794 0.0370794 0.0370794
0.0441749 0.0441749 0.0441749
0.0472572 0.0472572 0.0472572
0.0503548 0.0503548 0.0503548
0.0540932 0.0540932 0.0540932
0.0575265 0.0575265 0.0575265
0.0612802 0.0612802 0.0612802
0.0655985 0.0655985 0.0655985
0.0706798 0.0706798 0.0706798
0.0764172 0.0764172 0.0764172
0.0827039 0.0827039 0.0827039
0.0896773 0.0896773 0.0896773
0.0972763 0.0972763 0.0972763
0.105608 0.105608 0.105608
0.114672 0.114672 0.114672
0.124392 0.124392 0.124392
0.134829 0.134829 0.134829
0.145968 0.145968 0.145968
0.15787 0.15787 0.15787
0.170748 0.170748 0.170748
0.184771 0.184771 0.184771
0.2 0.2 0.2
0.216678 0.216678 0.216678
0.234653 0.234653 0.234653
0.254108 0.254108 0.254108
0.275151 0.275151 0.275151
0.297734 0.297734 0.297734
0.321843 0.321843 0.321843
0.347555 0.347555 0.347555
0.375235 0.375235 0.375235
0.404623 0.404623 0.404623
0.0352026 0.0352026 0.0352026
0.0386664 0.0386664 0.0386664
0.0430152 0.0430152 0.0430152
0.0489357 0.0489357 0.0489357
0.0570382 0.0570382 0.0570382
0.0615244 0.0615244 0.0615244
0.0654154 0.0654154 0.0654154
0.0697032 0.0697032 0.0697032
0.0744945 0.0744945 0.0744945
0.079057 0.079057 0.079057
0.0839857 0.0839857 0.0839857
0.0896315 0.0896315 0.0896315
0.0959335 0.0959335 0.0959335
0.102861 0.102861 0.102861
0.110475 0.110475 0.110475
0.118837 0.118837 0.118837
0.127916 0.127916 0.127916
0.137743 0.137743 0.137743
0.148241 0.148241 0.148241
0.15938 0.15938 0.15938
0.17142 0.17142 0.17142
0.184375 0.184375 0.184375
0.198444 0.198444 0.198444
0.213764 0.213764 0.213764
0.230457 0.230457 0.230457
0.248417 0.248417 0.248417
0.267872 0.267872 0.267872
0.288746 0.288746 0.288746
0.311284 0.311284 0.311284
0.335424 0.335424 0.335424
0.361074 0.361074 0.361074
0.388464 0.388464 0.388464
0.417594 0.417594 0.417594
0.0447852 0.0447852 0.0447852
0.0467079 0.0467079 0.0467079
0.050721 0.050721 0.050721
0.0560311 0.0560311 0.0560311
0.0629282 0.0629282 0.0629282
0.0715496 0.0715496 0.0715496
0.0784924 0.0784924 0.0784924
0.0833448 0.0833448 0.0833448
0.0883497 0.0883497 0.0883497
0.0940719 0.0940719 0.0940719
0.100175 0.100175 0.100175
0.106081 0.106081 0.106081
0.112337 0.112337 0.112337
0.119326 0.119326 0.119326
0.127001 0.127001 0.127001
0.135302 0.135302 0.135302
0.14432 0.14432 0.14432
0.154192 0.154192 0.154192
0.164797 0.164797 0.164797
0.176013 0.176013 0.176013
0.187961 0.187961 0.187961
0.200885 0.200885 0.200885
0.215015 0.215015 0.215015
0.230396 0.230396 0.230396
0.246998 0.246998 0.246998
0.265034 0.265034 0.265034
0.284474 0.284474 0.284474
0.305318 0.305318 0.305318
0.327657 0.327657 0.327657
0.351659 0.351659 0.351659
0.377172 0.377172 0.377172
0.404288 0.404288 0.404288
0.433097 0.433097 0.433097
0.0558633 0.0558633 0.0558633
0.0561227 0.0561227 0.0561227
0.0599069 0.0599069 0.0599069
0.0649882 0.0649882 0.0649882
0.0712596 0.0712596 0.0712596
0.0790112 0.0790112 0.0790112
0.0882124 0.0882124 0.0882124
0.0980392 0.0980392 0.0980392
0.104326 0.104326 0.104326
0.110262 0.110262 0.110262
0.116945 0.116945 0.116945
0.124315 0.124315 0.124315
0.131838 0.131838 0.131838
0.139116 0.139116 0.139116
0.146761 0.146761 0.146761
0.155093 0.155093 0.155093
0.164141 0.164141 0.164141
0.173968 0.173968 0.173968
0.184573 0.184573 0.184573
0.195819 0.195819 0.195819
0.207767 0.207767 0.207767
0.2206 0.2206 0.2206
0.234394 0.234394 0.234394
0.249378 0.249378 0.249378
0.265949 0.265949 0.265949
0.283879 0.283879 0.283879
0.303197 0.303197 0.303197
0.323857 0.323857 0.323857
0.346044 0.346044 0.346044
0.369757 0.369757 0.369757
0.395071 0.395071 0.395071
0.421775 0.421775 0.421775
0.450248 0.450248 0.450248
0.0683909 0.0683909 0.0683909
0.0682689 0.0682689 0.0682689
0.0707561 0.0707561 0.0707561
0.0755016 0.0755016 0.0755016
0.0815442 0.0815442 0.0815442
0.0888228 0.0888228 0.0888228
0.0975814 0.0975814 0.0975814
0.107744 0.107744 0.107744
0.120638 0.120638 0.120638
0.128771 0.128771 0.128771
0.135531 0.135531 0.135531
0.143236 0.143236 0.143236
0.151629 0.151629 0.151629
0.160693 0.160693 0.160693
0.169619 0.169619 0.169619
0.178256 0.178256 0.178256
0.18732 0.18732 0.18732
0.197086 0.197086 0.197086
0.207507 0.207507 0.207507
0.218555 0.218555 0.218555
0.23035 0.23035 0.23035
0.243061 0.243061 0.243061
0.25684 0.25684 0.25684
0.27187 0.27187 0.27187
0.288334 0.288334 0.288334
0.306065 0.306065 0.306065
0.325231 0.325231 0.325231
0.345769 0.345769 0.345769
0.367712 0.367712 0.367712
0.39118 0.39118 0.39118
0.416098 0.416098 0.416098
0.442359 0.442359 0.442359
0.470176 0.470176 0.470176
0.0826886 0.0826886 0.0826886
0.0825666 0.0825666 0.0825666
0.0830396 0.0830396 0.0830396
0.0876783 0.0876783 0.0876783
0.0935988 0.0935988 0.0935988
0.100725 0.100725 0.100725
0.109239 0.109239 0.109239
0.119142 0.119142 0.119142
0.131106 0.131106 0.131106
0.147036 0.147036 0.147036
0.157061 0.157061 0.157061
0.164858 0.164858 0.164858
0.17348 0.17348 0.17348
0.182956 0.182956 0.182956
0.193149 0.193149 0.193149
0.203891 0.203891 0.203891
0.214069 0.214069 0.214069
0.223713 0.223713 0.223713
0.233875 0.233875 0.233875
0.244633 0.244633 0.244633
0.256138 0.256138 0.256138
0.268666 0.268666 0.268666
0.282353 0.282353 0.282353
0.297292 0.297292 0.297292
0.313603 0.313603 0.313603
0.331106 0.331106 0.331106
0.349981 0.349981 0.349981
0.370275 0.370275 0.370275
0.391897 0.391897 0.391897
0.414893 0.414893 0.414893
0.439246 0.439246 0.439246
0.465019 0.465019 0.465019
0.49218 0.49218 0.49218
0.0987716 0.0987716 0.0987716
0.0986496 0.0986496 0.0986496
0.098558 0.098558 0.098558
0.10164 0.10164 0.10164
0.107424 0.107424 0.107424
0.114504 0.114504 0.114504
0.122927 0.122927 0.122927
0.132769 0.132769 0.132769
0.144015 0.144015 0.144015
0.158099 0.158099 0.158099
0.177279 0.177279 0.177279
0.18941 0.18941 0.18941
0.198062 0.198062 0.198062
0.207568 0.207568 0.207568
0.217884 0.217884 0.217884
0.228977 0.228977 0.228977
0.240482 0.240482 0.240482
0.252171 0.252171 0.252171
0.263218 0.263218 0.263218
0.273594 0.273594 0.273594
0.284779 0.284779 0.284779
0.297078 0.297078 0.297078
0.310567 0.310567 0.310567
0.325216 0.325216 0.325216
0.341207 0.341207 0.341207
0.358373 0.358373 0.358373
0.376928 0.376928 0.376928
0.396826 0.396826 0.396826
0.418006 0.418006 0.418006
0.440482 0.440482 0.440482
0.464286 0.464286 0.464286
0.489418 0.489418 0.489418
0.51574 0.51574 0.51574
0.116915 0.116915 0.116915
0.116732 0.116732 0.116732
0.116701 0.116701 0.116701
0.117479 0.117479 0.117479
0.123003 0.123003 0.123003
0.130114 0.130114 0.130114
0.138491 0.138491 0.138491
0.148272 0.148272 0.148272
0.159594 0.159594 0.159594
0.172366 0.172366 0.172366
0.188815 0.188815 0.188815
0.208988 0.208988 0.208988
0.22417 0.22417 0.22417
0.234684 0.234684 0.234684
0.244739 0.244739 0.244739
0.255528 0.255528 0.255528
0.267094 0.267094 0.267094
0.279316 0.279316 0.279316
0.291691 0.291691 0.291691
0.303899 0.303899 0.303899
0.315892 0.315892 0.315892
0.327886 0.327886 0.327886
0.34107 0.34107 0.34107
0.355428 0.355428 0.355428
0.371069 0.371069 0.371069
0.387915 0.387915 0.387915
0.405982 0.405982 0.405982
0.42533 0.42533 0.42533
0.445945 0.445945 0.445945
0.467857 0.467857 0.467857
0.490883 0.490883 0.490883
0.515114 0.515114 0.515114
0.540764 0.540764 0.540764
0.137057 0.137057 0.137057
0.136934 0.136934 0.136934
0.136873 0.136873 0.136873
0.136828 0.136828 0.136828
0.140642 0.140642 0.140642
0.147616 0.147616 0.147616
0.156039 0.156039 0.156039
0.165774 0.165774 0.165774
0.177096 0.177096 0.177096
0.189837 0.189837 0.189837
0.204013 0.204013 0.204013
0.22179 0.22179 0.22179
0.243076 0.243076 0.243076
0.261372 0.261372 0.261372
0.273823 0.273823 0.273823
0.28423 0.28423 0.28423
0.295384 0.295384 0.295384
0.307225 0.307225 0.307225
0.319539 0.319539 0.319539
0.332509 0.332509 0.332509
0.346044 0.346044 0.346044
0.359792 0.359792 0.359792
0.373541 0.373541 0.373541
0.387472 0.387472 0.387472
0.402655 0.402655 0.402655
0.419013 0.419013 0.419013
0.436591 0.436591 0.436591
0.45539 0.45539 0.45539
0.475273 0.475273 0.475273
0.496422 0.496422 0.496422
0.518593 0.518593 0.518593
0.542016 0.542016 0.542016
0.566903 0.566903 0.566903
0.159518 0.159518 0.159518
0.159396 0.159396 0.159396
0.159304 0.159304 0.159304
0.159213 0.159213 0.159213
0.160311 0.160311 0.160311
0.166918 0.166918 0.166918
0.175402 0.175402 0.175402
0.185183 0.185183 0.185183
0.196429 0.196429 0.196429
0.208972 0.208972 0.208972
0.22295 0.22295 0.22295
0.2383 0.2383 0.2383
0.25684 0.25684 0.25684
0.278889 0.278889 0.278889
0.299855 0.299855 0.299855
0.314214 0.314214 0.314214
0.324895 0.324895 0.324895
0.336156 0.336156 0.336156
0.348013 0.348013 0.348013
0.360678 0.360678 0.360678
0.374426 0.374426 0.374426
0.389105 0.389105 0.389105
0.404395 0.404395 0.404395
0.419928 0.419928 0.419928
0.435187 0.435187 0.435187
0.45098 0.45098 0.45098
0.467933 0.467933 0.467933
0.48603 0.48603 0.48603
0.50518 0.50518 0.50518
0.525536 0.525536 0.525536
0.54699 0.54699 0.54699
0.56965 0.56965 0.56965
0.593744 0.593744 0.593744
0.184115 0.184115 0.184115
0.183963 0.183963 0.183963
0.183841 0.183841 0.183841
0.183719 0.183719 0.183719
0.183642 0.183642 0.183642
0.188251 0.188251 0.188251
0.196384 0.196384 0.196384
0.206165 0.206165 0.206165
0.217273 0.217273 0.217273
0.229618 0.229618 0.229618
0.24332 0.24332 0.24332
0.25832 0.25832 0.25832
0.274479 0.274479 0.274479
0.293629 0.293629 0.293629
0.316625 0.316625 0.316625
0.339895 0.339895 0.339895
0.355962 0.355962 0.355962
0.366629 0.366629 0.366629
0.377951 0.377951 0.377951
0.390158 0.390158 0.390158
0.403494 0.403494 0.403494
0.417929 0.417929 0.417929
0.433524 0.433524 0.433524
0.449989 0.449989 0.449989
0.466682 0.466682 0.466682
0.483696 0.483696 0.483696
0.500145 0.500145 0.500145
0.517464 0.517464 0.517464
0.535943 0.535943 0.535943
0.555505 0.555505 0.555505
0.576211 0.576211 0.576211
0.598077 0.598077 0.598077
0.620935 0.620935 0.620935
0.210849 0.210849 0.210849
0.210666 0.210666 0.210666
0.210575 0.210575 0.210575
0.210391 0.210391 0.210391
0.210178 0.210178 0.210178
0.211658 0.211658 0.211658
0.219181 0.219181 0.219181
0.228855 0.228855 0.228855
0.23975 0.23975 0.23975
0.251896 0.251896 0.251896
0.265263 0.265263 0.265263
0.27982 0.27982 0.27982
0.295628 0.295628 0.295628
0.312612 0.312612 0.312612
0.332067 0.332067 0.332067
0.355566 0.355566 0.355566
0.380652 0.380652 0.380652
0.398306 0.398306 0.398306
0.409018 0.409018 0.409018
0.420783 0.420783 0.420783
0.433646 0.433646 0.433646
0.447593 0.447593 0.447593
0.462608 0.462608 0.462608
0.47866 0.47866 0.47866
0.495735 0.495735 0.495735
0.513527 0.513527 0.513527
0.531273 0.531273 0.531273
0.549493 0.549493 0.549493
0.567224 0.567224 0.567224
0.586053 0.586053 0.586053
0.605844 0.605844 0.605844
0.62652 0.62652 0.62652
0.647852 0.647852 0.647852
0.239384 0.239384 0.239384
0.2392 0.2392 0.2392
0.23917 0.23917 0.23917
0.238987 0.238987 0.238987
0.238773 0.238773 0.238773
0.238651 0.238651 0.238651
0.243961 0.243961 0.243961
0.253071 0.253071 0.253071
0.263722 0.263722 0.263722
0.275547 0.275547 0.275547
0.288548 0.288548 0.288548
0.302678 0.302678 0.302678
0.317937 0.317937 0.317937
0.334325 0.334325 0.334325
0.351659 0.351659 0.351659
0.370825 0.370825 0.370825
0.394644 0.394644 0.394644
0.420752 0.420752 0.420752
0.439948 0.439948 0.439948
0.451911 0.451911 0.451911
0.464256 0.464256 0.464256
0.477638 0.477638 0.477638
0.492073 0.492073 0.492073
0.507408 0.507408 0.507408
0.523812 0.523812 0.523812
0.541207 0.541207 0.541207
0.559548 0.559548 0.559548
0.578607 0.578607 0.578607
0.597375 0.597375 0.597375
0.616342 0.616342 0.616342
0.634958 0.634958 0.634958
0.654169 0.654169 0.654169
0.674022 0.674022 0.674022
0.269337 0.269337 0.269337
0.269169 0.269169 0.269169
0.269062 0.269062 0.269062
0.26891 0.26891 0.26891
0.268757 0.268757 0.268757
0.268467 0.268467 0.268467
0.270298 0.270298 0.270298
0.278401 0.278401 0.278401
0.288731 0.288731 0.288731
0.300221 0.300221 0.300221
0.31281 0.31281 0.31281
0.326482 0.326482 0.326482
0.341222 0.341222 0.341222
0.356939 0.356939 0.356939
0.373571 0.373571 0.373571
0.391058 0.391058 0.391058
0.409857 0.409857 0.409857
0.43328 0.43328 0.43328
0.459922 0.459922 0.459922
0.481041 0.481041 0.481041
0.494987 0.494987 0.494987
0.50782 0.50782 0.50782
0.52163 0.52163 0.52163
0.536339 0.536339 0.536339
0.552087 0.552087 0.552087
0.568795 0.568795 0.568795
0.586465 0.586465 0.586465
0.60502 0.60502 0.60502
0.624201 0.624201 0.624201
0.643397 0.643397 0.643397
0.662196 0.662196 0.662196
0.680842 0.680842 0.680842
0.69926 0.69926 0.69926
0.300603 0.300603 0.300603
0.300481 0.300481 0.300481
0.300374 0.300374 0.300374
0.300206 0.300206 0.300206
0.300053 0.300053 0.300053
0.299809 0.299809 0.299809
0.299748 0.299748 0.299748
0.305501 0.305501 0.305501
0.315068 0.315068 0.315068
0.326253 0.326253 0.326253
0.33843 0.33843 0.33843
0.351629 0.351629 0.351629
0.365866 0.365866 0.365866
0.381003 0.381003 0.381003
0.397009 0.397009 0.397009
0.41384 0.41384 0.41384
0.431342 0.431342 0.431342
0.449516 0.449516 0.449516
0.472206 0.472206 0.472206
0.499306 0.499306 0.499306
0.522148 0.522148 0.522148
0.537942 0.537942 0.537942
0.551171 0.551171 0.551171
0.565301 0.565301 0.565301
0.580468 0.580468 0.580468
0.596445 0.596445 0.596445
0.613245 0.613245 0.613245
0.630701 0.630701 0.630701
0.648692 0.648692 0.648692
0.66714 0.66714 0.66714
0.686015 0.686015 0.686015
0.704692 0.704692 0.704692
0.722988 0.722988 0.722988
0.33344 0.33344 0.33344
0.333318 0.333318 0.333318
0.333104 0.333104 0.333104
0.332921 0.332921 0.332921
0.332799 0.332799 0.332799
0.332631 0.332631 0.332631
0.332387 0.332387 0.332387
0.334569 0.334569 0.334569
0.342962 0.342962 0.342962
0.353796 0.353796 0.353796
0.36556 0.36556 0.36556
0.378286 0.378286 0.378286
0.391989 0.391989 0.391989
0.406607 0.406607 0.406607
0.421988 0.421988 0.421988
0.438117 0.438117 0.438117
0.454917 0.454917 0.454917
0.472221 0.472221 0.472221
0.489952 0.489952 0.489952
0.51165 0.51165 0.51165
0.538674 0.538674 0.538674
0.563104 0.563104 0.563104
0.580514 0.580514 0.580514
0.594049 0.594049 0.594049
0.608454 0.608454 0.608454
0.623575 0.623575 0.623575
0.639307 0.639307 0.639307
0.655604 0.655604 0.655604
0.672404 0.672404 0.672404
0.689662 0.689662 0.689662
0.707347 0.707347 0.707347
0.725368 0.725368 0.725368
0.743633 0.743633 0.743633
0.367864 0.367864 0.367864
0.367712 0.367712 0.367712
0.367437 0.367437 0.367437
0.367315 0.367315 0.367315
0.367224 0.367224 0.367224
0.367102 0.367102 0.367102
0.366903 0.366903 0.366903
0.366934 0.366934 0.366934
0.373053 0.373053 0.373053
0.382986 0.382986 0.382986
0.394308 0.394308 0.394308
0.406592 0.406592 0.406592
0.419776 0.419776 0.419776
0.433799 0.433799 0.433799
0.448524 0.448524 0.448524
0.46392 0.46392 0.46392
0.479927 0.479927 0.479927
0.496452 0.496452 0.496452
0.513359 0.513359 0.513359
0.530632 0.530632 0.530632
0.551369 0.551369 0.551369
0.578058 0.578058 0.578058
0.6038 0.6038 0.6038
0.622156 0.622156 0.622156
0.635615 0.635615 0.635615
0.649729 0.649729 0.649729
0.664408 0.664408 0.664408
0.679606 0.679606 0.679606
0.695277 0.695277 0.695277
0.711391 0.711391 0.711391
0.727916 0.727916 0.727916
0.744747 0.744747 0.744747
0.761822 0.761822 0.761822
0.403708 0.403708 0.403708
0.403616 0.403616 0.403616
0.403586 0.403586 0.403586
0.403464 0.403464 0.403464
0.403403 0.403403 0.403403
0.403296 0.403296 0.403296
0.403174 0.403174 0.403174
0.403067 0.403067 0.403067
0.405539 0.405539 0.405539
0.413993 0.413993 0.413993
0.424887 0.424887 0.424887
0.436652 0.436652 0.436652
0.449271 0.449271 0.449271
0.462654 0.462654 0.462654
0.476692 0.476692 0.476692
0.491325 0.491325 0.491325
0.506539 0.506539 0.506539
0.52224 0.52224 0.52224
0.538354 0.538354 0.538354
0.554833 0.554833 0.554833
0.571603 0.571603 0.571603
0.591226 0.591226 0.591226
0.617014 0.617014 0.617014
0.643198 0.643198 0.643198
0.661738 0.661738 0.661738
0.674846 0.674846 0.674846
0.688502 0.688502 0.688502
0.702663 0.702663 0.702663
0.717266 0.717266 0.717266
0.732311 0.732311 0.732311
0.747707 0.747707 0.747707
0.763394 0.763394 0.763394
0.77937 0.77937 0.77937
0.44094 0.44094 0.44094
0.440848 0.440848 0.440848
0.440833 0.440833 0.440833
0.440742 0.440742 0.440742
0.440696 0.440696 0.440696
0.440604 0.440604 0.440604
0.440558 0.440558 0.440558
0.440497 0.440497 0.440497
0.440589 0.440589 0.440589
0.446754 0.446754 0.446754
0.456733 0.456733 0.456733
0.467933 0.467933 0.467933
0.479912 0.479912 0.479912
0.492576 0.492576 0.492576
0.505898 0.505898 0.505898
0.519814 0.519814 0.519814
0.534295 0.534295 0.534295
0.549203 0.549203 0.549203
0.564538 0.564538 0.564538
0.58024 0.58024 0.58024
0.596155 0.596155 0.596155
0.612207 0.612207 0.612207
0.630198 0.630198 0.630198
0.654154 0.654154 0.654154
0.680095 0.680095 0.680095
0.697887 0.697887 0.697887
0.711391 0.711391 0.711391
0.72459 0.72459 0.72459
0.738201 0.738201 0.738201
0.752209 0.752209 0.752209
0.766552 0.766552 0.766552
0.78117 0.78117 0.78117
0.796033 0.796033 0.796033
0.478828 0.478828 0.478828
0.478782 0.478782 0.478782
0.478721 0.478721 0.478721
0.478721 0.478721 0.478721
0.478676 0.478676 0.478676
0.47863 0.47863 0.47863
0.47863 0.47863 0.47863
0.478645 0.478645 0.478645
0.478584 0.478584 0.478584
0.481224 0.481224 0.481224
0.489494 0.489494 0.489494
0.50013 0.50013 0.50013
0.511437 0.511437 0.511437
0.523445 0.523445 0.523445
0.53611 0.53611 0.53611
0.54931 0.54931 0.54931
0.563027 0.563027 0.563027
0.577218 0.577218 0.577218
0.591791 0.591791 0.591791
0.606607 0.606607 0.606607
0.621515 0.621515 0.621515
0.636408 0.636408 0.636408
0.651194 0.651194 0.651194
0.667308 0.667308 0.667308
0.68867 0.68867 0.68867
0.71339 0.71339 0.71339
0.731624 0.731624 0.731624
0.745357 0.745357 0.745357
0.758038 0.758038 0.758038
0.771054 0.771054 0.771054
0.784405 0.784405 0.784405
0.798047 0.798047 0.798047
0.811872 0.811872 0.811872
0.517113 0.517113 0.517113
0.517143 0.517143 0.517143
0.517082 0.517082 0.517082
0.517082 0.517082 0.517082
0.517128 0.517128 0.517128
0.517143 0.517143 0.517143
0.517159 0.517159 0.517159
0.51722 0.51722 0.51722
0.51722 0.51722 0.51722
0.517403 0.517403 0.517403
0.523445 0.523445 0.523445
0.533074 0.533074 0.533074
0.543801 0.543801 0.543801
0.5552 0.5552 0.5552
0.567208 0.567208 0.567208
0.579767 0.579767 0.579767
0.592767 0.592767 0.592767
0.606119 0.606119 0.606119
0.619745 0.619745 0.619745
0.633478 0.633478 0.633478
0.647257 0.647257 0.647257
0.661036 0.661036 0.661036
0.674693 0.674693 0.674693
0.688212 0.688212 0.688212
0.702617 0.702617 0.702617
0.721294 0.721294 0.721294
0.744595 0.744595 0.744595
0.763256 0.763256 0.763256
0.776928 0.776928 0.776928
0.789014 0.789014 0.789014
0.801434 0.801434 0.801434
0.81413 0.81413 0.81413
0.827024 0.827024 0.827024
0.555901 0.555901 0.555901
0.555978 0.555978 0.555978
0.555978 0.555978 0.555978
0.556008 0.556008 0.556008
0.556039 0.556039 0.556039
0.556054 0.556054 0.556054
0.55613 0.55613 0.55613
0.556222 0.556222 0.556222
0.556283 0.556283 0.556283
0.556374 0.556374 0.556374
0.559121 0.559121 0.559121
0.566979 0.566979 0.566979
0.577173 0.577173 0.577173
0.587915 0.587915 0.587915
0.599237 0.599237 0.599237
0.611032 0.611032 0.611032
0.623117 0.623117 0.623117
0.635431 0.635431 0.635431
0.647929 0.647929 0.647929
0.660563 0.660563 0.660563
0.673213 0.673213 0.673213
0.685863 0.685863 0.685863
0.698421 0.698421 0.698421
0.710857 0.710857 0.710857
0.723217 0.723217 0.723217
0.735912 0.735912 0.735912
0.751965 0.751965 0.751965
0.77377 0.77377 0.77377
0.79266 0.79266 0.79266
0.805997 0.805997 0.805997
0.817563 0.817563 0.817563
0.829343 0.829343 0.829343
0.841337 0.841337 0.841337
0.594949 0.594949 0.594949
0.595026 0.595026 0.595026
0.595041 0.595041 0.595041
0.595117 0.595117 0.595117
0.595209 0.595209 0.595209
0.595285 0.595285 0.595285
0.595407 0.595407 0.595407
0.595514 0.595514 0.595514
0.595621 0.595621 0.595621
0.595789 0.595789 0.595789
0.596155 0.596155 0.596155
0.601862 0.601862 0.601862
0.611063 0.611063 0.611063
0.621073 0.621073 0.621073
0.63151 0.63151 0.63151
0.642313 0.642313 0.642313
0.653376 0.653376 0.653376
0.664652 0.664652 0.664652
0.676066 0.676066 0.676066
0.687587 0.687587 0.687587
0.699168 0.699168 0.699168
0.710735 0.710735 0.710735
0.72224 0.72224 0.72224
0.733669 0.733669 0.733669
0.744961 0.744961 0.744961
0.756069 0.756069 0.756069
0.767254 0.767254 0.767254
0.780697 0.780697 0.780697
0.801022 0.801022 0.801022
0.819944 0.819944 0.819944
0.832776 0.832776 0.832776
0.843717 0.843717 0.843717
0.854841 0.854841 0.854841
0.633844 0.633844 0.633844
0.633951 0.633951 0.633951
0.634012 0.634012 0.634012
0.634089 0.634089 0.634089
0.634134 0.634134 0.634134
0.634241 0.634241 0.634241
0.634409 0.634409 0.634409
0.634516 0.634516 0.634516
0.634699 0.634699 0.634699
0.634867 0.634867 0.634867
0.635081 0.635081 0.635081
0.637781 0.637781 0.637781
0.644831 0.644831 0.644831
0.653925 0.653925 0.653925
0.663432 0.663432 0.663432
0.673213 0.673213 0.673213
0.683284 0.683284 0.683284
0.693568 0.693568 0.693568
0.703944 0.703944 0.703944
0.714443 0.714443 0.714443
0.725002 0.725002 0.725002
0.735546 0.735546 0.735546
0.746029 0.746029 0.746029
0.756436 0.756436 0.756436
0.76672 0.76672 0.76672
0.776867 0.776867 0.776867
0.786816 0.786816 0.786816
0.796597 0.796597 0.796597
0.807568 0.807568 0.807568
0.826566 0.826566 0.826566
0.84506 0.84506 0.84506
0.857053 0.857053 0.857053
0.867353 0.867353 0.867353
0.671412 0.671412 0.671412
0.671473 0.671473 0.671473
0.671519 0.671519 0.671519
0.671656 0.671656 0.671656
0.671763 0.671763 0.671763
0.671901 0.671901 0.671901
0.672038 0.672038 0.672038
0.672221 0.672221 0.672221
0.67245 0.67245 0.67245
0.672648 0.672648 0.672648
0.672847 0.672847 0.672847
0.67332 0.67332 0.67332
0.678264 0.678264 0.678264
0.686244 0.686244 0.686244
0.69482 0.69482 0.69482
0.703685 0.703685 0.703685
0.712779 0.712779 0.712779
0.722072 0.722072 0.722072
0.731502 0.731502 0.731502
0.740978 0.740978 0.740978
0.75053 0.75053 0.75053
0.760098 0.760098 0.760098
0.769619 0.769619 0.769619
0.779049 0.779049 0.779049
0.788388 0.788388 0.788388
0.797589 0.797589 0.797589
0.806653 0.806653 0.806653
0.815473 0.815473 0.815473
0.824094 0.824094 0.824094
