example-Basic/bin/data/Shaders/ofxPostProcessing/luts/6.cube
TITLE "Generate by Resolve"
LUT_3D_SIZE 5
0.0180056 0.0180056 0.0180056
0.0345006 0.0345006 0.0345006
0.0878614 0.0878614 0.0878614
0.188052 0.188052 0.188052
0.376776 0.376776 0.376776
0.0987716 0.0987716 0.0987716
0.144015 0.144015 0.144015
0.240482 0.240482 0.240482
0.341207 0.341207 0.341207
0.51574 0.51574 0.51574
0.300603 0.300603 0.300603
0.315068 0.315068 0.315068
0.431342 0.431342 0.431342
0.580468 0.580468 0.580468
0.722988 0.722988 0.722988
0.594949 0.594949 0.594949
0.595621 0.595621 0.595621
0.653376 0.653376 0.653376
0.744961 0.744961 0.744961
0.854841 0.854841 0.854841
0.862943 0.862943 0.862943
0.864759 0.864759 0.864759
0.874586 0.874586 0.874586
0.910033 0.910033 0.910033
0.947021 0.947021 0.947021
0.0276951 0.0276951 0.0276951
0.0693217 0.0693217 0.0693217
0.0962997 0.0962997 0.0962997
0.250278 0.250278 0.250278
0.456168 0.456168 0.456168
0.162936 0.162936 0.162936
0.256916 0.256916 0.256916
0.327413 0.327413 0.327413
0.424094 0.424094 0.424094
0.569879 0.569879 0.569879
0.441337 0.441337 0.441337
0.445151 0.445151 0.445151
0.517342 0.517342 0.517342
0.633371 0.633371 0.633371
0.744976 0.744976 0.744976
0.671595 0.671595 0.671595
0.671962 0.671962 0.671962
0.697093 0.697093 0.697093
0.772519 0.772519 0.772519
0.865476 0.865476 0.865476
0.877821 0.877821 0.877821
0.879271 0.879271 0.879271
0.882856 0.882856 0.882856
0.914595 0.914595 0.914595
0.950561 0.950561 0.950561
0.0704356 0.0704356 0.0704356
0.121599 0.121599 0.121599
0.19733 0.19733 0.19733
0.191791 0.191791 0.191791
0.328573 0.328573 0.328573
0.221683 0.221683 0.221683
0.310048 0.310048 0.310048
0.384466 0.384466 0.384466
0.379843 0.379843 0.379843
0.536294 0.536294 0.536294
0.467628 0.467628 0.467628
0.533333 0.533333 0.533333
0.639979 0.639979 0.639979
0.69485 0.69485 0.69485
0.767544 0.767544 0.767544
0.743175 0.743175 0.743175
0.761913 0.761913 0.761913
0.774166 0.774166 0.774166
0.816632 0.816632 0.816632
0.883101 0.883101 0.883101
0.903609 0.903609 0.903609
0.904662 0.904662 0.904662
0.906935 0.906935 0.906935
0.922881 0.922881 0.922881
0.958114 0.958114 0.958114
0.153948 0.153948 0.153948
0.210498 0.210498 0.210498
0.336416 0.336416 0.336416
0.424949 0.424949 0.424949
0.355993 0.355993 0.355993
0.346761 0.346761 0.346761
0.393133 0.393133 0.393133
0.489174 0.489174 0.489174
0.558984 0.558984 0.558984
0.493462 0.493462 0.493462
0.501396 0.501396 0.501396
0.568307 0.568307 0.568307
0.683696 0.683696 0.683696
0.732387 0.732387 0.732387
0.682002 0.682002 0.682002
0.74667 0.74667 0.74667
0.769589 0.769589 0.769589
0.815488 0.815488 0.815488
0.872572 0.872572 0.872572
0.900008 0.900008 0.900008
0.919661 0.919661 0.919661
0.924254 0.924254 0.924254
0.935271 0.935271 0.935271
0.943862 0.943862 0.943862
0.971405 0.971405 0.971405
0.353063 0.353063 0.353063
0.41413 0.41413 0.41413
0.534096 0.534096 0.534096
0.675837 0.675837 0.675837
0.709529 0.709529 0.709529
0.490257 0.490257 0.490257
0.535225 0.535225 0.535225
0.62295 0.62295 0.62295
0.727794 0.727794 0.727794
0.758877 0.758877 0.758877
0.633433 0.633433 0.633433
0.688579 0.688579 0.688579
0.74432 0.74432 0.74432
0.813199 0.813199 0.813199
0.844968 0.844968 0.844968
0.775937 0.775937 0.775937
0.789471 0.789471 0.789471
0.822583 0.822583 0.822583
0.894911 0.894911 0.894911
0.919051 0.919051 0.919051
0.924712 0.924712 0.924712
0.930068 0.930068 0.930068
0.942168 0.942168 0.942168
0.963439 0.963439 0.963439
0.999725 0.999725 0.999725
