example-ExtraFX/bin/data/Shaders/ofxPostProcessing/luts/2.cube
TITLE "Generate by Resolve"
LUT_3D_SIZE 5
0.0402533 0.0551003 0.0694438
0.0510109 0.0656901 0.0797436
0.14345 0.119844 0.130343
0.698375 0.261158 0.174701
1 0.521523 0.248035
0.0613718 0.0945602 0.104356
0.0721752 0.105806 0.113924
0.165545 0.152789 0.157641
0.735698 0.328603 0.191959
1 0.567803 0.282261
0.0829633 0.308324 0.207523
0.112322 0.338659 0.210163
0.385016 0.408484 0.199466
0.771634 0.487526 0.191546
1 0.63331 0.323812
0.240955 0.796765 0.238727
0.384665 0.799115 0.227893
0.616129 0.794934 0.241093
0.86186 0.804196 0.295125
1 0.829038 0.50898
0.773999 0.97499 0.715908
0.796918 0.97705 0.714733
0.864729 0.979416 0.745953
0.952605 0.984695 0.795773
1 0.997711 0.863188
0.0429694 0.0591287 0.0784009
0.0464637 0.0627298 0.0866712
0.108248 0.0884871 0.123735
0.676097 0.212146 0.264897
1 0.58233 0.40473
0.060441 0.0915389 0.113085
0.0693675 0.106432 0.130449
0.225589 0.195483 0.221149
0.779706 0.365087 0.291752
1 0.618326 0.419455
0.0857099 0.287236 0.256443
0.098436 0.327581 0.262104
0.372625 0.38883 0.271778
0.752697 0.463371 0.288197
1 0.680735 0.44979
0.229084 0.768841 0.334798
0.358618 0.780026 0.314824
0.603082 0.784436 0.323369
0.852857 0.795422 0.372122
1 0.83003 0.571633
0.769848 0.969818 0.739071
0.792981 0.972808 0.739178
0.858732 0.97818 0.7617
0.948699 0.983627 0.80676
1 0.995727 0.865461
0.0508583 0.0713817 0.107774
0.0524147 0.0733959 0.11902
0.0946517 0.0860609 0.156603
0.280629 0.0865339 0.234043
0.953048 0.185397 0.469551
0.0727245 0.118685 0.163363
0.0743877 0.122286 0.17882
0.168551 0.144793 0.238788
0.519371 0.162875 0.35935
1 0.518822 0.548943
0.135714 0.273487 0.314321
0.19292 0.312612 0.352163
0.391577 0.393545 0.417334
0.840787 0.612772 0.521614
1 0.797955 0.704601
0.404852 0.724559 0.540413
0.437018 0.745998 0.529015
0.590631 0.779751 0.501335
0.841077 0.78941 0.53434
0.995087 0.832395 0.677424
0.772824 0.960052 0.795193
0.793225 0.965393 0.796506
0.843702 0.97557 0.799222
0.939208 0.982803 0.832517
1 0.994583 0.881025
0.0666209 0.098558 0.193698
0.0665141 0.0972152 0.204105
0.151186 0.0957656 0.260258
0.374472 0.0890364 0.368017
0.735348 0.0826734 0.535714
0.0869917 0.165927 0.286061
0.0869001 0.162509 0.296895
0.239536 0.163622 0.380713
0.46656 0.109911 0.44184
0.920027 0.156771 0.649027
0.234989 0.409583 0.50042
0.276051 0.421683 0.535027
0.411521 0.400687 0.607141
0.775692 0.384756 0.693477
1 0.547753 0.740215
0.559503 0.68658 0.647593
0.597528 0.701625 0.662104
0.675975 0.7364 0.697185
0.821424 0.802518 0.765469
0.986664 0.91519 0.880186
0.842756 0.936172 0.879255
0.849073 0.943343 0.882918
0.865339 0.960372 0.887846
0.920043 0.983383 0.884596
1 0.997131 0.923491
0.137057 0.210666 0.570474
0.246479 0.205997 0.62327
0.404761 0.165118 0.65774
0.541573 0.0889601 0.633295
0.809079 0.0740978 0.757137
0.229175 0.342428 0.765942
0.321477 0.329824 0.792386
0.496269 0.287861 0.829648
0.708232 0.189807 0.840452
1 0.220859 0.955123
0.496315 0.642954 0.868894
0.492943 0.611963 0.881987
0.591226 0.580423 0.916701
0.801221 0.52398 0.967208
1 0.557733 0.988617
0.771542 0.856291 0.879408
0.781003 0.857038 0.88217
0.799298 0.857099 0.893141
0.829099 0.830365 0.93373
0.997192 0.825788 0.966354
0.915694 0.959655 0.949401
0.921675 0.962249 0.952651
0.936049 0.968444 0.960388
0.963943 0.981201 0.976486
1 1 1
