example-ExtraFX/bin/data/Shaders/ofxPostProcessing/luts/2.cube
TITLE "Generate by Resolve"
LUT_3D_SIZE 33
0.0402533 0.0551003 0.0694438
0.0405737 0.0556191 0.0699626
0.0410315 0.0563516 0.0706645
0.0415198 0.0570687 0.0713817
0.0427253 0.0582284 0.0725414
0.0442512 0.0597086 0.0739757
0.0460059 0.0613413 0.0755322
0.048249 0.0633402 0.0774395
0.0510109 0.0656901 0.0797436
0.0530709 0.0679789 0.0818647
0.0551614 0.0706493 0.0842756
0.0618906 0.0755474 0.0890669
0.0723125 0.0822156 0.0955673
0.0851301 0.0899672 0.102983
0.10074 0.0988327 0.111299
0.119905 0.108812 0.12047
0.14345 0.119844 0.130343
0.172702 0.131945 0.140749
0.209155 0.144991 0.151324
0.253986 0.158648 0.161532
0.309667 0.173068 0.170901
0.375937 0.188098 0.178271
0.462089 0.206714 0.183017
0.578683 0.23209 0.182177
0.698375 0.261158 0.174701
0.804364 0.292042 0.164782
0.891768 0.323171 0.157229
0.96286 0.354208 0.15494
1 0.385428 0.159304
1 0.416922 0.170443
1 0.450324 0.189746
1 0.485313 0.215824
1 0.521523 0.248035
0.0424201 0.0586709 0.0728008
0.0428779 0.0594492 0.0735637
0.0431525 0.0599222 0.0740215
0.0434577 0.0602426 0.0744335
0.0444953 0.0611124 0.0753185
0.0458686 0.0623941 0.076585
0.0476387 0.0639048 0.0780652
0.0498054 0.0658885 0.0800031
0.0525521 0.0682841 0.0823224
0.0546883 0.0707256 0.0845808
0.0565499 0.0734569 0.0870375
0.0632029 0.0784009 0.0918288
0.0734722 0.0849775 0.0982223
0.086244 0.0928206 0.105714
0.10161 0.10161 0.113909
0.120348 0.111543 0.122972
0.14342 0.122621 0.132723
0.172091 0.134737 0.143008
0.207721 0.147814 0.153521
0.251881 0.1617 0.163775
0.305638 0.176135 0.172961
0.374563 0.192462 0.180789
0.467567 0.21294 0.185687
0.578714 0.23772 0.184619
0.68925 0.265049 0.177783
0.788907 0.294041 0.168963
0.873549 0.323598 0.161654
0.944686 0.35346 0.158511
1 0.383581 0.160845
1 0.414206 0.170138
1 0.446754 0.187228
1 0.481025 0.211673
1 0.516182 0.241443
0.043946 0.061265 0.0751812
0.0444495 0.0621195 0.0759594
0.0447395 0.062623 0.076463
0.0450904 0.0631418 0.076997
0.0459602 0.0637064 0.0776226
0.047013 0.0643015 0.0783856
0.0485542 0.0655833 0.0797131
0.050721 0.0675059 0.0816052
0.0534066 0.0699321 0.0839551
0.0556344 0.0724346 0.0863203
0.0574044 0.0751354 0.0887312
0.0637827 0.0800031 0.0934005
0.0740978 0.086656 0.0998703
0.0866255 0.0943313 0.107179
0.101915 0.103182 0.115404
0.120424 0.113115 0.124407
0.142992 0.124071 0.13402
0.171084 0.136156 0.144198
0.206287 0.149355 0.154726
0.249516 0.163256 0.164889
0.302327 0.177829 0.174075
0.373236 0.195056 0.182223
0.469673 0.216648 0.187213
0.576791 0.240955 0.186206
0.682231 0.267247 0.180041
0.778576 0.295048 0.171481
0.861738 0.32369 0.164187
0.93315 0.353017 0.160464
0.993591 0.382925 0.162448
1 0.41355 0.170779
1 0.445686 0.186572
1 0.480064 0.210269
1 0.51548 0.239918
0.0457771 0.0644388 0.0779889
0.0463264 0.0653849 0.0788739
0.0465705 0.0658122 0.0793011
0.046891 0.0663767 0.0798352
0.0478981 0.0671855 0.080705
0.0488899 0.067689 0.0814069
0.0502327 0.0685283 0.082414
0.0519722 0.0697642 0.0838178
0.0545205 0.0720226 0.0860609
0.0568093 0.0745403 0.088426
0.0586404 0.0773175 0.0909285
0.0648966 0.0821698 0.0955825
0.0750744 0.0888075 0.101976
0.0875105 0.0964828 0.109224
0.102419 0.105165 0.117235
0.120394 0.114885 0.125963
0.142702 0.125872 0.135576
0.16997 0.137819 0.145602
0.203677 0.150759 0.155825
0.245274 0.164538 0.165805
0.299184 0.179934 0.175479
0.371878 0.198062 0.184009
0.464729 0.219318 0.189075
0.565713 0.242466 0.188418
0.668193 0.26807 0.182742
0.765423 0.295964 0.17435
0.850935 0.325002 0.166873
0.924697 0.354955 0.162966
0.987411 0.385641 0.164874
1 0.416724 0.173251
1 0.448554 0.188464
1 0.482292 0.211353
1 0.516609 0.239963
0.047776 0.0679332 0.0812085
0.0482948 0.0688792 0.082002
0.0485237 0.069276 0.0824292
0.0488441 0.0698711 0.0829786
0.0495918 0.0706798 0.0838331
0.0509804 0.0716564 0.0849165
0.0523384 0.0725109 0.0859388
0.0540627 0.0736553 0.0872663
0.0562142 0.0751507 0.0889448
0.0581826 0.0770123 0.0908522
0.0598764 0.0795605 0.0931868
0.0656443 0.084184 0.0975814
0.0754559 0.0906996 0.103807
0.0876783 0.0983597 0.111025
0.10248 0.107134 0.119066
0.120562 0.117067 0.127947
0.142641 0.128115 0.137514
0.169787 0.140246 0.147585
0.20322 0.153338 0.157839
0.245289 0.16759 0.168063
0.301869 0.184146 0.17818
0.376699 0.203174 0.186694
0.465095 0.223804 0.191196
0.562387 0.246662 0.190555
0.662272 0.271901 0.185199
0.758648 0.299733 0.177081
0.844877 0.329244 0.169924
0.918456 0.359091 0.166049
0.981048 0.389487 0.167422
1 0.420096 0.175357
1 0.451606 0.190463
1 0.484733 0.212696
1 0.518669 0.240818
0.0501717 0.0722667 0.0851759
0.0507057 0.0732738 0.0860151
0.0509499 0.0737163 0.0864424
0.0512703 0.0742962 0.0869917
0.0516518 0.0749218 0.0876326
0.0530709 0.076112 0.0888075
0.0549935 0.0775464 0.0902876
0.0569314 0.0787976 0.0917067
0.0592355 0.080293 0.0934005
0.060853 0.0818036 0.0950637
0.0619211 0.08336 0.0966659
0.0672923 0.0872358 0.100511
0.0769513 0.0935836 0.106584
0.0893416 0.101442 0.113893
0.104356 0.110445 0.122087
0.122393 0.120424 0.130922
0.144594 0.13167 0.14052
0.171984 0.144076 0.150668
0.206531 0.157748 0.161196
0.252644 0.173632 0.172198
0.313313 0.191546 0.182498
0.387457 0.210575 0.190173
0.510735 0.242786 0.194781
0.690852 0.290669 0.187427
0.784482 0.319829 0.180026
0.867414 0.350332 0.17464
0.935332 0.379889 0.173754
0.990799 0.408591 0.177752
1 0.437598 0.187549
1 0.46688 0.202808
1 0.497658 0.224506
1 0.530114 0.252186
1 0.562295 0.284199
0.0539406 0.0793774 0.0914931
0.0545205 0.0805066 0.0923781
0.0548104 0.0810712 0.0929122
0.0550851 0.08159 0.0934005
0.0554513 0.0823072 0.0940566
0.0568551 0.0835279 0.0952316
0.0589761 0.0851301 0.0967727
0.0617838 0.0872663 0.0988327
0.06421 0.0889448 0.100633
0.0654002 0.0902266 0.102068
0.0683146 0.0924392 0.104417
0.0749218 0.0963149 0.108476
0.0839857 0.101228 0.113542
0.0964218 0.108583 0.120485
0.11223 0.117891 0.128771
0.131533 0.12845 0.137896
0.155138 0.140139 0.147601
0.186069 0.153796 0.158312
0.228611 0.17026 0.170169
0.284428 0.188708 0.181598
0.355047 0.208759 0.190951
0.441367 0.230884 0.196674
0.550301 0.258686 0.197131
0.675746 0.292927 0.190906
0.77644 0.324742 0.183108
0.861311 0.356359 0.1776
0.930617 0.386755 0.176699
0.98645 0.415808 0.18114
1 0.444419 0.190753
1 0.473548 0.20621
1 0.503746 0.227741
1 0.534798 0.254337
1 0.566323 0.285786
0.0575113 0.0864576 0.0975967
0.0580911 0.0876631 0.0984817
0.058381 0.0882582 0.0990158
0.0586404 0.0887922 0.0994888
0.0590372 0.0896162 0.100206
0.0601663 0.0907607 0.101259
0.0623178 0.0924392 0.102846
0.0652171 0.0945602 0.104829
0.0681926 0.0970016 0.107057
0.0695811 0.0987259 0.108705
0.0739757 0.101564 0.11165
0.0818494 0.105837 0.116106
0.0911879 0.110597 0.121019
0.102083 0.116152 0.126589
0.115404 0.122957 0.133074
0.133486 0.132494 0.141405
0.15903 0.145449 0.151934
0.193057 0.160739 0.163592
0.236454 0.177569 0.175265
0.291035 0.195712 0.185962
0.359167 0.215366 0.194568
0.443534 0.237568 0.199786
0.541817 0.262974 0.200122
0.645762 0.291646 0.195544
0.746792 0.322942 0.188144
0.834653 0.35462 0.181857
0.906859 0.385077 0.179858
0.966384 0.414618 0.183032
1 0.443671 0.19144
1 0.472724 0.205493
1 0.502571 0.225666
1 0.533547 0.25124
1 0.565026 0.281956
0.0613718 0.0945602 0.104356
0.0620584 0.0960861 0.105394
0.0623178 0.0966812 0.105898
0.0626383 0.0973983 0.106462
0.0630503 0.0982834 0.107225
0.0637064 0.099321 0.10811
0.0659037 0.101061 0.109682
0.0689555 0.103212 0.111666
0.0721752 0.105806 0.113924
0.0739452 0.108339 0.115953
0.0802777 0.112383 0.119783
0.0893873 0.117067 0.124437
0.0995041 0.122087 0.129519
0.110552 0.127306 0.134783
0.124407 0.133883 0.1411
0.141894 0.141955 0.148501
0.165545 0.152789 0.157641
0.19794 0.167025 0.168368
0.23978 0.183459 0.17937
0.291844 0.20116 0.189441
0.357565 0.220813 0.197726
0.439582 0.243244 0.20293
0.534829 0.268711 0.203418
0.6365 0.297398 0.1991
0.735698 0.328603 0.191959
0.822568 0.360021 0.185992
0.895308 0.390585 0.183963
0.955032 0.419928 0.186831
1 0.448661 0.194888
1 0.477272 0.208057
1 0.506294 0.227176
1 0.536843 0.25214
1 0.567803 0.282261
0.0659037 0.104891 0.112551
0.0665904 0.106569 0.113573
0.0668803 0.107271 0.114153
0.0672313 0.108125 0.114794
0.0675364 0.108843 0.115373
0.0680095 0.109941 0.116228
0.0699779 0.111589 0.117662
0.0731975 0.113924 0.119722
0.0766461 0.116564 0.121981
0.0784619 0.119158 0.123949
0.0863813 0.124239 0.128237
0.0978866 0.130648 0.133974
0.110384 0.137087 0.139849
0.124254 0.143893 0.146105
0.140414 0.151385 0.152941
0.158709 0.158953 0.159777
0.180667 0.167452 0.167102
0.207691 0.177234 0.174914
0.244465 0.190417 0.183932
0.295766 0.208148 0.193652
0.360342 0.228046 0.201556
0.438773 0.250126 0.206226
0.529366 0.275074 0.206668
0.625589 0.302831 0.202777
0.719814 0.332692 0.19617
0.805035 0.363363 0.190295
0.877379 0.393271 0.187839
0.938293 0.422309 0.1897
0.989639 0.451148 0.19704
1 0.479789 0.209567
1 0.508934 0.227649
1 0.539895 0.252613
1 0.571023 0.282841
0.0706798 0.116899 0.121569
0.071458 0.119036 0.122774
0.0717632 0.11986 0.123415
0.0720684 0.120714 0.124025
0.0723888 0.121584 0.124681
0.0728161 0.122789 0.125551
0.0744488 0.12459 0.12697
0.0779889 0.127352 0.129244
0.0818341 0.130434 0.131731
0.0848249 0.133974 0.134356
0.0945296 0.140276 0.139376
0.108797 0.148547 0.14583
0.124193 0.156695 0.152331
0.14081 0.16463 0.158846
0.15848 0.172061 0.165087
0.178408 0.17969 0.171481
0.201175 0.187579 0.177874
0.227146 0.195529 0.184176
0.259403 0.20499 0.190906
0.30106 0.217044 0.197971
0.357748 0.233616 0.20473
0.433677 0.255787 0.209369
0.5205 0.280507 0.209934
0.612543 0.307683 0.206439
0.704692 0.337331 0.200229
0.788876 0.367605 0.19443
0.86154 0.397345 0.191608
0.923751 0.426551 0.193118
0.976532 0.455528 0.199908
1 0.484474 0.21207
1 0.514 0.230106
1 0.54464 0.254566
1 0.575875 0.28484
0.0759594 0.132097 0.132296
0.0767681 0.134707 0.133623
0.0770428 0.135592 0.134234
0.0773327 0.136553 0.134859
0.07776 0.137942 0.135821
0.0783093 0.139834 0.137072
0.0796826 0.14258 0.138933
0.0838941 0.146288 0.141711
0.0880903 0.150301 0.144579
0.0939193 0.155398 0.148211
0.105821 0.162509 0.153475
0.121248 0.170733 0.159319
0.152056 0.192355 0.172168
0.181964 0.209018 0.181491
0.206516 0.217868 0.187015
0.232853 0.22594 0.192157
0.261845 0.233845 0.197162
0.29453 0.241901 0.202014
0.330892 0.249805 0.206363
0.372854 0.25835 0.210208
0.424323 0.269291 0.213321
0.490578 0.285527 0.214786
0.571267 0.308309 0.213199
0.660533 0.336965 0.208331
0.745342 0.366629 0.202533
0.820768 0.396017 0.198672
0.885832 0.424781 0.198566
0.941314 0.452811 0.20296
0.988128 0.480385 0.212055
1 0.508278 0.226535
1 0.536248 0.24596
1 0.565789 0.272114
1 0.596246 0.304295
0.0832074 0.158755 0.149325
0.0840467 0.162646 0.151049
0.0843366 0.164096 0.151797
0.0846113 0.165408 0.152529
0.0849928 0.167346 0.153674
0.0854353 0.169635 0.154971
0.086244 0.172473 0.156603
0.0916152 0.177127 0.159625
0.0960861 0.181857 0.162493
0.107469 0.18909 0.167117
0.124269 0.19823 0.172824
0.143404 0.20795 0.178439
0.173037 0.225635 0.186801
0.205615 0.241932 0.193164
0.237217 0.253651 0.197604
0.269642 0.263203 0.20145
0.303578 0.271412 0.204807
0.339742 0.278935 0.207904
0.379248 0.286473 0.210697
0.423453 0.294545 0.21294
0.472831 0.303471 0.214481
0.529198 0.314687 0.214832
0.593759 0.329747 0.213794
0.666407 0.350454 0.210849
0.74696 0.379232 0.205707
0.820172 0.408682 0.202548
0.883711 0.437369 0.203052
0.938003 0.465309 0.208118
0.983902 0.492821 0.217929
1 0.520333 0.232868
1 0.548165 0.253056
1 0.577218 0.279911
1 0.607569 0.313161
0.0886854 0.190906 0.16701
0.0891737 0.195422 0.168536
0.0893568 0.197253 0.169131
0.0894942 0.198688 0.169802
0.0896468 0.200427 0.170596
0.0897841 0.202152 0.171466
0.0900587 0.204593 0.172641
0.0959487 0.209064 0.175128
0.101534 0.214069 0.177691
0.117174 0.222522 0.182239
0.13753 0.232334 0.187198
0.159701 0.242771 0.191867
0.185 0.25391 0.196109
0.214054 0.26569 0.199542
0.247959 0.278508 0.202136
0.284977 0.290501 0.204273
0.321904 0.29955 0.206149
0.359457 0.30695 0.20766
0.399878 0.314504 0.209201
0.444404 0.322774 0.210575
0.493812 0.33228 0.211154
0.546838 0.342443 0.21117
0.601968 0.353048 0.210758
0.661311 0.366155 0.209659
0.727718 0.385138 0.207309
0.794034 0.407889 0.205646
0.861158 0.43772 0.205325
0.918532 0.466545 0.209461
0.967071 0.494621 0.218479
1 0.522713 0.232883
1 0.551019 0.252659
1 0.580209 0.279072
1 0.61091 0.312673
0.0908827 0.225391 0.182574
0.090898 0.230045 0.183551
0.0909133 0.232166 0.183856
0.0908827 0.233204 0.184253
0.0908675 0.234058 0.184543
0.0908522 0.235309 0.185092
0.0908217 0.237247 0.185809
0.0970626 0.241382 0.187701
0.105135 0.247028 0.190143
0.123537 0.255528 0.19379
0.146319 0.26537 0.197543
0.171283 0.276295 0.200931
0.199039 0.28777 0.203754
0.229618 0.299214 0.205722
0.264271 0.311025 0.20647
0.303273 0.322957 0.205966
0.344244 0.333425 0.205371
0.385122 0.341756 0.205158
0.427115 0.349264 0.204974
0.472648 0.357748 0.204868
0.520958 0.366949 0.204807
0.571923 0.376761 0.204547
0.625223 0.387472 0.204013
0.679454 0.398535 0.203647
0.733623 0.410025 0.203906
0.789029 0.42446 0.204929
0.84622 0.444648 0.206821
0.901686 0.469596 0.2112
0.952941 0.498772 0.219989
0.996185 0.527825 0.234379
1 0.556848 0.254475
1 0.587335 0.28217
1 0.618479 0.316838
0.0892348 0.264698 0.196399
0.088716 0.269886 0.196933
0.0884413 0.272465 0.196902
0.0882887 0.273869 0.197177
0.0881819 0.274739 0.197467
0.088014 0.276188 0.197848
0.0877394 0.278401 0.198459
0.0949416 0.283253 0.199985
0.109346 0.29012 0.202152
0.132357 0.298985 0.204593
0.158587 0.308965 0.206668
0.186587 0.319432 0.208087
0.217182 0.330343 0.20885
0.249851 0.340719 0.208881
0.284764 0.350286 0.208179
0.322637 0.359472 0.206165
0.365011 0.369574 0.202976
0.409644 0.379385 0.200153
0.454719 0.388067 0.198215
0.500847 0.396475 0.196674
0.549249 0.405768 0.195682
0.599329 0.41561 0.195254
0.650874 0.426215 0.195346
0.702892 0.437201 0.195941
0.753491 0.447959 0.197696
0.80209 0.458549 0.200931
0.848905 0.469917 0.205722
0.895872 0.485573 0.212238
0.942199 0.506615 0.221836
0.986038 0.534646 0.23653
1 0.564508 0.257359
1 0.595071 0.285527
1 0.626444 0.321172
0.0829633 0.308324 0.207523
0.0819562 0.313588 0.20734
0.0813764 0.316564 0.206912
0.0809644 0.318517 0.206867
0.0806287 0.320134 0.207187
0.0801709 0.322286 0.207568
0.0797284 0.32517 0.208087
0.0885634 0.330495 0.209018
0.112322 0.338659 0.210163
0.141314 0.347723 0.210941
0.171069 0.357305 0.211093
0.202319 0.366918 0.210651
0.235172 0.376181 0.209552
0.269932 0.385122 0.207965
0.306111 0.393103 0.205951
0.343969 0.400488 0.203296
0.385016 0.408484 0.199466
0.430304 0.41796 0.194522
0.477775 0.427848 0.190204
0.525353 0.436973 0.187564
0.573983 0.44622 0.185733
0.624155 0.456321 0.184894
0.674739 0.466957 0.18558
0.72401 0.477302 0.187808
0.771634 0.487526 0.191546
0.817288 0.497612 0.196826
0.860517 0.507561 0.203738
0.901457 0.517922 0.21297
0.940597 0.530053 0.224384
0.979309 0.549035 0.239338
1 0.571542 0.259312
1 0.602045 0.287709
1 0.63331 0.323812
0.0708782 0.35938 0.215549
0.0693217 0.365026 0.214542
0.0625162 0.387778 0.215183
0.0610513 0.392493 0.214496
0.0602426 0.394965 0.214557
0.0635538 0.397147 0.214633
0.0745403 0.401175 0.21445
0.0966812 0.407065 0.213886
0.129732 0.413962 0.212619
0.164431 0.421805 0.210925
0.199771 0.430503 0.208774
0.235325 0.438178 0.206287
0.27248 0.445792 0.203403
0.310323 0.452491 0.200412
0.34931 0.458839 0.197269
0.388876 0.464485 0.193896
0.42948 0.469902 0.190326
0.471809 0.475715 0.185855
0.517372 0.483223 0.180468
0.564401 0.491295 0.176501
0.611109 0.498909 0.17496
0.658869 0.507347 0.175036
0.705715 0.515984 0.17673
0.750866 0.524453 0.18088
0.794095 0.53286 0.187411
0.835111 0.540978 0.195361
0.874647 0.549767 0.204959
0.911849 0.558862 0.216556
0.946777 0.568505 0.230198
0.979568 0.57937 0.246555
1 0.592584 0.266361
1 0.61561 0.293614
1 0.64213 0.328359
0.0489204 0.428168 0.219638
0.0465705 0.434958 0.217777
0.0357061 0.464607 0.216251
0.0330053 0.471885 0.214435
0.0323033 0.474754 0.214054
0.0464942 0.478233 0.213107
0.079118 0.482811 0.211017
0.118349 0.487739 0.208286
0.157382 0.493339 0.205402
0.195377 0.499168 0.202319
0.233982 0.505302 0.199115
0.273442 0.511452 0.195743
0.313588 0.517067 0.192264
0.353719 0.52192 0.188983
0.394095 0.526497 0.185794
0.433967 0.530098 0.182666
0.474327 0.533669 0.179553
0.514626 0.536873 0.176577
0.556451 0.540948 0.172793
0.600626 0.546639 0.168566
0.645487 0.552819 0.16669
0.689311 0.558801 0.168032
0.732372 0.56527 0.171588
0.774029 0.571832 0.177172
0.813336 0.578103 0.185534
0.850706 0.584604 0.196124
0.886 0.591333 0.208392
0.919234 0.598489 0.222126
0.950988 0.606622 0.238209
0.980819 0.616037 0.256794
1 0.627192 0.278676
1 0.640574 0.30486
1 0.658518 0.336919
0.0220188 0.499855 0.218357
0.0188907 0.50808 0.21593
0.0164645 0.514351 0.214237
0.0166323 0.520989 0.211887
0.0255741 0.526314 0.210071
0.0557107 0.530953 0.20763
0.0962844 0.534936 0.204578
0.136507 0.539239 0.20148
0.175189 0.543465 0.198383
0.213809 0.548058 0.195071
0.252827 0.553033 0.19202
0.292592 0.558114 0.1888
0.332616 0.562722 0.185657
0.373266 0.56733 0.182666
0.413108 0.571038 0.179843
0.453422 0.574731 0.177035
0.493599 0.577935 0.174472
0.533898 0.581064 0.172061
0.574472 0.58439 0.169818
0.616236 0.588571 0.167178
0.658946 0.593423 0.164767
0.701289 0.598596 0.165393
0.742184 0.603906 0.169787
0.781903 0.609415 0.17673
0.820294 0.61532 0.185702
0.855863 0.620798 0.197269
0.889006 0.626368 0.211307
0.92047 0.632715 0.227359
0.950256 0.639887 0.245686
0.978347 0.648569 0.26656
1 0.658885 0.290883
1 0.67097 0.319417
1 0.684749 0.351736
0 0.558236 0.215625
0.00114443 0.566354 0.212741
0.00656138 0.573037 0.210391
0.0222629 0.580026 0.20676
0.0505074 0.586191 0.202472
0.0908675 0.59028 0.199054
0.129686 0.593576 0.196063
0.167102 0.596323 0.193317
0.204318 0.599237 0.190631
0.24184 0.602258 0.187839
0.280171 0.605829 0.185321
0.319402 0.609689 0.182818
0.358831 0.613397 0.180331
0.398505 0.6168 0.178134
0.437888 0.619821 0.176089
0.477546 0.622843 0.174197
0.517327 0.625696 0.172564
0.557336 0.628794 0.171298
0.597314 0.632059 0.170367
0.637705 0.635676 0.169833
0.678355 0.639597 0.16936
0.718868 0.6439 0.170077
0.757534 0.647852 0.174304
0.795087 0.652247 0.182773
0.831037 0.65687 0.193973
0.865064 0.661601 0.206821
0.8963 0.666087 0.222354
0.925689 0.671336 0.240696
0.953262 0.677714 0.262303
0.979309 0.685893 0.286992
1 0.69543 0.315129
1 0.706798 0.347478
1 0.719814 0.383398
0.00587472 0.628733 0.2121
0.0251774 0.635691 0.208072
0.0450752 0.641199 0.204761
0.0769055 0.64651 0.200107
0.10898 0.651286 0.19527
0.142687 0.65391 0.192279
0.17557 0.654963 0.190372
0.209476 0.65626 0.188342
0.244144 0.657771 0.186511
0.2795 0.659327 0.184726
0.316838 0.662028 0.1832
0.35404 0.664408 0.181842
0.391608 0.666438 0.180468
0.42974 0.668605 0.179477
0.467582 0.670512 0.178729
0.505837 0.672694 0.178134
0.545007 0.675502 0.178012
0.583902 0.678218 0.178195
0.622705 0.681147 0.178805
0.662058 0.684764 0.180179
0.701473 0.688609 0.181979
0.740505 0.692638 0.184695
0.777752 0.696162 0.189334
0.811795 0.698177 0.196948
0.844282 0.700664 0.209308
0.8757 0.704067 0.224811
0.905379 0.707866 0.242374
0.933242 0.712688 0.263081
0.958785 0.71841 0.2878
0.982116 0.725567 0.316793
1 0.734371 0.349477
1 0.744869 0.38587
1 0.756954 0.425559
0.0785534 0.699443 0.209766
0.110704 0.703502 0.205356
0.129595 0.705974 0.202792
0.150637 0.708415 0.199786
0.173739 0.710658 0.196078
0.199588 0.711543 0.193332
0.227878 0.711803 0.192126
0.258213 0.712245 0.191104
0.28983 0.712795 0.190265
0.323964 0.714244 0.189746
0.35877 0.71577 0.18938
0.393957 0.717388 0.18938
0.429786 0.718715 0.189441
0.465766 0.720073 0.189761
0.502251 0.721477 0.190494
0.538308 0.722667 0.191455
0.574502 0.723934 0.19263
0.610574 0.725246 0.194125
0.646738 0.726986 0.196277
0.682933 0.729 0.199054
0.719356 0.731487 0.202548
0.755169 0.734081 0.206592
0.789532 0.736156 0.211414
0.821256 0.736904 0.217777
0.850172 0.736507 0.226978
0.877317 0.736477 0.240513
0.904952 0.739071 0.259602
0.931487 0.742992 0.281605
0.956146 0.747768 0.306676
0.978439 0.754162 0.337697
0.998383 0.762081 0.37258
1 0.771572 0.411505
1 0.782956 0.453574
0.156909 0.749538 0.217578
0.181399 0.752468 0.214847
0.197131 0.754421 0.213184
0.213901 0.755947 0.210803
0.233036 0.75729 0.207813
0.254032 0.757946 0.204852
0.278752 0.757702 0.203815
0.305348 0.757427 0.203464
0.334127 0.757565 0.203372
0.364263 0.757778 0.203449
0.395697 0.758267 0.203998
0.427832 0.758709 0.204776
0.461021 0.759319 0.205768
0.494774 0.760082 0.207202
0.528237 0.760616 0.208835
0.561913 0.761181 0.210742
0.595575 0.761761 0.212879
0.629557 0.762707 0.215671
0.663645 0.763943 0.219226
0.697993 0.765652 0.223728
0.732113 0.76759 0.229023
0.765667 0.769619 0.234775
0.798703 0.771908 0.241337
0.830076 0.773556 0.248829
0.857542 0.772763 0.256687
0.881422 0.76997 0.2654
0.905379 0.769543 0.282124
0.929488 0.771817 0.304936
0.952804 0.775753 0.331701
0.974258 0.781094 0.36199
0.993271 0.788144 0.397971
1 0.796887 0.438849
1 0.807187 0.482033
0.240955 0.796765 0.238727
0.261295 0.799176 0.237537
0.273747 0.800381 0.236316
0.286824 0.801175 0.234577
0.301289 0.801556 0.231891
0.318029 0.801877 0.228626
0.337896 0.801083 0.227741
0.360464 0.800076 0.227665
0.384665 0.799115 0.227893
0.410636 0.798337 0.228489
0.437476 0.797528 0.229358
0.466011 0.797009 0.230655
0.49572 0.796689 0.232334
0.525658 0.796338 0.23415
0.555627 0.795834 0.236225
0.585626 0.795209 0.238376
0.616129 0.794934 0.241093
0.647242 0.795148 0.244755
0.678614 0.795651 0.249165
0.710475 0.796796 0.254795
0.742382 0.798383 0.261662
0.773709 0.800031 0.269184
0.804364 0.80177 0.277516
0.834134 0.803464 0.286336
0.86186 0.804196 0.295125
0.88603 0.802777 0.304448
0.907759 0.800534 0.315557
0.928023 0.799283 0.333669
0.949081 0.801465 0.35967
0.969268 0.806058 0.391333
0.987549 0.811978 0.426307
1 0.819654 0.466163
1 0.829038 0.50898
0.303014 0.827161 0.264576
0.319982 0.82887 0.264179
0.330846 0.829908 0.263798
0.342504 0.830732 0.262608
0.355276 0.831281 0.260792
0.370687 0.832059 0.258671
0.388174 0.832166 0.257511
0.408515 0.831754 0.258274
0.430961 0.831296 0.259785
0.454643 0.830884 0.261509
0.480171 0.830701 0.263966
0.506569 0.830503 0.266835
0.533547 0.830182 0.269825
0.560922 0.829877 0.273075
0.588159 0.829343 0.276127
0.615793 0.828809 0.279576
0.643793 0.828443 0.283742
0.671748 0.828107 0.288289
0.700175 0.828214 0.293919
0.728832 0.828626 0.300694
0.757504 0.829328 0.308415
0.785946 0.830396 0.317525
0.813916 0.831693 0.327657
0.841001 0.832898 0.337804
0.867216 0.834089 0.348318
0.891768 0.83473 0.359304
0.91281 0.83331 0.370413
0.931655 0.831296 0.38352
0.948974 0.83035 0.404089
0.966873 0.833249 0.434455
0.983673 0.838529 0.470069
0.998917 0.845273 0.508339
1 0.853666 0.54847
0.376974 0.857374 0.306432
0.390402 0.858503 0.306371
0.398703 0.859098 0.305943
0.407568 0.859525 0.304799
0.418616 0.860029 0.3037
0.430808 0.860471 0.30193
0.445274 0.860899 0.30045
0.462852 0.860639 0.301625
0.482216 0.860121 0.303899
0.503609 0.859815 0.30721
0.526818 0.859754 0.311391
0.550408 0.859571 0.315663
0.574823 0.859419 0.3205
0.599161 0.859037 0.325139
0.623819 0.85861 0.329992
0.648936 0.858244 0.335241
0.673487 0.857618 0.340032
0.698283 0.857069 0.345281
0.723537 0.856901 0.351873
0.749203 0.857099 0.359762
0.775006 0.857633 0.369024
0.800687 0.858549 0.379919
0.825559 0.859449 0.390875
0.849912 0.860471 0.40235
0.873457 0.861509 0.414237
0.896056 0.862394 0.425895
0.917449 0.863142 0.438437
0.935515 0.862043 0.451087
0.951324 0.860151 0.464256
0.965652 0.85922 0.483543
0.980804 0.862684 0.514733
0.995102 0.86865 0.551247
1 0.876219 0.589303
0.451911 0.883162 0.361776
0.462348 0.883909 0.36199
0.469017 0.884321 0.361898
0.476432 0.884749 0.361227
0.48542 0.885161 0.360464
0.496284 0.885832 0.360006
0.509544 0.88687 0.360265
0.525719 0.887449 0.362829
0.545281 0.88809 0.368994
