example-ExtraFX/bin/data/Shaders/ofxPostProcessing/luts/2.cube
TITLE "Generate by Resolve"
LUT_3D_SIZE 9
0.0402533 0.0551003 0.0694438
0.0427253 0.0582284 0.0725414
0.0510109 0.0656901 0.0797436
0.0723125 0.0822156 0.0955673
0.14345 0.119844 0.130343
0.309667 0.173068 0.170901
0.698375 0.261158 0.174701
1 0.385428 0.159304
1 0.521523 0.248035
0.047776 0.0679332 0.0812085
0.0495918 0.0706798 0.0838331
0.0562142 0.0751507 0.0889448
0.0754559 0.0906996 0.103807
0.142641 0.128115 0.137514
0.301869 0.184146 0.17818
0.662272 0.271901 0.185199
0.981048 0.389487 0.167422
1 0.518669 0.240818
0.0613718 0.0945602 0.104356
0.0630503 0.0982834 0.107225
0.0721752 0.105806 0.113924
0.0995041 0.122087 0.129519
0.165545 0.152789 0.157641
0.357565 0.220813 0.197726
0.735698 0.328603 0.191959
1 0.448661 0.194888
1 0.567803 0.282261
0.0832074 0.158755 0.149325
0.0849928 0.167346 0.153674
0.0960861 0.181857 0.162493
0.173037 0.225635 0.186801
0.303578 0.271412 0.204807
0.472831 0.303471 0.214481
0.74696 0.379232 0.205707
0.983902 0.492821 0.217929
1 0.607569 0.313161
0.0829633 0.308324 0.207523
0.0806287 0.320134 0.207187
0.112322 0.338659 0.210163
0.235172 0.376181 0.209552
0.385016 0.408484 0.199466
0.573983 0.44622 0.185733
0.771634 0.487526 0.191546
0.940597 0.530053 0.224384
1 0.63331 0.323812
0 0.558236 0.215625
0.0505074 0.586191 0.202472
0.204318 0.599237 0.190631
0.358831 0.613397 0.180331
0.517327 0.625696 0.172564
0.678355 0.639597 0.16936
0.831037 0.65687 0.193973
0.953262 0.677714 0.262303
1 0.719814 0.383398
0.240955 0.796765 0.238727
0.301289 0.801556 0.231891
0.384665 0.799115 0.227893
0.49572 0.796689 0.232334
0.616129 0.794934 0.241093
0.742382 0.798383 0.261662
0.86186 0.804196 0.295125
0.949081 0.801465 0.35967
1 0.829038 0.50898
0.546502 0.910109 0.447715
0.569955 0.911223 0.445975
0.610361 0.912032 0.447974
0.675288 0.911192 0.469764
0.744366 0.90901 0.490486
0.819867 0.909346 0.52433
0.894026 0.912108 0.567346
0.959823 0.915267 0.608591
1 0.91841 0.672953
0.773999 0.97499 0.715908
0.781933 0.975631 0.714687
0.796918 0.97705 0.714733
0.827787 0.978637 0.729122
0.864729 0.979416 0.745953
0.907362 0.981186 0.767865
0.952605 0.984695 0.795773
0.994156 0.98967 0.82649
1 0.997711 0.863188
0.0413062 0.0566567 0.0727092
0.0418555 0.0574197 0.0750439
0.0476844 0.0621195 0.0804456
0.066743 0.0755169 0.0942855
0.143908 0.121645 0.140826
0.315099 0.178988 0.191836
0.674952 0.260243 0.217838
0.98674 0.3776 0.216556
1 0.510475 0.281102
0.0476539 0.0674296 0.0841688
0.0498817 0.0713512 0.0886854
0.0574807 0.0796368 0.0972
0.0801251 0.0985885 0.116091
0.154757 0.138399 0.154635
0.329335 0.196262 0.201984
0.659586 0.276051 0.222324
0.962402 0.389013 0.219547
1 0.518273 0.28069
0.0603494 0.0918135 0.10811
0.0627451 0.0971084 0.111772
0.0703746 0.10367 0.117876
0.0936141 0.118532 0.133806
0.174197 0.161456 0.173251
0.356161 0.224857 0.217441
0.687007 0.315892 0.230015
0.969039 0.434516 0.23415
1 0.560571 0.309575
0.0814527 0.150484 0.153948
0.0836042 0.159762 0.158221
0.0927596 0.171725 0.166522
0.148974 0.200351 0.187289
0.243885 0.23299 0.211749
0.38883 0.266957 0.23386
0.68806 0.35816 0.238636
0.949935 0.476173 0.24715
1 0.597955 0.331914
0.0856947 0.290669 0.224125
0.0835431 0.303502 0.22356
0.102144 0.317754 0.226612
0.212696 0.34815 0.232227
0.347372 0.375677 0.229175
0.529259 0.413031 0.224353
0.734035 0.458351 0.229496
0.922026 0.516884 0.254276
1 0.635203 0.352026
0.014786 0.5149 0.251133
0.0257877 0.530571 0.243107
0.153811 0.547646 0.22977
0.307759 0.564034 0.219242
0.465431 0.579385 0.209339
0.633875 0.600076 0.201465
0.801312 0.627253 0.219043
0.936126 0.657832 0.280919
1 0.709834 0.398383
0.204791 0.772885 0.267521
0.261524 0.775784 0.257694
0.349691 0.77937 0.248447
0.472282 0.78175 0.254337
0.59942 0.782666 0.263142
0.729473 0.787396 0.281682
0.851209 0.7935 0.310826
0.941527 0.793393 0.375189
1 0.821225 0.512688
0.535042 0.902037 0.462806
0.560449 0.903899 0.463127
0.599039 0.906203 0.461097
0.665263 0.906233 0.480888
0.73814 0.905287 0.504555
0.812329 0.904662 0.531563
0.886641 0.906447 0.567773
0.953918 0.90927 0.605447
1 0.913237 0.670085
0.752956 0.967697 0.701473
0.769177 0.970535 0.709789
0.797406 0.975998 0.726696
0.828519 0.97908 0.740322
0.865827 0.980194 0.757244
0.908217 0.982086 0.778225
0.952651 0.985275 0.803586
0.993835 0.989807 0.831601
1 0.997574 0.866239
0.0429694 0.0591287 0.0784009
0.0436408 0.0600595 0.0814221
0.0464637 0.0627298 0.0866712
0.0561685 0.0697642 0.0967269
0.108248 0.0884871 0.123735
0.242435 0.108949 0.16318
0.676097 0.212146 0.264897
1 0.421912 0.309148
1 0.58233 0.40473
0.0509651 0.0730755 0.0931716
0.0517739 0.074342 0.0966354
0.054551 0.0765087 0.101381
0.0708019 0.0865187 0.114336
0.149126 0.117479 0.152239
0.377798 0.193912 0.235767
0.772259 0.321416 0.287022
1 0.449699 0.31165
1 0.59028 0.403052
0.060441 0.0915389 0.113085
0.0630808 0.0971237 0.119738
0.0693675 0.106432 0.130449
0.109148 0.137026 0.162829
0.225589 0.195483 0.221149
0.457542 0.266026 0.272847
0.779706 0.365087 0.291752
0.999298 0.486473 0.320134
1 0.618326 0.419455
0.0813764 0.148562 0.169299
0.0843061 0.161227 0.178012
0.0921798 0.177813 0.188022
0.155047 0.206378 0.213352
0.257115 0.239719 0.246555
0.468833 0.305653 0.282673
0.775387 0.413458 0.295277
0.980301 0.530663 0.3308
1 0.654139 0.441978
0.0857099 0.287236 0.256443
0.0830091 0.302876 0.258839
0.098436 0.327581 0.262104
0.222797 0.360815 0.272007
0.372625 0.38883 0.271778
0.553597 0.420554 0.276875
0.752697 0.463371 0.288197
0.945647 0.557702 0.326024
1 0.680735 0.44979
0.0119173 0.516747 0.304189
0.0260777 0.534768 0.298009
0.15697 0.560998 0.280385
0.317723 0.577127 0.270436
0.483436 0.592813 0.262043
0.656123 0.612268 0.256794
0.813794 0.633371 0.28188
0.939406 0.664942 0.348363
1 0.715236 0.456336
0.229084 0.768841 0.334798
0.281865 0.774151 0.327733
0.358618 0.780026 0.314824
0.474311 0.782696 0.313634
0.603082 0.784436 0.323369
0.732113 0.788724 0.341512
0.852857 0.795422 0.372122
0.941451 0.799329 0.442069
1 0.83003 0.571633
0.548684 0.896696 0.51577
0.568429 0.898161 0.512612
0.602502 0.900603 0.508858
0.661753 0.903349 0.516884
0.734691 0.902907 0.538552
0.810468 0.903609 0.566171
0.885344 0.906645 0.601617
0.952941 0.910872 0.638682
0.999619 0.916564 0.700099
0.769848 0.969818 0.739071
0.77734 0.970642 0.73785
0.792981 0.972808 0.739178
0.819806 0.976532 0.745068
0.858732 0.97818 0.7617
0.9028 0.980331 0.782422
0.948699 0.983627 0.80676
0.991257 0.988098 0.833188
1 0.995727 0.865461
0.0460212 0.063798 0.0887617
0.0468452 0.0650034 0.092607
0.0476081 0.065919 0.0980087
0.0559396 0.0708324 0.108659
0.0920424 0.0851911 0.133944
0.170916 0.0977493 0.171115
0.370047 0.0867323 0.21944
0.768612 0.124392 0.312291
1 0.461051 0.433249
0.0548562 0.0796979 0.107485
0.0552529 0.0802167 0.110689
0.0554818 0.0802319 0.115557
0.0664073 0.0857404 0.127214
0.115999 0.104067 0.158511
0.23444 0.120928 0.206744
0.472847 0.107424 0.254826
0.987015 0.293156 0.370779
1 0.587213 0.49218
0.0660258 0.103288 0.131548
0.0680095 0.107759 0.13901
0.0688029 0.109133 0.146487
0.0922103 0.120165 0.16643
0.174578 0.148836 0.210498
0.393683 0.189364 0.280751
0.801602 0.315938 0.364523
1 0.533669 0.437247
1 0.692607 0.563592
0.0819104 0.149615 0.181949
0.0850385 0.158984 0.192737
0.0949264 0.176684 0.212711
0.153964 0.211841 0.252949
0.313024 0.279744 0.315679
0.574746 0.37171 0.361593
0.835157 0.483238 0.390784
0.983108 0.603037 0.457786
1 0.717403 0.574701
0.0945449 0.268055 0.287785
0.0988327 0.287556 0.299977
0.118242 0.318898 0.31281
0.221729 0.35848 0.32546
0.380026 0.385336 0.334722
0.564202 0.420294 0.35082
0.797375 0.510597 0.374868
0.957031 0.626703 0.447013
1 0.737163 0.575692
0.0563973 0.498131 0.373556
0.0852522 0.517968 0.370184
0.164996 0.542458 0.358465
0.30454 0.570718 0.341115
0.477653 0.586252 0.334508
0.654734 0.603296 0.331472
0.811399 0.627588 0.365682
0.933394 0.665705 0.431128
1 0.745281 0.552163
0.273136 0.753689 0.425681
0.311803 0.760952 0.420356
0.374792 0.77026 0.410224
0.474601 0.782284 0.397986
0.603387 0.785092 0.406058
0.731411 0.788846 0.421485
0.848051 0.792386 0.444465
0.935271 0.79855 0.508827
1 0.83093 0.620096
0.568002 0.888808 0.584466
0.585367 0.891234 0.582574
0.614984 0.894896 0.579461
0.663661 0.900511 0.578073
0.732128 0.902174 0.590372
0.807126 0.90312 0.613031
0.881682 0.906157 0.641779
0.949676 0.910704 0.674388
0.998199 0.919264 0.732662
0.770687 0.9664 0.764279
0.781308 0.968582 0.766995
0.793729 0.970459 0.765805
0.817746 0.974548 0.768933
0.851881 0.977584 0.775753
0.896666 0.979477 0.793545
0.944671 0.983032 0.816861
0.989456 0.988037 0.84303
1 0.996048 0.874464
0.0508583 0.0713817 0.107774
0.0517281 0.0726329 0.112718
0.0524147 0.0733959 0.11902
0.0567178 0.0738994 0.129458
0.0946517 0.0860609 0.156603
0.170138 0.0968948 0.197116
0.280629 0.0865339 0.234043
0.576745 0.0903334 0.339376
0.953048 0.185397 0.469551
0.0594186 0.0876173 0.128344
0.0598764 0.0882582 0.132433
0.0601816 0.0883803 0.138201
0.0657206 0.0885939 0.148821
0.119173 0.104799 0.184726
0.206973 0.117021 0.227848
0.330297 0.0991684 0.262058
0.63444 0.0947585 0.358694
1 0.305058 0.492638
0.0727245 0.118685 0.163363
0.0738384 0.12137 0.170748
0.0743877 0.122286 0.17882
0.0924544 0.12604 0.197574
0.168551 0.144793 0.238788
0.281437 0.159319 0.285328
0.519371 0.162875 0.35935
0.938766 0.244938 0.458579
1 0.518822 0.548943
0.0878004 0.177966 0.223804
0.092195 0.187762 0.235889
0.102022 0.201175 0.25687
0.157671 0.216495 0.295918
0.278325 0.236759 0.341543
0.474342 0.263371 0.393347
0.827955 0.355505 0.463432
1 0.565774 0.548547
1 0.751904 0.68333
0.135714 0.273487 0.314321
0.157595 0.289067 0.329778
0.19292 0.312612 0.352163
0.24654 0.348531 0.383047
0.391577 0.393545 0.417334
0.645472 0.490013 0.458503
0.840787 0.612772 0.521614
0.951278 0.71342 0.607019
1 0.797955 0.704601
0.259419 0.461692 0.436057
0.274281 0.483009 0.444511
0.291737 0.509834 0.44976
0.332326 0.552117 0.444999
0.467811 0.580514 0.427314
0.653284 0.594781 0.431342
0.805768 0.626749 0.473732
0.929458 0.70811 0.558526
1 0.799344 0.677989
0.404852 0.724559 0.540413
0.419379 0.733959 0.539071
0.437018 0.745998 0.529015
0.485573 0.764263 0.51281
0.590631 0.779751 0.501335
0.721248 0.784176 0.512779
0.841077 0.78941 0.53434
0.927749 0.800336 0.593729
0.995087 0.832395 0.677424
0.596826 0.87013 0.656672
0.601724 0.873777 0.651194
0.618311 0.879393 0.645106
0.6589 0.888014 0.643702
0.71722 0.89659 0.641688
0.79469 0.899107 0.658625
0.872633 0.902754 0.682399
0.942107 0.906386 0.706798
0.994705 0.918471 0.761456
0.772824 0.960052 0.795193
0.780591 0.962188 0.795987
0.793225 0.965393 0.796506
0.813825 0.96997 0.797757
0.843702 0.97557 0.799222
0.888518 0.979187 0.811505
0.939208 0.982803 0.832517
0.986068 0.987518 0.855268
1 0.994583 0.881025
0.0573434 0.0819104 0.138903
0.0579843 0.0828107 0.144106
0.0583658 0.0830243 0.15053
0.0598001 0.0816815 0.159258
0.110597 0.0877699 0.194415
0.183978 0.0881056 0.226658
0.290181 0.0838331 0.268742
0.50164 0.090898 0.367529
0.740353 0.0836652 0.461295
0.0658427 0.0996567 0.162966
0.0661173 0.0999466 0.167147
0.0662699 0.0997024 0.173388
0.0706645 0.0991684 0.184833
0.13463 0.106203 0.22414
0.219577 0.108644 0.260899
0.322896 0.0936141 0.291646
0.512764 0.0908675 0.371725
0.777127 0.0915847 0.477562
0.0801099 0.139071 0.212543
0.0804456 0.139803 0.218082
0.0805371 0.139437 0.225437
0.102678 0.141924 0.244862
0.188983 0.146548 0.288655
0.303029 0.150698 0.334249
0.454765 0.142245 0.385122
0.648249 0.126024 0.449729
1 0.280125 0.602945
0.0930037 0.215106 0.287266
0.096788 0.220539 0.299092
0.112734 0.226276 0.317815
0.174685 0.234913 0.35523
0.292912 0.232975 0.404852
0.453544 0.237507 0.452964
0.653681 0.245655 0.50692
0.917113 0.304753 0.577173
1 0.54377 0.652766
0.172168 0.333364 0.389639
0.195254 0.345586 0.402045
0.231876 0.36318 0.420233
0.27895 0.380957 0.452125
0.379049 0.37174 0.493523
0.570855 0.378088 0.52845
0.788846 0.429664 0.565774
0.974014 0.597559 0.635996
1 0.765332 0.742489
0.319966 0.478126 0.478828
0.345327 0.49073 0.487877
0.382574 0.507942 0.500237
0.441886 0.53695 0.521553
0.514931 0.575418 0.550347
0.66923 0.627512 0.590372
0.833921 0.721828 0.659678
0.930144 0.804181 0.73724
0.99176 0.862516 0.804028
0.537301 0.672557 0.603265
0.54725 0.6822 0.609537
0.556603 0.696788 0.616693
0.588357 0.729641 0.635691
0.619776 0.760372 0.635569
0.710338 0.780835 0.625864
0.829114 0.786145 0.641413
0.915846 0.803143 0.686488
0.987869 0.855955 0.765652
0.66598 0.846296 0.730632
0.672282 0.851179 0.732387
0.681788 0.858763 0.733547
0.69807 0.870878 0.733303
0.721798 0.884337 0.723369
0.781506 0.895613 0.719585
0.862043 0.899779 0.73547
0.93489 0.904082 0.754528
0.992126 0.919966 0.801541
0.810239 0.95201 0.847623
0.811154 0.953735 0.845685
0.814466 0.957702 0.843397
0.821653 0.96405 0.839338
0.843656 0.971481 0.838865
0.880217 0.979522 0.840421
0.932845 0.98381 0.856367
0.983337 0.9888 0.87689
1 0.996368 0.901381
0.0666209 0.098558 0.193698
0.0668193 0.0985733 0.198352
0.0665141 0.0972152 0.204105
0.0749981 0.0950027 0.21677
0.151186 0.0957656 0.260258
0.236759 0.0787213 0.291859
0.374472 0.0890364 0.368017
0.536065 0.0904097 0.444099
0.735348 0.0826734 0.535714
0.0751965 0.12018 0.225132
0.0753185 0.120089 0.230121
0.0749828 0.118395 0.236347
0.0963455 0.118593 0.25539
0.180331 0.118242 0.300404
0.261875 0.0884413 0.316976
0.387732 0.0895247 0.376623
0.546258 0.0902266 0.449332
0.737987 0.082536 0.53608
0.0869917 0.165927 0.286061
0.0869459 0.165133 0.290745
0.0869001 0.162509 0.296895
0.142733 0.167987 0.333867
0.239536 0.163622 0.380713
0.346258 0.128435 0.406058
0.46656 0.109911 0.44184
0.632319 0.108644 0.510689
0.920027 0.156771 0.649027
0.0934005 0.257511 0.383413
0.0995193 0.257603 0.392752
0.13611 0.259602 0.41503
0.215534 0.262745 0.457679
0.332845 0.253285 0.507942
0.486686 0.221256 0.556313
0.667765 0.22034 0.611475
0.8598 0.24596 0.665873
1 0.320943 0.718318
0.234989 0.409583 0.50042
0.254444 0.417609 0.514366
0.276051 0.421683 0.535027
0.31487 0.416068 0.565347
0.411521 0.400687 0.607141
0.583154 0.371832 0.659709
0.775692 0.384756 0.693477
0.929015 0.434379 0.709316
1 0.547753 0.740215
0.387991 0.557137 0.578363
0.410422 0.565835 0.586023
0.443839 0.577234 0.596323
0.49572 0.595728 0.613291
0.54609 0.609354 0.644938
0.635935 0.593286 0.694087
0.799115 0.603387 0.716976
0.92163 0.660121 0.735882
1 0.790219 0.804334
0.559503 0.68658 0.647593
0.574151 0.692348 0.653086
0.597528 0.701625 0.662104
0.632273 0.716411 0.676799
0.675975 0.7364 0.697185
0.72491 0.761685 0.723445
0.821424 0.802518 0.765469
0.924392 0.863828 0.824903
0.986664 0.91519 0.880186
0.735729 0.813046 0.761761
0.740215 0.818112 0.766232
0.748363 0.826886 0.774014
0.760327 0.84004 0.784863
0.774426 0.858198 0.796719
0.794705 0.879744 0.802213
0.848447 0.896132 0.798764
0.925811 0.901854 0.813001
0.98819 0.922118 0.850263
0.842756 0.936172 0.879255
0.844984 0.938796 0.880644
0.849073 0.943343 0.882918
0.855955 0.950591 0.886061
0.865339 0.960372 0.887846
0.878035 0.972244 0.883024
0.920043 0.983383 0.884596
0.976364 0.988647 0.901289
1 0.997131 0.923491
0.0794537 0.127474 0.301854
0.0790112 0.125383 0.305623
0.0792706 0.119844 0.307759
0.152895 0.122438 0.354208
0.227283 0.100175 0.372747
0.324575 0.0877852 0.418814
0.474327 0.0908064 0.511208
0.623087 0.0869154 0.580163
0.770352 0.0789044 0.639673
0.0867933 0.157916 0.352605
0.0864576 0.155413 0.355795
0.0971084 0.151827 0.364721
0.185489 0.153979 0.416037
0.272404 0.134874 0.444419
0.340734 0.09337 0.436942
0.4813 0.0907454 0.51664
0.629572 0.0866102 0.584527
0.772854 0.0787366 0.641047
0.0906386 0.217823 0.440879
0.0921645 0.215106 0.444984
0.14757 0.216922 0.476539
0.238895 0.213703 0.521279
0.343038 0.19527 0.558495
0.446738 0.153948 0.573632
0.512016 0.093843 0.54548
0.681361 0.0967269 0.629328
0.944869 0.154879 0.772549
0.12221 0.333104 0.577585
0.159289 0.332067 0.593454
0.217487 0.328176 0.616571
0.306477 0.321126 0.652995
0.422904 0.303243 0.693156
0.560998 0.268147 0.729564
0.709575 0.215885 0.758221
0.896284 0.245579 0.817868
1 0.320043 0.849592
0.322469 0.510353 0.685618
0.333028 0.507485 0.695201
0.349355 0.497993 0.709636
0.389441 0.480842 0.73257
0.482536 0.465019 0.766781
0.615381 0.437034 0.804364
0.784436 0.397375 0.844053
0.942351 0.434852 0.860349
1 0.509621 0.854704
0.516686 0.659983 0.716396
0.532387 0.664179 0.720684
0.553674 0.669032 0.727764
0.573205 0.671046 0.745892
0.595148 0.660868 0.774624
0.659861 0.640528 0.809537
0.789532 0.616938 0.847959
0.924254 0.638041 0.857252
1 0.687312 0.854109
0.647608 0.765103 0.760098
0.657053 0.768032 0.763149
0.673533 0.773617 0.769039
0.69691 0.781292 0.777371
0.726497 0.790753 0.788235
0.757107 0.799725 0.808576
0.803388 0.789334 0.842512
0.908797 0.7944 0.860151
0.987213 0.825666 0.871717
0.75671 0.84094 0.809445
0.76286 0.843168 0.812039
0.77319 0.84715 0.816663
0.789242 0.85362 0.82414
0.810086 0.862287 0.834272
0.836851 0.874464 0.848585
0.868345 0.890227 0.867247
0.928557 0.920913 0.901595
0.9906 0.958053 0.940764
0.881148 0.923781 0.897444
0.885191 0.92578 0.900023
0.891722 0.929091 0.904295
0.898146 0.93608 0.911315
0.905867 0.945937 0.920302
0.916274 0.958938 0.930922
0.930861 0.975052 0.939605
0.966232 0.989929 0.941283
1 0.999359 0.960739
0.137057 0.210666 0.570474
0.18558 0.211353 0.597787
0.246479 0.205997 0.62327
0.323629 0.192447 0.648066
0.404761 0.165118 0.65774
0.453605 0.112093 0.612772
0.541573 0.0889601 0.633295
0.683803 0.0823682 0.706203
0.809079 0.0740978 0.757137
0.176486 0.260487 0.659632
0.218647 0.258061 0.677226
0.278462 0.251286 0.69865
0.361639 0.239185 0.727443
0.45185 0.212436 0.742535
0.536645 0.167971 0.735195
0.559472 0.0951705 0.653956
0.686061 0.0822156 0.708339
0.883986 0.10309 0.826169
0.229175 0.342428 0.765942
0.26688 0.339071 0.778424
0.321477 0.329824 0.792386
0.398993 0.313405 0.810224
0.496269 0.287861 0.829648
0.604227 0.248035 0.843015
0.708232 0.189807 0.840452
0.78732 0.125216 0.814679
1 0.220859 0.955123
0.319554 0.472557 0.851194
0.346349 0.468666 0.858839
0.388403 0.459281 0.869383
0.455116 0.444541 0.88542
0.545022 0.420722 0.904677
0.656764 0.385183 0.92578
0.787259 0.33608 0.947662
0.928084 0.282628 0.968231
1 0.384024 0.996216
0.496315 0.642954 0.868894
0.492638 0.631205 0.873549
0.492943 0.611963 0.881987
0.529015 0.598505 0.897093
0.591226 0.580423 0.916701
0.681956 0.555825 0.940307
0.801221 0.52398 0.967208
0.942748 0.482795 0.994827
1 0.557733 0.988617
0.656672 0.767651 0.852506
0.655818 0.764782 0.856825
0.654307 0.758679 0.864118
0.659281 0.750942 0.878843
0.667796 0.7308 0.898772
0.719463 0.716838 0.922911
0.803632 0.698863 0.94931
0.917372 0.670481 0.975723
1 0.70341 0.973175
0.771542 0.856291 0.879408
0.775204 0.856718 0.880552
0.781003 0.857038 0.88217
0.791104 0.858152 0.88542
0.799298 0.857099 0.893141
0.800671 0.846372 0.909743
0.829099 0.830365 0.93373
0.904768 0.813962 0.959091
0.997192 0.825788 0.966354
0.852277 0.915923 0.91397
0.855909 0.917327 0.915755
0.860441 0.918624 0.917601
0.867277 0.920455 0.920409
0.87686 0.923018 0.924407
0.889845 0.926268 0.929961
0.905241 0.929503 0.939116
0.923323 0.922011 0.960098
0.995087 0.930144 0.978134
0.915694 0.959655 0.949401
0.918013 0.960693 0.950698
0.921675 0.962249 0.952651
0.92752 0.964736 0.955734
0.936049 0.968444 0.960388
0.947829 0.973648 0.966949
0.963943 0.981201 0.976486
0.984283 0.991501 0.989548
1 1 1
