example-ExtraFX/bin/data/Shaders/ofxPostProcessing/luts/7.cube
TITLE "Generate by Resolve"
LUT_3D_SIZE 5
0.00979629 0.00872816 0.0100404
0.159777 0.0728618 0.0703441
0.549584 0.249088 0.0629587
0.872312 0.316457 0
1 0.318593 0
0.0887465 0.231083 0.171908
0.284337 0.206989 0.0927138
0.622843 0.37203 0.00694286
0.906706 0.384009 0
1 0.361944 0
0.0196994 0.506706 0.176257
0.176532 0.528725 0
0.624094 0.461295 0
0.944686 0.483894 0
1 0.43653 0
0 0.821241 0.201907
0 0.827863 0
0.58027 0.689754 0
0.953155 0.540581 0
1 0.520363 0
0 1 0.529152
0 1 0.248875
0 1 0
1 0.716579 0
1 0.574228 0
0.0852979 0.156588 0.273457
0.14815 0.156054 0.283955
0.483833 0.177005 0.37911
0.86923 0.360143 0.356588
1 0.380392 0.325673
0.0807813 0.287663 0.360418
0.245624 0.325795 0.382483
0.585351 0.402686 0.376959
0.882704 0.430625 0.352056
1 0.415793 0.308644
0 0.535653 0.458595
0.139666 0.543862 0.357153
0.603815 0.536828 0.350607
0.896788 0.528939 0.329641
1 0.475654 0.255207
0 0.825818 0.478798
0 0.839658 0.251591
0.564523 0.682963 0.172946
0.924758 0.57644 0.215412
1 0.535409 0
0 1 0.596429
0 1 0.365301
0 1 0
0.999603 0.742458 0
1 0.574334 0
0.033875 0.420859 0.662516
0.0418402 0.404166 0.610452
0.289143 0.362768 0.621881
0.781735 0.375113 0.691981
1 0.472007 0.605219
0 0.526787 0.680781
0.0069276 0.492607 0.626444
0.374975 0.466255 0.685832
0.794919 0.486046 0.65597
0.993866 0.601831 0.616831
0 0.612528 0.661692
0 0.630549 0.62501
0.480461 0.631647 0.616907
0.758877 0.679622 0.620005
0.992416 0.675074 0.612085
0 0.838621 0.749142
0 0.843442 0.690578
0.458106 0.748837 0.514595
0.790311 0.748272 0.608515
1 0.698878 0.558938
0 1 0.829206
0 1 0.780362
0 1 0.371954
0.911391 0.837354 0
1 0.575341 0
0 0.705379 0.936538
0 0.686793 0.921996
0 0.631022 0.877043
0.389151 0.586664 0.895933
0.805005 0.680507 0.88159
0 0.785626 0.926787
0 0.764172 0.915084
0 0.694331 0.877317
0.45127 0.659449 0.892836
0.816876 0.719554 0.874189
0.150286 0.8495 0.909056
0.124575 0.842206 0.895323
0 0.797162 0.869718
0.541161 0.761273 0.87985
0.856153 0.783047 0.859022
0.159472 0.856641 0.889967
0.23772 0.866194 0.878828
0.305837 0.869276 0.844388
0.637064 0.861326 0.843412
0.888838 0.86627 0.848997
0 0.935271 0.968307
0 0.958068 0.963546
0.0865034 0.982361 0.937118
0.472389 0.972641 0.737438
1 0.840543 0.745754
0.232822 0.892866 1
0.217609 0.890913 1
0.172351 0.885283 1
0.0409705 0.868208 1
0.570321 0.827848 1
0.319646 0.905348 1
0.303456 0.903212 1
0.258885 0.897368 1
0.133959 0.878965 1
0.597726 0.840345 0.999313
0.455726 0.925139 1
0.459648 0.925765 1
0.415427 0.920241 1
0.292393 0.903532 1
0.660624 0.867185 1
0.527123 0.936385 1
0.572457 0.941375 1
0.626978 0.94789 1
0.530831 0.936431 1
0.748135 0.905226 1
0.447913 0.937697 1
0.497246 0.942107 1
0.602136 0.951415 1
0.750347 0.965652 0.999878
0.847562 0.977813 1
