example-ExtraFX/bin/data/Shaders/ofxPostProcessing/luts/7.cube
TITLE "Generate by Resolve"
LUT_3D_SIZE 33
0.00979629 0.00872816 0.0100404
0.025452 0.0177615 0.0195773
0.0387579 0.0244755 0.0265354
0.0532082 0.0309148 0.0332189
0.0700999 0.0380713 0.0404822
0.0895705 0.0459907 0.0481575
0.112306 0.0552987 0.0564126
0.133471 0.0626078 0.0627909
0.159777 0.0728618 0.0703441
0.197498 0.0904707 0.0793927
0.239765 0.110887 0.0859541
0.284153 0.132235 0.0886549
0.331777 0.154971 0.0891127
0.382712 0.178958 0.0872053
0.43621 0.203342 0.0819867
0.492149 0.227131 0.0736248
0.549584 0.249088 0.0629587
0.604807 0.267414 0.0516213
0.654658 0.28127 0.0411231
0.699016 0.291615 0.0318456
0.738857 0.29955 0.0236362
0.775174 0.305592 0.0163729
0.80914 0.310216 0.00984207
0.841489 0.313893 0.00381476
0.872312 0.316457 0
0.9019 0.318257 0
0.930419 0.319524 0
0.958007 0.320226 0
0.984833 0.320409 0
1 0.319997 0
1 0.319356 0
1 0.319173 0
1 0.318593 0
0.0244755 0.0281224 0.0370031
0.0402228 0.0296941 0.0304265
0.0547799 0.0370489 0.0372168
0.0692454 0.0431067 0.0432136
0.0849317 0.0488594 0.0489357
0.105547 0.0575418 0.0565042
0.133623 0.0710918 0.0665141
0.164508 0.0860304 0.0755779
0.197467 0.1019 0.082475
0.232853 0.119005 0.0870985
0.271015 0.137575 0.0890211
0.3122 0.157671 0.08925
0.356649 0.179202 0.0878004
0.404517 0.201938 0.083711
0.455482 0.224979 0.0766461
0.509194 0.247364 0.0669871
0.564508 0.267674 0.0556191
0.617624 0.28423 0.0441749
0.665476 0.296574 0.033875
0.70837 0.305547 0.0249332
0.747127 0.312154 0.0171511
0.782696 0.317143 0.0102693
0.816159 0.320836 0.00407416
0.847974 0.323568 0
0.878462 0.325582 0
0.907744 0.326726 0
0.936004 0.327382 0
0.963378 0.327459 0
0.98996 0.327092 0
1 0.326299 0
1 0.325338 0
1 0.324804 0
1 0.323949 0
0.039353 0.0490425 0.0591745
0.0646067 0.0608988 0.0527352
0.0582437 0.0399329 0.0395056
0.0735332 0.0460365 0.0455634
0.100725 0.0617227 0.057847
0.126864 0.0750286 0.0673228
0.155154 0.0889601 0.0757763
0.184894 0.103365 0.0821546
0.21648 0.118608 0.0866102
0.250477 0.13518 0.0889754
0.286961 0.153109 0.0892958
0.326741 0.172671 0.0886397
0.369894 0.193713 0.0861219
0.416251 0.215717 0.0808576
0.465873 0.237934 0.0728923
0.518624 0.259541 0.0625772
0.572869 0.278935 0.0509041
0.624796 0.294408 0.0394903
0.671626 0.305715 0.0294041
0.713771 0.313832 0.0207218
0.751995 0.319783 0.0131533
0.78706 0.324193 0.00650034
0.820157 0.327398 0.000503548
0.851759 0.329549 0
0.882033 0.33109 0
0.911208 0.331975 0
0.9393 0.33225 0
0.966583 0.332067 0
0.993057 0.331411 0
1 0.330297 0
1 0.328969 0
1 0.328283 0
1 0.32723 0
0.0529488 0.0715953 0.0814832
0.0680095 0.0801404 0.0628214
0.0803998 0.0660258 0.0570077
0.084062 0.055787 0.05243
0.113237 0.0725872 0.0645457
0.144945 0.0912032 0.0755627
0.175509 0.10779 0.0826276
0.2047 0.122225 0.0867628
0.235096 0.137011 0.0889906
0.267567 0.152895 0.0891737
0.302968 0.170306 0.0889143
0.341436 0.189349 0.0873579
0.383261 0.209888 0.0834669
0.428534 0.231327 0.0770123
0.476982 0.252766 0.0681468
0.528756 0.273365 0.0572518
0.582116 0.291691 0.0453193
0.632914 0.306127 0.0339208
0.678767 0.316457 0.024033
0.720104 0.32369 0.01561
0.757671 0.328847 0.00834669
0.792325 0.332509 0.00196841
0.825101 0.334997 0
0.856413 0.33669 0
0.886336 0.337713 0
0.915175 0.338109 0
0.943053 0.337972 0
0.970016 0.337392 0
0.996307 0.336355 0
1 0.335042 0
1 0.333516 0
1 0.332509 0
1 0.33135 0
0.0653086 0.0970321 0.105043
0.0729229 0.103304 0.0734417
0.110933 0.115694 0.0793317
0.0990921 0.0710307 0.0618906
0.12256 0.0817426 0.0695659
0.157107 0.102846 0.0800641
0.190173 0.122515 0.0862135
0.223239 0.141787 0.0890822
0.253651 0.157336 0.089189
0.285206 0.172824 0.0889754
0.319554 0.18996 0.0878157
0.356817 0.208469 0.0847944
0.397345 0.22829 0.0795453
0.441352 0.24892 0.0719768
0.488884 0.269566 0.0622263
0.539742 0.28925 0.0507362
0.591714 0.306325 0.0386816
0.641001 0.319356 0.0275273
0.68571 0.328496 0.0179904
0.726253 0.334752 0.00988785
0.763226 0.33901 0.00296025
0.797498 0.341878 0
0.829984 0.343786 0
0.860975 0.344854 0
0.890684 0.345327 0
0.91928 0.345235 0
0.947005 0.344625 0
0.973922 0.343694 0
1 0.342275 0
1 0.340642 0
1 0.338827 0
1 0.337621 0
1 0.336034 0
0.0760052 0.127031 0.124498
0.0768444 0.130587 0.0833448
0.114275 0.145663 0.0869306
0.135836 0.125841 0.0837262
0.13576 0.0963302 0.0763104
0.164279 0.11107 0.0826123
0.19971 0.133318 0.0879377
0.23357 0.154208 0.0894789
0.268025 0.175326 0.0892195
0.300999 0.1935 0.087953
0.334524 0.210468 0.0853895
0.370535 0.228367 0.0810254
0.409995 0.247562 0.0745861
0.452903 0.267384 0.066041
0.499382 0.287007 0.0556344
0.549371 0.305623 0.0437629
0.600198 0.321447 0.0316625
0.648188 0.333104 0.0208133
0.691997 0.34107 0.0116274
0.731823 0.34638 0.00386053
0.7682 0.349844 0
0.802182 0.352102 0
0.832975 0.353231 0
0.860563 0.353506 0
0.89044 0.353521 0
0.91928 0.353109 0
0.947143 0.352087 0
0.974136 0.350713 0
1 0.348959 0
1 0.346944 0
1 0.344762 0
1 0.343359 0
1 0.341512 0
0.0835584 0.158618 0.143603
0.0831311 0.161379 0.0920424
0.105623 0.171176 0.0928817
0.151614 0.180896 0.0919509
0.161303 0.136461 0.0893568
0.174212 0.124712 0.0878614
0.204959 0.141848 0.0912184
0.240009 0.164279 0.0914931
0.27422 0.186252 0.0893111
0.309316 0.208438 0.0864729
0.344671 0.229007 0.0822461
0.380392 0.247471 0.0766155
0.418723 0.265919 0.0692912
0.46067 0.285069 0.0600137
0.506432 0.304067 0.0489967
0.555535 0.32166 0.0368963
0.605356 0.336324 0.0248569
0.652506 0.347005 0.0141909
0.695567 0.354055 0.00527962
0.734798 0.358587 0
0.770779 0.361288 0
0.804471 0.362829 0
0.836179 0.363546 0
0.866102 0.3635 0
0.895628 0.363043 0
0.924178 0.362051 0
0.951812 0.360494 0
0.978714 0.358724 0
1 0.356497 0
1 0.354101 0
1 0.351675 0
1 0.349798 0
1 0.347692 0
0.0879835 0.193988 0.159716
0.0877546 0.196597 0.102022
0.0947738 0.200916 0.0970474
0.144884 0.216098 0.0950332
0.180972 0.196933 0.0941787
0.18999 0.148882 0.0932631
0.213001 0.153628 0.0949874
0.24535 0.174136 0.0948806
0.280171 0.197101 0.090425
0.315465 0.220432 0.0851759
0.352087 0.244236 0.079057
0.390677 0.267552 0.0710613
0.429786 0.287541 0.0621042
0.471214 0.305974 0.0520333
0.516411 0.323934 0.040528
0.565057 0.340414 0.0281682
0.614069 0.353735 0.0162661
0.660075 0.362921 0.00604257
0.702251 0.368704 0
0.74078 0.372168 0
0.776318 0.37406 0
0.809781 0.374868 0
0.841611 0.374853 0
0.872145 0.374258 0
0.901518 0.373297 0
0.929976 0.371771 0
0.957473 0.369726 0
0.984207 0.367437 0
1 0.364797 0
1 0.361959 0
1 0.359182 0
1 0.356954 0
1 0.354543 0
0.0887465 0.231083 0.171908
0.088838 0.233265 0.109026
0.0897231 0.235172 0.0998703
0.125292 0.246036 0.0974594
0.179599 0.253132 0.0893263
0.208179 0.206256 0.0961929
0.224018 0.173556 0.0974136
0.251392 0.184863 0.0977493
0.284337 0.206989 0.0927138
0.3196 0.23093 0.0843824
0.356573 0.255863 0.0763256
0.395956 0.281514 0.0668498
0.438422 0.307164 0.0549477
0.481514 0.328008 0.0429236
0.526604 0.345068 0.0309453
0.574777 0.360235 0.0185245
0.622843 0.37203 0.00694286
0.667796 0.37969 0
0.709056 0.384207 0
0.746929 0.386664 0
0.782086 0.387655 0
0.815335 0.387701 0
0.847044 0.386969 0
0.877379 0.385672 0
0.906706 0.384009 0
0.935103 0.381994 0
0.962646 0.379583 0
0.989334 0.376761 0
1 0.373724 0
1 0.370474 0
1 0.367269 0
1 0.364752 0
1 0.361944 0
0.086183 0.268025 0.179965
0.0867323 0.269566 0.111467
0.0867018 0.270893 0.101472
0.0990005 0.276005 0.0971084
0.158785 0.289357 0.0871595
0.208743 0.272267 0.0857557
0.238041 0.220951 0.0964218
0.259342 0.202762 0.0982681
0.288457 0.217365 0.0951553
0.322087 0.240558 0.0857099
0.35903 0.265965 0.0746319
0.398733 0.292439 0.0634165
0.441474 0.319493 0.0503853
0.487526 0.345083 0.0356298
0.535637 0.365835 0.0211337
0.584131 0.380697 0.00822461
0.631052 0.390677 0
0.674876 0.396841 0
0.715206 0.400198 0
0.752407 0.401633 0
0.787335 0.40177 0
0.820539 0.401068 0
0.852308 0.399664 0
0.882719 0.397726 0
0.912032 0.395438 0
0.940459 0.392828 0
0.968093 0.389944 0
0.994827 0.386709 0
1 0.383185 0
1 0.379492 0
1 0.375921 0
1 0.373022 0
1 0.36994 0
0.0809644 0.304402 0.18407
0.0820172 0.305486 0.111482
0.0820325 0.306569 0.100282
0.0835126 0.308675 0.0941482
0.127489 0.318791 0.0856489
0.190814 0.324651 0.0733654
0.237675 0.284703 0.0830549
0.267536 0.235233 0.0947433
0.293339 0.231113 0.0952163
0.324453 0.250111 0.0871138
0.359655 0.274693 0.0736248
0.399115 0.301488 0.0605936
0.442115 0.329076 0.0468757
0.48893 0.35613 0.0310063
0.539742 0.380591 0.0141604
0.591348 0.39913 0
0.638926 0.409613 0
0.681682 0.414359 0
0.721157 0.41651 0
0.757946 0.416983 0
0.792737 0.416358 0
0.825833 0.414923 0
0.857527 0.412833 0
0.887938 0.410239 0
0.917281 0.40734 0
0.945754 0.404166 0
0.973358 0.400717 0
1 0.397101 0
1 0.393027 0
1 0.388922 0
1 0.385122 0
1 0.381796 0
1 0.378347 0
0.0737469 0.339727 0.185641
0.0753185 0.340505 0.108919
0.0753948 0.341299 0.0973983
0.0753033 0.342596 0.0889906
0.0900587 0.347311 0.0834669
0.158694 0.359182 0.0663767
0.22121 0.347112 0.0640269
0.26656 0.293843 0.0807965
0.297551 0.252628 0.0914931
0.327123 0.259785 0.0875868
0.36022 0.283253 0.0740215
0.398016 0.309346 0.0590372
0.439033 0.335729 0.0447547
0.484764 0.362356 0.0289616
0.53576 0.388006 0.0113985
0.589029 0.409415 0
0.640009 0.424079 0
0.684672 0.430762 0
0.72372 0.43212 0
0.760327 0.431907 0
0.795102 0.43064 0
0.828336 0.428611 0
0.860121 0.425971 0
0.890715 0.422904 0
0.920287 0.419394 0
0.948913 0.415717 0
0.97673 0.41181 0
1 0.407721 0
1 0.403326 0
1 0.398825 0
1 0.394598 0
1 0.390982 0
1 0.387167 0
0.0653544 0.372747 0.186435
0.0674144 0.373342 0.105318
0.0675364 0.374044 0.0938277
0.0675364 0.375174 0.0825055
0.0685283 0.377264 0.0793317
0.118654 0.386313 0.0626688
0.190906 0.392615 0.0509957
0.250095 0.359503 0.05832
0.296056 0.30396 0.0764935
0.328649 0.278767 0.0840467
0.360433 0.291188 0.0744945
0.396124 0.316121 0.0580148
0.436072 0.342229 0.042649
0.481605 0.369238 0.0264897
0.532906 0.395377 0.00846876
0.58645 0.417426 0
0.638453 0.433738 0
0.686107 0.443702 0
0.727825 0.447547 0
0.764889 0.447379 0
0.799512 0.445472 0
0.832715 0.442847 0
0.86453 0.439582 0
0.895125 0.435966 0
0.924681 0.431952 0
0.953368 0.42771 0
0.981247 0.423301 0
1 0.418753 0
1 0.413977 0
1 0.40911 0
1 0.404578 0
1 0.400565 0
1 0.396429 0
0.0555886 0.405997 0.185138
0.0580911 0.4065 0.100145
0.0582437 0.407126 0.0887465
0.058381 0.408057 0.0751659
0.0579538 0.409751 0.0721599
0.07364 0.41384 0.059205
0.150103 0.424628 0.0439918
0.223423 0.418555 0.0376135
0.280613 0.371817 0.0511482
0.326284 0.319875 0.068986
0.361028 0.306584 0.0701762
0.395636 0.323766 0.0561532
0.434607 0.349752 0.0399481
0.479286 0.376669 0.0236515
0.530419 0.40293 0.00537118
0.58471 0.425361 0
0.636973 0.441703 0
0.68542 0.452735 0
0.729839 0.459388 0
0.769772 0.461784 0
0.8056 0.4607 0
0.838499 0.457404 0
0.870161 0.453559 0
0.900664 0.449363 0
0.930129 0.4448 0
0.95877 0.440055 0
0.986587 0.435126 0
1 0.430137 0
1 0.424949 0
1 0.419715 0
1 0.414908 0
1 0.410544 0
1 0.406043 0
0.0445106 0.439734 0.18262
0.0474556 0.440146 0.0935073
0.0476692 0.440711 0.081651
0.0478981 0.441459 0.0676432
0.0475166 0.443046 0.063035
0.0473793 0.444877 0.0524147
0.103868 0.4533 0.0385443
0.185565 0.460975 0.024918
0.254536 0.435111 0.0271763
0.311833 0.381384 0.0438849
0.358602 0.336034 0.0585946
0.395697 0.334768 0.0522164
0.433387 0.357259 0.0372473
0.476341 0.383322 0.0211795
0.526024 0.409125 0.00314336
0.580224 0.431861 0
0.633692 0.448829 0
0.682826 0.46006 0
0.728054 0.46746 0
0.770382 0.472023 0
0.809155 0.473594 0
0.843946 0.471916 0
0.875395 0.467567 0
0.905806 0.462837 0
0.935241 0.457786 0
0.963867 0.452537 0
0.991623 0.447166 0
1 0.441718 0
1 0.436164 0
1 0.430518 0
1 0.425483 0
1 0.420798 0
1 0.415961 0
0.032578 0.473091 0.179477
0.0359045 0.473487 0.0868544
0.0362097 0.47396 0.07393
0.0364691 0.474662 0.0596323
0.0362097 0.476066 0.0528572
0.035996 0.477714 0.0424201
0.0545205 0.481865 0.0332341
0.138094 0.491249 0.0179904
0.220752 0.488914 0.00813306
0.286534 0.448844 0.0172427
0.345708 0.39144 0.035874
0.392798 0.356573 0.0436866
0.432319 0.364492 0.0348211
0.473808 0.389929 0.0186618
0.521859 0.415122 0.000946059
0.574929 0.437705 0
0.628626 0.45507 0
0.679133 0.46685 0
0.725399 0.474479 0
0.768277 0.479408 0
0.808728 0.48249 0
0.846159 0.483284 0
0.879728 0.480888 0
0.910658 0.476371 0
0.940017 0.470848 0
0.968612 0.46511 0
0.996338 0.459312 0
1 0.453452 0
1 0.447547 0
1 0.441581 0
1 0.436316 0
1 0.431296 0
1 0.426139 0
0.0196994 0.506706 0.176257
0.0233005 0.507332 0.0797284
0.023682 0.507759 0.0659953
0.024033 0.508415 0.05066
0.0239261 0.50959 0.0416114
0.023682 0.511254 0.0314794
0.0231479 0.513344 0.0243076
0.0846723 0.520882 0.0119478
0.176532 0.528725 0
0.255543 0.510292 0
0.320775 0.462165 0.00677501
0.381445 0.405859 0.0241703
0.429648 0.38349 0.0272984
0.472618 0.397147 0.015671
0.519371 0.421836 0
0.571206 0.444068 0
0.624094 0.461295 0
0.674937 0.473304 0
0.722255 0.4813 0
0.765759 0.486305 0
0.80647 0.489326 0
0.844938 0.490959 0
0.881041 0.490974 0
0.914137 0.488518 0
0.944686 0.483894 0
0.973205 0.477729 0
1 0.471504 0
1 0.465339 0
1 0.459083 0
1 0.452842 0
1 0.447333 0
1 0.442023 0
1 0.43653 0
0.00563058 0.541512 0.172869
0.00959792 0.542367 0.0695354
0.0105135 0.541573 0.055436
0.0109407 0.542153 0.0394598
0.0109102 0.543267 0.0293736
0.0106661 0.544945 0.018677
0.0101015 0.547021 0.0112917
0.0307012 0.551247 0.00547799
0.122347 0.559258 0
0.216922 0.559548 0
0.290944 0.527993 0
0.357107 0.474342 0
0.419028 0.425132 0.0103151
0.469917 0.411948 0.00943008
0.517494 0.428473 0
0.568231 0.450401 0
0.620356 0.467475 0
0.67068 0.479515 0
0.718105 0.487633 0
0.762387 0.492805 0
0.803571 0.495872 0
0.842283 0.497444 0
0.879164 0.497917 0
0.914229 0.497276 0
0.947066 0.494835 0
0.97731 0.49015 0
1 0.483772 0
1 0.477302 0
1 0.470741 0
1 0.46421 0
1 0.458503 0
1 0.452873 0
1 0.447089 0
0 0.5776 0.17023
0 0.578546 0.0557107
0 0.577371 0.0405432
0 0.577935 0.0238346
0 0.579065 0.015259
0 0.580621 0.00242618
0 0.58265 0
0 0.585245 0
0.0613718 0.591791 0
0.166003 0.598489 0
0.25745 0.588296 0
0.329564 0.545113 0
0.398627 0.488685 0
0.462577 0.445396 0
0.516411 0.439658 0
0.567239 0.457328 0
0.61854 0.474189 0
0.668284 0.486091 0
0.715404 0.494102 0
0.759655 0.49926 0
0.801007 0.502342 0
0.839841 0.503883 0
0.876844 0.504295 0
0.912367 0.503777 0
0.946578 0.502434 0
0.979141 0.500008 0
1 0.495277 0
1 0.489311 0
1 0.48246 0
1 0.4757 0
1 0.469795 0
1 0.463874 0
1 0.457816 0
0 0.615747 0.170489
0 0.616983 0.0382696
0 0.617151 0.0214237
0 0.617639 0.00393683
0 0.618708 0
0 0.620157 0
0 0.62211 0
0 0.624537 0
0.000534066 0.628489 0
0.10341 0.635187 0
0.215137 0.638743 0
0.301564 0.614069 0
0.374014 0.564034 0
0.447349 0.50515 0
0.513924 0.466087 0
0.569345 0.465644 0
0.619883 0.481926 0
0.668864 0.493446 0
0.715419 0.501167 0
0.759274 0.506111 0
0.80032 0.509026 0
0.838865 0.510445 0
0.875563 0.510719 0
0.911086 0.510079 0
0.945495 0.508614 0
0.978637 0.5066 0
1 0.504128 0
1 0.500145 0
1 0.494285 0
1 0.487343 0
1 0.481239 0
1 0.475029 0
1 0.468696 0
0 0.656764 0.172107
0 0.658579 0.0143587
0 0.658656 0
0 0.659037 0
0 0.659968 0
0 0.661357 0
0 0.663294 0
0 0.665583 0
0 0.668269 0
0.0326696 0.673686 0
0.156054 0.678416 0
0.267262 0.672129 0
0.350271 0.63711 0
0.42417 0.582422 0
0.502113 0.5205 0
0.568872 0.48716 0
0.622248 0.489738 0
0.670573 0.500801 0
0.716533 0.508232 0
0.759991 0.512978 0
0.800748 0.515709 0
0.838926 0.51693 0
0.874998 0.516991 0
0.909926 0.516167 0
0.94406 0.514656 0
0.97734 0.512627 0
1 0.510506 0
1 0.508156 0
1 0.504601 0
1 0.499077 0
1 0.492714 0
1 0.486244 0
1 0.479652 0
0 0.69897 0.174762
0 0.701457 0
0 0.70161 0
0 0.701976 0
0 0.702815 0
0 0.704204 0
0 0.705989 0
0 0.708202 0
0 0.710643 0
0 0.713985 0
0.0838331 0.718242 0
0.220844 0.719615 0
0.326024 0.702434 0
0.404913 0.657343 0
0.48014 0.598367 0
0.558312 0.538918 0
0.622721 0.507439 0
0.673198 0.508125 0
0.718761 0.515267 0
0.761791 0.519768 0
0.802243 0.522301 0
0.840299 0.523323 0
0.87602 0.523201 0
0.910018 0.522225 0
0.943114 0.520592 0
0.975891 0.518654 0
1 0.51664 0
1 0.514366 0
1 0.511849 0
1 0.50898 0
1 0.503944 0
1 0.497475 0
1 0.4907 0
0 0.741848 0.179843
0 0.745022 0.0101625
0 0.745632 0
0 0.745907 0
0 0.746685 0
0 0.747814 0
0 0.74931 0
0 0.751095 0
0 0.752987 0
0 0.754986 0
0.00369268 0.757595 0
0.151888 0.757763 0
0.290135 0.753628 0
0.387823 0.725124 0
0.462119 0.672099 0
0.538811 0.609552 0
0.614939 0.551522 0
0.674983 0.522454 0
0.72221 0.522225 0
0.765026 0.526513 0
0.805356 0.528878 0
0.84332 0.529732 0
0.879026 0.529473 0
0.912642 0.52845 0
0.94464 0.526818 0
0.975952 0.524849 0
1 0.52285 0
1 0.520562 0
1 0.517983 0
1 0.515511 0
1 0.513298 0
1 0.508354 0
1 0.501839 0
0 0.784039 0.188983
0 0.787427 0.0463874
0 0.78883 0
0 0.788891 0
0 0.789181 0
0 0.7897 0
0 0.790509 0
0 0.791547 0
0 0.79263 0
0 0.793774 0
0 0.794812 0
0.066041 0.794034 0
0.232105 0.789899 0
0.359548 0.776974 0
0.449577 0.740017 0
0.521843 0.682795 0
0.598337 0.616983 0
0.670634 0.559777 0
0.726116 0.533822 0
0.769909 0.533349 0
0.809918 0.535576 0
0.847562 0.536339 0
0.883055 0.53608 0
0.916518 0.535042 0
0.94815 0.533486 0
0.978378 0.531487 0
1 0.529198 0
1 0.526741 0
1 0.524117 0
1 0.521599 0
1 0.519478 0
1 0.517067 0
1 0.512322 0
0 0.821241 0.201907
0 0.82446 0.0811017
0 0.826734 0
0 0.826963 0
0 0.82681 0
0 0.826795 0
0 0.827039 0
0 0.82739 0
0 0.827863 0
0 0.828336 0
0 0.828626 0
0 0.827405 0
0.149676 0.822538 0
0.311986 0.815641 0
0.430045 0.7953 0
0.510887 0.750668 0
0.58027 0.689754 0
0.656123 0.621103 0
0.72462 0.564569 0
0.775174 0.542763 0
0.815518 0.542687 0
0.852872 0.543481 0
0.888121 0.543297 0
0.921523 0.54226 0
0.953155 0.540581 0
0.983154 0.53843 0
1 0.535912 0
1 0.533059 0
1 0.530251 0
1 0.527733 0
1 0.525597 0
1 0.52311 0
1 0.520363 0
0 0.85452 0.216251
0 0.857511 0.116289
0 0.85977 0
0 0.861295 0
0 0.860853 0
0 0.860365 0
0 0.860029 0
0 0.8598 0
0 0.859678 0
0 0.859541 0
0 0.859281 0
0 0.858564 0
0.0444038 0.853758 0
0.237613 0.845487 0
0.390326 0.836957 0
0.497536 0.809262 0
0.567697 0.757473 0
0.635721 0.69427 0
0.710735 0.622843 0
0.775631 0.566949 0
0.821225 0.550744 0
0.858579 0.551293 0
0.893904 0.550942 0
0.927382 0.549737 0
0.95906 0.54789 0
0.989197 0.545556 0
1 0.542809 0
1 0.539773 0
1 0.536553 0
1 0.533913 0
1 0.53167 0
1 0.529137 0
1 0.526314 0
0 0.883543 0.236469
0 0.886213 0.15259
0 0.888167 0.0686961
0 0.891051 0
0 0.891203 0
0 0.890394 0
0 0.889647 0
0 0.889021 0
0 0.888472 0
0 0.887907 0
0 0.887251 0
0 0.886351 0
0 0.882811 0
0.133791 0.874983 0
0.313161 0.865339 0
0.456458 0.851804 0
0.555047 0.818692 0
0.620523 0.763409 0
0.68809 0.69778 0
0.76289 0.62356 0
0.824598 0.568566 0
0.8654 0.559335 0
0.900816 0.558816 0
0.934432 0.557427 0
0.966293 0.555428 0
0.996704 0.552911 0
1 0.549966 0
1 0.546731 0
1 0.543297 0
1 0.540291 0
1 0.53785 0
1 0.535195 0
1 0.532311 0
0 0.9093 0.267536
0 0.911574 0.204486
0 0.913146 0.151064
0 0.915526 0.0480812
0 0.918166 0
0 0.917937 0
0 0.916899 0
0 0.915862 0
0 0.914916 0
