example-ExtraFX/bin/data/Shaders/ofxPostProcessing/luts/7.cube
TITLE "Generate by Resolve"
LUT_3D_SIZE 9
0.00979629 0.00872816 0.0100404
0.0700999 0.0380713 0.0404822
0.159777 0.0728618 0.0703441
0.331777 0.154971 0.0891127
0.549584 0.249088 0.0629587
0.738857 0.29955 0.0236362
0.872312 0.316457 0
0.984833 0.320409 0
1 0.318593 0
0.0653086 0.0970321 0.105043
0.12256 0.0817426 0.0695659
0.253651 0.157336 0.089189
0.397345 0.22829 0.0795453
0.591714 0.306325 0.0386816
0.763226 0.33901 0.00296025
0.890684 0.345327 0
1 0.342275 0
1 0.336034 0
0.0887465 0.231083 0.171908
0.179599 0.253132 0.0893263
0.284337 0.206989 0.0927138
0.438422 0.307164 0.0549477
0.622843 0.37203 0.00694286
0.782086 0.387655 0
0.906706 0.384009 0
1 0.373724 0
1 0.361944 0
0.0653544 0.372747 0.186435
0.0685283 0.377264 0.0793317
0.296056 0.30396 0.0764935
0.436072 0.342229 0.042649
0.638453 0.433738 0
0.799512 0.445472 0
0.924681 0.431952 0
1 0.413977 0
1 0.396429 0
0.0196994 0.506706 0.176257
0.0239261 0.50959 0.0416114
0.176532 0.528725 0
0.429648 0.38349 0.0272984
0.624094 0.461295 0
0.80647 0.489326 0
0.944686 0.483894 0
1 0.459083 0
1 0.43653 0
0 0.656764 0.172107
0 0.659968 0
0 0.668269 0
0.350271 0.63711 0
0.622248 0.489738 0
0.800748 0.515709 0
0.94406 0.514656 0
1 0.504601 0
1 0.479652 0
0 0.821241 0.201907
0 0.82681 0
0 0.827863 0
0.149676 0.822538 0
0.58027 0.689754 0
0.815518 0.542687 0
0.953155 0.540581 0
1 0.530251 0
1 0.520363 0
0 0.931533 0.32047
0 0.93904 0.0866102
0 0.939773 0
0 0.934676 0
0.447303 0.898894 0
0.791272 0.70277 0
0.985534 0.571283 0
1 0.557946 0
1 0.544518 0
0 1 0.529152
0 1 0.447211
0 1 0.248875
0 1 0
0 1 0
0.707744 0.953948 0
1 0.716579 0
1 0.594339 0
1 0.574228 0
0.0482643 0.0598917 0.107744
0.06421 0.0611734 0.112276
0.159487 0.0747234 0.15964
0.309926 0.129137 0.188739
0.553674 0.257603 0.227344
0.740001 0.307942 0.203906
0.875914 0.328359 0.172778
0.991073 0.334127 0.130739
1 0.331334 0.0593881
0.0805829 0.124498 0.175036
0.160342 0.164584 0.214313
0.264317 0.197391 0.23212
0.396857 0.249134 0.243259
0.584894 0.312825 0.226719
0.757488 0.345388 0.195239
0.889097 0.355673 0.164416
1 0.354864 0.120684
1 0.347616 0.0440223
0.0852827 0.264622 0.2907
0.176608 0.255329 0.246998
0.290623 0.278096 0.258228
0.427283 0.333074 0.249317
0.612207 0.381109 0.213458
0.774136 0.395605 0.180438
0.90309 0.394095 0.148989
1 0.385061 0.101152
1 0.371954 0.0110781
0.0548562 0.393652 0.33048
0.05449 0.402579 0.253376
0.297337 0.319661 0.243961
0.436332 0.390311 0.231525
0.634684 0.456138 0.191836
0.789319 0.454978 0.161395
0.917494 0.442359 0.127428
1 0.424659 0.0693065
1 0.404974 0
0.00750744 0.521096 0.330297
0.00822461 0.528466 0.240208
0.159594 0.538659 0.183703
0.43125 0.415045 0.205142
0.624857 0.48661 0.158785
0.799237 0.508003 0.134951
0.931151 0.494377 0.098558
1 0.46891 0.0161746
1 0.442451 0
0 0.668284 0.324636
0 0.676265 0.194553
0 0.68397 0.140139
0.349752 0.634394 0.0486458
0.625299 0.510842 0.0980697
0.796674 0.5308 0.0675212
0.936263 0.529442 0.0336461
1 0.513863 0
1 0.481773 0
0 0.824475 0.336004
0 0.833326 0.111482
0 0.834073 0.0345617
0.120089 0.828367 0
0.581628 0.685847 0
0.813367 0.553384 0
0.950607 0.549294 0
1 0.535286 0
1 0.520562 0
0 0.931533 0.378988
0 0.938201 0.215747
0 0.94226 0
0 0.936965 0
0.447272 0.900557 0
0.795956 0.702739 0
0.989334 0.57174 0
1 0.558297 0
1 0.544625 0
0 1 0.55169
0 1 0.471794
0 1 0.291966
0 1 0
0 1 0
0.686107 0.958434 0
1 0.725032 0
1 0.594736 0
1 0.574258 0
0.0852979 0.156588 0.273457
0.0857862 0.160586 0.269154
0.14815 0.156054 0.283955
0.314229 0.187991 0.373236
0.483833 0.177005 0.37911
0.70193 0.235996 0.353231
0.86923 0.360143 0.356588
0.986893 0.37995 0.347509
1 0.380392 0.325673
0.0871901 0.241474 0.33962
0.0877852 0.235172 0.326253
0.205005 0.245884 0.371283
0.36466 0.251499 0.39823
0.560403 0.267201 0.374395
0.741817 0.367102 0.367224
0.87538 0.392477 0.358724
0.99266 0.400275 0.344198
1 0.394598 0.319753
0.0807813 0.287663 0.360418
0.0834821 0.314366 0.366323
0.245624 0.325795 0.382483
0.39678 0.359426 0.382635
0.585351 0.402686 0.376959
0.749889 0.423255 0.364584
0.882704 0.430625 0.352056
0.999222 0.428351 0.335805
1 0.415793 0.308644
0.0445869 0.414694 0.42855
0.0423285 0.425483 0.385824
0.244083 0.402213 0.388067
0.40119 0.459525 0.390173
0.598444 0.48333 0.369985
0.75761 0.484428 0.355261
0.889265 0.478019 0.342061
1 0.465278 0.3234
1 0.443961 0.28896
0 0.535653 0.458595
0 0.54789 0.380118
0.139666 0.543862 0.357153
0.405035 0.483375 0.363119
0.603815 0.536828 0.350607
0.766522 0.545892 0.344793
0.896788 0.528939 0.329641
1 0.506233 0.304814
1 0.475654 0.255207
0 0.679149 0.462516
0 0.691463 0.348791
0 0.698955 0.317449
0.340368 0.630152 0.28394
0.607782 0.55108 0.303029
0.771405 0.568414 0.304524
0.906004 0.570443 0.305592
1 0.546731 0.273671
1 0.507225 0.187884
0 0.825818 0.478798
0 0.834867 0.361089
0 0.839658 0.251591
0.039292 0.83331 0.187808
0.564523 0.682963 0.172946
0.791348 0.578119 0.212406
0.924758 0.57644 0.215412
1 0.56376 0.188128
1 0.535409 0
0 0.927657 0.51635
0 0.933516 0.420798
0 0.94229 0.185412
0 0.938399 0.0901503
0.374258 0.907118 0
0.781384 0.710918 0
0.980972 0.582223 0
1 0.564874 0
1 0.544533 0
0 1 0.596429
0 1 0.520974
0 1 0.365301
0 1 0
0 1 0
0.631907 0.965743 0
0.999603 0.742458 0
1 0.595605 0
1 0.574334 0
0.0787671 0.287938 0.46482
0.0796216 0.284993 0.44947
0.0823835 0.271931 0.42182
0.220752 0.266209 0.458137
0.443824 0.298192 0.557733
0.672602 0.27042 0.56025
0.83682 0.292119 0.512123
0.976638 0.365881 0.469505
1 0.478599 0.478447
0.0621653 0.353155 0.492576
0.0654917 0.343069 0.475776
0.0721904 0.319875 0.447593
0.252842 0.327489 0.504677
0.476539 0.340383 0.566827
0.701015 0.325536 0.547845
0.859068 0.350118 0.491035
0.967544 0.452995 0.476539
1 0.489311 0.475044
0.0415045 0.414878 0.513619
0.0449683 0.40676 0.496101
0.0615091 0.381567 0.474769
0.28513 0.402609 0.536629
0.534798 0.395544 0.549783
0.72929 0.403037 0.502052
0.85301 0.471931 0.4795
0.958389 0.504143 0.477821
1 0.501762 0.4654
0.0296025 0.447822 0.508049
0.0193942 0.474296 0.505043
0.104692 0.471534 0.50222
0.353735 0.479789 0.504341
0.562066 0.503197 0.487572
0.715084 0.527398 0.482216
0.844053 0.537865 0.479438
0.959518 0.539025 0.473472
1 0.525185 0.456016
0 0.549493 0.541436
0 0.568719 0.526284
0.114855 0.555367 0.485969
0.358877 0.578088 0.493111
0.557046 0.597711 0.488594
0.712871 0.595758 0.482994
0.844053 0.590021 0.477623
0.963928 0.577295 0.466331
1 0.550576 0.439612
0 0.699214 0.587579
0 0.704845 0.545495
0 0.718959 0.454154
0.330617 0.636622 0.43508
0.572671 0.617243 0.449805
0.724819 0.640558 0.469322
0.852064 0.638972 0.472786
0.97612 0.613596 0.451637
1 0.574121 0.409888
0 0.828901 0.632242
0 0.833829 0.5794
0 0.846738 0.422141
0 0.843046 0.370504
0.534768 0.69807 0.355123
0.753475 0.628214 0.388434
0.8822 0.636332 0.408484
1 0.631998 0.409094
1 0.590417 0.347723
0 0.923186 0.674907
0 0.92636 0.629587
0 0.93579 0.487785
0 0.941283 0.314397
0.193881 0.916716 0.231067
0.733181 0.737682 0.212863
0.941939 0.61619 0.251942
1 0.60264 0.244724
1 0.575235 0.156527
0 1 0.719234
0 1 0.689509
0 1 0.568368
0 1 0.270954
0 1 0
0.501884 0.980377 0
0.977691 0.775555 0
1 0.596948 0
1 0.574411 0
0.033875 0.420859 0.662516
0.0366217 0.415412 0.642817
0.0418402 0.404166 0.610452
0.058381 0.359274 0.558251
0.289143 0.362768 0.621881
0.575158 0.383597 0.717983
0.781735 0.375113 0.691981
0.930846 0.408499 0.643366
1 0.472007 0.605219
0.0140993 0.470512 0.672648
0.0187686 0.460899 0.6533
0.0269627 0.443381 0.619959
0.0454719 0.397177 0.576684
0.322927 0.406439 0.652903
0.581781 0.425391 0.712062
0.792721 0.417639 0.680812
0.928328 0.456825 0.632517
1 0.517388 0.602945
0 0.526787 0.680781
0 0.514473 0.65977
0.0069276 0.492607 0.626444
0.0400702 0.453056 0.59942
0.374975 0.466255 0.685832
0.60737 0.477241 0.696086
0.794919 0.486046 0.65597
0.917586 0.525689 0.61619
0.993866 0.601831 0.616831
0 0.590814 0.689021
0 0.584955 0.665171
0 0.555627 0.629236
0.0973068 0.532479 0.626276
0.413809 0.544945 0.677134
0.639872 0.549432 0.654368
0.789212 0.573648 0.61738
0.881956 0.632868 0.617716
0.976318 0.661479 0.62475
0 0.612528 0.661692
0 0.634119 0.654505
0 0.630549 0.62501
0.230152 0.625422 0.631785
0.480461 0.631647 0.616907
0.637583 0.656352 0.610574
0.758877 0.679622 0.620005
0.875242 0.686183 0.623941
0.992416 0.675074 0.612085
0 0.67863 0.676814
0 0.711025 0.67364
0 0.736629 0.640726
0.246311 0.700267 0.588129
0.473869 0.721187 0.615335
0.627924 0.732555 0.630228
0.759426 0.730404 0.632181
0.884749 0.720348 0.625055
1 0.692866 0.597589
0 0.838621 0.749142
0 0.840909 0.729168
0 0.843442 0.690578
0 0.854429 0.553185
0.458106 0.748837 0.514595
0.671122 0.71957 0.56199
0.790311 0.748272 0.608515
0.908186 0.745937 0.614069
1 0.698878 0.558938
0 0.923308 0.788983
0 0.924575 0.770108
0 0.926436 0.737636
0 0.937331 0.586313
0 0.933135 0.46006
0.659251 0.796017 0.407446
0.877516 0.688457 0.455955
0.991348 0.693309 0.482017
1 0.667979 0.452262
0 1 0.829206
0 1 0.810971
0 1 0.780362
0 1 0.674846
0 1 0.371954
0.0920119 1 0.205631
0.911391 0.837354 0
1 0.611795 0
1 0.575341 0
0 0.551736 0.827848
0 0.5458 0.816587
0 0.534966 0.797009
0 0.514549 0.761913
0.0189517 0.453605 0.720745
0.353887 0.460685 0.78558
0.666789 0.481971 0.842588
0.814267 0.519905 0.79884
0.957748 0.550423 0.760601
0 0.596292 0.832792
0 0.587198 0.821927
0 0.57142 0.80209
0 0.545007 0.766537
0.00436408 0.487816 0.734646
0.383749 0.496239 0.800793
0.657984 0.522835 0.829953
0.81706 0.549966 0.790921
0.943404 0.593271 0.759274
0 0.652186 0.834943
0 0.640589 0.824537
0 0.620584 0.80531
0 0.587579 0.769787
0.0115663 0.541558 0.752834
0.433829 0.547509 0.816831
0.643839 0.580575 0.80856
0.814984 0.5991 0.778683
0.925963 0.647547 0.757565
0 0.723918 0.833356
0 0.710613 0.823545
0 0.686229 0.805402
0 0.645045 0.770748
0.0650645 0.611444 0.767025
0.477791 0.618448 0.811994
0.647822 0.646845 0.78674
0.801877 0.671458 0.766384
0.916426 0.703059 0.753262
0 0.774868 0.831189
0 0.775326 0.81796
0 0.759258 0.798993
0 0.717128 0.768444
0.189609 0.690623 0.77171
0.483299 0.704585 0.780926
0.665278 0.719921 0.765942
0.802976 0.738918 0.752544
0.907408 0.767941 0.756741
0 0.771939 0.805097
0 0.781933 0.797498
0.0621805 0.793393 0.783475
0.0699016 0.780468 0.753002
0.32192 0.770214 0.752148
0.531929 0.778302 0.746975
0.677668 0.793515 0.751431
0.803922 0.801343 0.758389
0.920348 0.794553 0.753582
0 0.77911 0.806745
0 0.798383 0.803128
0 0.824292 0.79704
0 0.847761 0.776425
0.320104 0.821393 0.713161
0.551278 0.827253 0.747433
0.69958 0.834257 0.764202
0.826215 0.826734 0.761761
0.942519 0.808011 0.743252
0 0.897627 0.867582
0 0.908492 0.865354
0 0.920531 0.857114
0 0.925475 0.82797
0 0.934722 0.724987
0.516884 0.874983 0.635096
0.754116 0.8065 0.681666
0.874037 0.823301 0.722087
0.978943 0.811093 0.711986
0 0.988647 0.937575
0 0.992203 0.929763
0 0.996124 0.911604
0 1 0.875761
0 1 0.802304
0 1 0.570871
0.790738 0.924895 0.410086
1 0.694163 0.408286
1 0.654994 0.359808
0 0.705379 0.936538
0 0.699016 0.931334
0 0.686793 0.921996
0 0.665049 0.905348
0 0.631022 0.877043
0 0.580606 0.86157
0.389151 0.586664 0.895933
0.704585 0.614176 0.917479
0.805005 0.680507 0.88159
0 0.742458 0.932448
0 0.734676 0.927977
0 0.72018 0.919722
0 0.695064 0.904601
0 0.656214 0.877699
0 0.61146 0.868605
0.413794 0.615457 0.895628
0.696315 0.64477 0.90724
0.806867 0.696849 0.878096
0 0.785626 0.926787
0 0.77821 0.922606
0 0.764172 0.915084
0 0.738079 0.901671
0 0.694331 0.877317
0 0.657282 0.874449
0.45127 0.659449 0.892836
0.681865 0.68838 0.89218
0.816876 0.719554 0.874189
0 0.824613 0.917174
0 0.819425 0.914427
0 0.809461 0.909072
0 0.787579 0.896696
0 0.745068 0.874266
0.0691539 0.713344 0.872312
0.500465 0.71194 0.888899
0.672328 0.735973 0.876966
0.839399 0.744869 0.867704
0.150286 0.8495 0.909056
0.156298 0.849363 0.902129
0.124575 0.842206 0.895323
0.0454871 0.8271 0.886702
0 0.797162 0.869718
0.190524 0.763455 0.859251
0.541161 0.761273 0.87985
0.69369 0.775814 0.866163
0.856153 0.783047 0.859022
0.208911 0.861631 0.904356
0.241825 0.866758 0.901152
0.263508 0.869108 0.892653
0.236851 0.860456 0.875685
0.137804 0.835538 0.854704
0.306752 0.809781 0.84889
0.563027 0.812161 0.860136
0.74139 0.817594 0.855467
0.875959 0.824613 0.847196
0.159472 0.856641 0.889967
0.191852 0.860502 0.88571
0.23772 0.866194 0.878828
0.295598 0.873625 0.868681
0.305837 0.869276 0.844388
0.434669 0.856504 0.839582
0.637064 0.861326 0.843412
0.780438 0.868544 0.849668
0.888838 0.86627 0.848997
0 0.856855 0.90164
0 0.860426 0.897169
0.065919 0.866178 0.890181
0.163973 0.885084 0.880674
0.262394 0.906905 0.869383
0.376699 0.909606 0.813535
0.667109 0.884565 0.83122
0.814664 0.891356 0.853162
0.912352 0.878645 0.841627
0 0.935271 0.968307
0 0.944366 0.966369
0 0.958068 0.963546
0 0.970886 0.954513
0.0865034 0.982361 0.937118
0 0.995453 0.889876
0.472389 0.972641 0.737438
0.91075 0.839231 0.719142
1 0.840543 0.745754
0 0.833249 0.990295
0 0.831128 0.988434
0 0.825681 0.984649
0 0.815427 0.978363
0 0.797513 0.96907
0 0.764935 0.955123
0 0.737621 0.957046
0.448768 0.729732 0.949508
0.746624 0.738018 0.972503
0 0.846082 0.984421
0 0.844236 0.983307
0 0.83975 0.980926
0 0.829511 0.975006
0 0.81062 0.965377
0 0.776593 0.950759
0.0384833 0.748821 0.951339
0.46569 0.741405 0.946166
0.7476 0.748928 0.967865
0.102266 0.861143 0.976837
0.0846418 0.858534 0.975174
0.0499428 0.853712 0.97232
0 0.846265 0.968505
0 0.832547 0.962539
0 0.801984 0.948638
0.125978 0.773465 0.945769
0.498726 0.765164 0.944884
0.749401 0.769238 0.961196
0.218463 0.87863 0.970977
0.204288 0.876051 0.969162
0.179263 0.871504 0.965911
0.137316 0.864378 0.961212
0.0564736 0.852155 0.954513
0 0.830564 0.945708
0.204196 0.799161 0.938582
0.539559 0.789883 0.943771
0.754314 0.792615 0.952865
0.311894 0.894301 0.968063
0.31722 0.894896 0.964691
0.299916 0.891646 0.961791
0.26244 0.884779 0.957824
0.200916 0.872999 0.949218
0.0814832 0.852323 0.936904
0.274647 0.825025 0.931228
0.589242 0.815061 0.943481
0.763989 0.819409 0.944045
0.38558 0.907134 0.970291
0.396811 0.908736 0.967956
0.403586 0.909422 0.962829
0.398611 0.907912 0.955139
0.344823 0.898116 0.947997
0.250614 0.879484 0.933318
0.351064 0.853834 0.925093
0.649531 0.841764 0.94374
0.788922 0.847959 0.937316
0.376791 0.908705 0.967498
0.399527 0.911635 0.965866
0.435782 0.916381 0.963424
0.486458 0.92282 0.959976
0.490196 0.922011 0.948241
0.412482 0.907622 0.931273
0.43122 0.882658 0.917739
0.686351 0.875105 0.931746
0.845441 0.875502 0.931701
0.331991 0.906783 0.961593
0.353506 0.909209 0.959319
0.386679 0.912856 0.955596
0.433616 0.918013 0.950195
0.489662 0.923842 0.942809
0.543297 0.928496 0.931014
0.566964 0.912444 0.912154
0.764172 0.916304 0.922438
0.867262 0.924987 0.932891
0.159457 0.90663 0.983841
0.183291 0.908888 0.981933
0.218326 0.912383 0.978973
0.263981 0.917372 0.974899
0.32282 0.927016 0.968246
0.42417 0.949584 0.95819
0.497642 0.96669 0.938567
0.780575 0.925261 0.880186
0.895094 0.937469 0.932235
0.232822 0.892866 1
0.228153 0.892287 1
0.217609 0.890913 1
0.200778 0.888808 1
0.172351 0.885283 1
0.12604 0.87985 1
0.0409705 0.868208 1
0.310384 0.841978 1
0.570321 0.827848 1
0.268833 0.898024 1
0.26302 0.8972 1
0.252674 0.895857 1
0.238209 0.894133 1
0.20972 0.890425 1
0.165179 0.884901 1
0.080354 0.872267 1
0.326284 0.846571 1
0.580621 0.832578 0.999939
0.319646 0.905348 1
0.314641 0.904723 1
0.303456 0.903212 1
0.285313 0.900786 1
0.258885 0.897368 1
0.215366 0.891707 1
0.133959 0.878965 1
0.351263 0.854307 1
0.597726 0.840345 0.999313
0.389792 0.915633 1
0.384619 0.914992 1
0.374395 0.91368 1
0.358389 0.91165 1
0.333532 0.908507 1
0.285771 0.90193 1
0.206332 0.890089 1
0.386374 0.866041 1
0.625422 0.852476 0.999893
0.455726 0.925139 1
0.461753 0.925978 1
0.459648 0.925765 1
0.443305 0.923796 1
0.415427 0.920241 1
0.368856 0.914031 1
0.292393 0.903532 1
0.427573 0.880339 1
0.660624 0.867185 1
0.50901 0.932296 1
0.516304 0.933303 1
0.527047 0.934768 1
0.542916 0.936996 1
0.517418 0.933959 1
0.471656 0.928252 1
0.395758 0.918379 1
0.471 0.896117 1
0.699825 0.883558 1
0.527123 0.936385 1
0.544442 0.938293 1
0.572457 0.941375 1
0.607401 0.945357 1
0.626978 0.94789 1
0.607172 0.945617 1
0.530831 0.936431 1
0.52314 0.915892 0.998764
0.748135 0.905226 1
0.507927 0.937942 1
0.526696 0.939864 1
0.554803 0.942687 1
0.596048 0.946853 1
0.649241 0.952361 1
0.71284 0.95935 1
0.720241 0.960128 0.997559
0.612757 0.94551 0.994522
0.805325 0.937865 1
0.447913 0.937697 1
0.467033 0.939406 1
0.497246 0.942107 1
0.542199 0.946075 1
0.602136 0.951415 1
0.673823 0.958053 1
0.750347 0.965652 0.999878
0.800443 0.970977 0.996155
0.847562 0.977813 1
