example-Advanced/bin/data/Shaders/ofxPostProcessing/luts/1.cube
TITLE "Generate by Resolve"
LUT_3D_SIZE 33
0.0131991 0.0143282 0.0143435
0.0150149 0.0157473 0.0157626
0.017731 0.0178225 0.0179294
0.0203098 0.0197147 0.019913
0.03093 0.0269169 0.0272068
0.0447852 0.0351263 0.0355383
0.0613413 0.0435798 0.0441444
0.0795605 0.0509499 0.0519265
0.0967422 0.0550393 0.0572366
0.116243 0.0587472 0.0624247
0.144152 0.0655222 0.0700999
0.177951 0.0728923 0.0780957
0.215549 0.079408 0.0851301
0.256611 0.0849317 0.0910811
0.299947 0.0893416 0.0959182
0.344076 0.092668 0.0996719
0.387823 0.0950179 0.102449
0.431144 0.0965744 0.104601
0.474311 0.0975052 0.10634
0.516823 0.0978866 0.107836
0.558129 0.0978408 0.109346
0.597971 0.0974441 0.111116
0.631708 0.0968795 0.113329
0.647959 0.0965133 0.116152
0.649302 0.0964523 0.120256
0.651011 0.096376 0.125551
0.652888 0.0962844 0.131411
0.654978 0.0961776 0.138003
0.657237 0.0960708 0.145129
0.659693 0.0959335 0.153063
0.662364 0.0957961 0.161776
0.666773 0.096025 0.171572
0.713527 0.108919 0.185824
0.0272984 0.0309911 0.0297246
0.0282139 0.0319371 0.030045
0.0318914 0.0347601 0.0325628
0.0343481 0.0369116 0.0343786
0.0449226 0.0438697 0.0408331
0.0593423 0.0521248 0.0485237
0.0755169 0.0595102 0.0555428
0.0930495 0.0654612 0.0616007
0.111345 0.0694896 0.0664225
0.129305 0.0710765 0.0697795
0.153521 0.0749981 0.0749065
0.182132 0.0792859 0.080354
0.208225 0.0800641 0.0836805
0.242359 0.0831464 0.0883955
0.284993 0.0879377 0.0937819
0.328862 0.0916304 0.0980392
0.372564 0.0942855 0.101228
0.416022 0.0961013 0.103563
0.45919 0.0972305 0.105196
0.501717 0.0977951 0.106249
0.543069 0.0979019 0.106828
0.583108 0.0976425 0.107149
0.620905 0.0971084 0.10808
0.646235 0.0965896 0.110933
0.6477 0.0965286 0.115358
0.649409 0.0964523 0.120592
0.651331 0.0963607 0.126558
0.653468 0.0962539 0.133196
0.655772 0.0961471 0.140459
0.658915 0.0961929 0.148501
0.671031 0.0985885 0.157916
0.721218 0.1131 0.17026
0.79237 0.140627 0.183871
0.0399786 0.0475776 0.043946
0.0409094 0.0489509 0.043946
0.0432136 0.0505074 0.0451209
0.0463417 0.0526589 0.0468147
0.0579385 0.0596017 0.0527657
0.0712291 0.066392 0.0585794
0.086656 0.0732128 0.0645457
0.106233 0.0805829 0.0710155
0.128237 0.0866865 0.0767071
0.15169 0.090898 0.0813306
0.176303 0.0933547 0.085069
0.20061 0.0933394 0.087602
0.222263 0.0903334 0.0887617
0.254734 0.0918593 0.0922713
0.287312 0.0918593 0.0949874
0.321141 0.0915389 0.0974136
0.363195 0.0937972 0.100557
0.406531 0.0957656 0.103044
0.449744 0.0970474 0.104814
0.492607 0.0977188 0.105959
0.534432 0.0979171 0.106615
0.574807 0.0977188 0.106859
0.614404 0.0972305 0.106859
0.643671 0.0966659 0.10782
0.646571 0.0965744 0.111925
0.648356 0.0964981 0.117372
0.650309 0.0964065 0.123354
0.652461 0.0962997 0.130068
0.65655 0.0966354 0.137667
0.673976 0.100603 0.14638
0.711528 0.111192 0.156817
0.777768 0.135409 0.168399
0.82707 0.159564 0.180285
0.0551919 0.0703136 0.0618906
0.0561837 0.0721294 0.0610361
0.0566567 0.0727245 0.0610208
0.0616464 0.0756085 0.0630655
0.0742962 0.0822309 0.0680705
0.0895552 0.0885634 0.0730144
0.105577 0.0941024 0.0772869
0.122927 0.0991531 0.0812848
0.144945 0.105104 0.0859541
0.171588 0.111025 0.0905928
0.200992 0.115587 0.0944839
0.232319 0.118456 0.0975509
0.264134 0.118791 0.0996719
0.296239 0.117235 0.101198
0.325628 0.113176 0.101976
0.349935 0.106783 0.102098
0.379568 0.103258 0.102815
0.413428 0.101518 0.103822
0.444465 0.0987259 0.10457
0.48101 0.0975814 0.105577
0.522805 0.0979019 0.106401
0.563561 0.0978103 0.106737
0.604593 0.0973678 0.106752
0.637827 0.0968032 0.106645
0.645274 0.0966354 0.108003
0.646876 0.0965591 0.112856
0.651957 0.0972457 0.119387
0.668849 0.101167 0.126436
0.689128 0.106218 0.134737
0.741634 0.123125 0.143603
0.786633 0.141024 0.152911
0.826825 0.16112 0.163317
0.859327 0.181537 0.175341
0.070161 0.0975509 0.081529
0.0710155 0.0997177 0.0791028
0.0712444 0.100267 0.0786297
0.0721599 0.101152 0.0786145
0.0824903 0.10631 0.0816968
0.105348 0.115648 0.087541
0.126787 0.121965 0.0913863
0.146426 0.125963 0.0938277
0.167346 0.129534 0.0958572
0.190051 0.132601 0.098024
0.220295 0.137209 0.100816
0.255604 0.141527 0.103227
0.293156 0.144183 0.104875
0.332128 0.144976 0.105882
0.371679 0.143999 0.105867
0.409888 0.141283 0.104891
0.445686 0.137087 0.104051
0.478218 0.131655 0.103746
0.507652 0.125551 0.1037
0.535714 0.119585 0.103807
0.563012 0.114 0.104112
0.592966 0.109514 0.104692
0.630594 0.107057 0.105257
0.668177 0.10695 0.105287
0.690211 0.109575 0.104738
0.707103 0.1149 0.105745
0.72987 0.122087 0.111208
0.756024 0.131273 0.118151
0.78349 0.142275 0.126101
0.813519 0.156451 0.134676
0.84126 0.172015 0.14464
0.865904 0.188571 0.155657
0.888167 0.206592 0.168734
0.0836652 0.130678 0.102861
0.0844434 0.133654 0.0983291
0.0846571 0.134417 0.0974289
0.0847639 0.13489 0.0964523
0.0891432 0.137285 0.0968948
0.111757 0.146319 0.100923
0.142046 0.155245 0.104326
0.171817 0.161822 0.10631
0.197238 0.164401 0.106523
0.222049 0.165637 0.106355
0.248966 0.16672 0.106157
0.279988 0.168307 0.106477
0.318791 0.171069 0.106828
0.362493 0.173327 0.106645
0.407935 0.17409 0.105867
0.453346 0.173388 0.103792
0.496666 0.171176 0.100908
0.537438 0.167758 0.0980545
0.576364 0.163775 0.0953231
0.614008 0.159396 0.0935073
0.65153 0.15491 0.0929427
0.691905 0.151537 0.0925154
0.749493 0.153643 0.0907912
0.814725 0.163012 0.0879835
0.824979 0.167559 0.0888685
0.835325 0.173831 0.0888075
0.848005 0.181537 0.0950027
0.861631 0.190356 0.105074
0.875776 0.200671 0.116045
0.889632 0.212146 0.127825
0.903166 0.224994 0.140459
0.915785 0.238819 0.154269
0.927733 0.254185 0.169238
0.0948653 0.178286 0.129213
0.0953231 0.182315 0.123919
0.0953536 0.183047 0.119249
0.0953841 0.183459 0.11725
0.096025 0.183841 0.115145
0.107759 0.188571 0.115404
0.148211 0.200488 0.117357
0.192065 0.209689 0.116762
0.233051 0.215045 0.11516
0.266194 0.215061 0.112825
0.29688 0.213275 0.10985
0.328466 0.211322 0.107012
0.361776 0.209445 0.104891
0.401694 0.209003 0.103197
0.449027 0.209735 0.101213
0.498161 0.209796 0.0987259
0.545266 0.208484 0.0951858
0.590158 0.206149 0.0907759
0.63357 0.203464 0.086305
0.678538 0.201404 0.0817121
0.72639 0.200412 0.0769207
0.774624 0.200229 0.072755
0.825437 0.202075 0.0696574
0.869154 0.206668 0.0683299
0.882277 0.210941 0.0711833
0.888533 0.216495 0.0740215
0.895155 0.222858 0.0763867
0.902831 0.230167 0.0855268
0.911055 0.238407 0.0991379
0.919432 0.247807 0.113329
0.927886 0.258549 0.128267
0.936065 0.27042 0.14374
0.943801 0.283314 0.160311
0.0979019 0.224903 0.151125
0.0978561 0.229541 0.147448
0.0978561 0.230472 0.138384
0.0978561 0.230915 0.133928
0.0978561 0.231205 0.130816
0.0999924 0.232197 0.128054
0.132586 0.241764 0.127337
0.184604 0.252918 0.124987
0.238422 0.261097 0.120623
0.290608 0.266148 0.11603
0.331289 0.264302 0.111345
0.366567 0.259739 0.106462
0.401373 0.2551 0.101686
0.43714 0.250782 0.0970626
0.474266 0.246708 0.0941176
0.518517 0.244816 0.0917067
0.567529 0.244114 0.0885634
0.615763 0.242954 0.0847028
0.66424 0.241871 0.0797284
0.71281 0.241184 0.0739605
0.761044 0.241108 0.0678569
0.808606 0.24181 0.061677
0.855055 0.243473 0.0565499
0.894972 0.246128 0.0536507
0.916411 0.249821 0.0533761
0.920027 0.254322 0.0570077
0.924086 0.259586 0.0617838
0.92842 0.265614 0.066453
0.933425 0.272404 0.0790875
0.938918 0.280369 0.0960403
0.944472 0.289418 0.113436
0.950027 0.299748 0.130816
0.955428 0.311269 0.149157
0.0946059 0.274434 0.171298
0.0940871 0.279194 0.167956
0.0939803 0.280812 0.160052
0.0940108 0.281666 0.149218
0.0940414 0.281941 0.144869
0.0940566 0.282155 0.140719
0.102068 0.284703 0.137224
0.157122 0.29659 0.133577
0.222354 0.30692 0.127657
0.285954 0.314412 0.120378
0.347021 0.318715 0.113283
0.395224 0.315709 0.106676
0.434897 0.308995 0.100496
0.472313 0.301854 0.0941482
0.508293 0.294652 0.0882277
0.546044 0.288609 0.082887
0.587045 0.284215 0.0793164
0.633097 0.282124 0.0765393
0.683085 0.281804 0.0728313
0.731929 0.281605 0.0684977
0.779538 0.281849 0.0630045
0.826474 0.282979 0.0567025
0.871931 0.285069 0.0504921
0.913573 0.287831 0.0446937
0.941711 0.291218 0.041001
0.943603 0.294881 0.0417334
0.945891 0.299245 0.0451667
0.94844 0.304067 0.0523384
0.951141 0.309621 0.0589609
0.954528 0.316152 0.0775311
0.958068 0.32369 0.0979171
0.961608 0.332403 0.117784
0.965118 0.34226 0.138231
0.086183 0.327962 0.191409
0.0854353 0.332326 0.187488
0.0850843 0.334569 0.183337
0.0851759 0.335668 0.168231
0.0852827 0.336004 0.159106
0.0853895 0.336019 0.153689
0.0855879 0.335866 0.148333
0.112795 0.34168 0.143496
0.186175 0.353292 0.136522
0.262608 0.362219 0.128161
0.334249 0.368658 0.119249
0.401663 0.371939 0.110521
0.457511 0.369162 0.103105
0.502739 0.361883 0.0959335
0.542947 0.353231 0.0885786
0.581033 0.344503 0.0814069
0.618006 0.336294 0.0752575
0.655528 0.329335 0.0697185
0.696422 0.324849 0.0648814
0.74197 0.32343 0.0613565
0.789364 0.323888 0.0578775
0.835508 0.325078 0.0542
0.879545 0.327047 0.0497902
0.920226 0.329366 0.0437018
0.951125 0.331914 0.0381323
0.959625 0.33463 0.0346227
0.96054 0.337606 0.0331426
0.961807 0.341238 0.0367132
0.96347 0.345785 0.0460975
0.965316 0.351278 0.0559854
0.967636 0.357794 0.0803082
0.969955 0.365347 0.103746
0.972244 0.374075 0.126604
0.0747997 0.381674 0.210849
0.073991 0.385763 0.206638
0.0735332 0.388113 0.203876
0.0734417 0.389838 0.191348
0.073579 0.390906 0.174136
0.0736553 0.391287 0.167224
0.0737926 0.391272 0.161334
0.078996 0.392386 0.154681
0.139055 0.401312 0.147372
0.224903 0.412055 0.139269
0.307652 0.420478 0.130282
0.386236 0.427008 0.120974
0.460609 0.430655 0.111971
0.522164 0.427695 0.10518
0.56878 0.41828 0.0983444
0.607904 0.406714 0.0905013
0.644678 0.395575 0.0830701
0.679652 0.385107 0.0758221
0.714366 0.376059 0.0687724
0.750546 0.369162 0.0622873
0.790631 0.365743 0.0560922
0.835309 0.366445 0.0508736
0.87866 0.368338 0.0471656
0.9187 0.370474 0.0440986
0.952438 0.372671 0.0409094
0.970581 0.374914 0.0369573
0.970947 0.377157 0.0322271
0.971389 0.379644 0.0287633
0.972061 0.382712 0.0320439
0.97319 0.387472 0.0443732
0.974441 0.39292 0.0610361
0.975891 0.399466 0.0888685
0.977325 0.407172 0.115007
0.0619364 0.437293 0.231418
0.0611887 0.441047 0.227436
0.0607614 0.443259 0.22472
0.0603799 0.44567 0.217716
0.0603342 0.447883 0.197436
0.0602731 0.449516 0.184314
0.0601816 0.450599 0.177371
0.0601205 0.451575 0.170214
0.0788739 0.454902 0.1626
0.170993 0.465599 0.154284
0.271351 0.474845 0.146181
0.358633 0.481437 0.138003
0.452964 0.497734 0.133959
0.536629 0.505714 0.130068
0.600366 0.50135 0.125795
0.647196 0.490028 0.119203
0.684398 0.475608 0.109972
0.719371 0.462165 0.101076
0.752605 0.44979 0.092134
0.784833 0.438666 0.0831464
0.818021 0.430076 0.0744488
0.853376 0.424628 0.0659648
0.889967 0.422354 0.0595102
0.927764 0.423819 0.0557259
0.960128 0.42533 0.0511482
0.978759 0.426749 0.0452277
0.978805 0.427909 0.0381933
0.978882 0.428992 0.0346075
0.978988 0.430152 0.033463
0.979217 0.432227 0.0354467
0.979706 0.436194 0.0476539
0.980392 0.441154 0.0797436
0.981125 0.447257 0.10927
0.0469215 0.504646 0.259922
0.0463111 0.508019 0.256611
0.0459907 0.509911 0.253986
0.0456092 0.512184 0.250309
0.0455634 0.514214 0.232853
0.0456397 0.516091 0.2103
0.045655 0.51696 0.201114
0.0456245 0.517815 0.194018
0.0456092 0.518715 0.18616
0.116838 0.525124 0.177157
0.227405 0.533455 0.170108
0.329 0.540276 0.164553
0.425116 0.55201 0.16228
0.513405 0.559731 0.159197
0.590356 0.560937 0.155596
0.654673 0.557214 0.153033
0.700908 0.545815 0.146319
0.735683 0.530358 0.135683
0.76849 0.515969 0.125231
0.800168 0.503014 0.115038
0.83122 0.491722 0.104921
0.861738 0.482017 0.0943923
0.892271 0.474571 0.084535
0.92372 0.470481 0.0760815
0.954314 0.469078 0.0686809
0.977615 0.470085 0.0624704
0.982528 0.470726 0.0547189
0.982513 0.471336 0.0479286
0.982498 0.471748 0.040589
0.982498 0.472328 0.0358282
0.982666 0.474067 0.040177
0.983154 0.477989 0.0650492
0.983764 0.482933 0.0989548
0.0356603 0.563607 0.28986
0.0352941 0.566262 0.287068
0.0351415 0.567407 0.284764
0.0349584 0.568902 0.281819
0.0349432 0.570138 0.270314
0.0351263 0.571481 0.245075
0.0353094 0.571923 0.229404
0.0354314 0.572 0.22092
0.0355077 0.572305 0.213077
0.0608988 0.574151 0.20415
0.168215 0.580377 0.196399
0.285725 0.586892 0.19205
0.38349 0.592355 0.189395
0.471473 0.596857 0.186725
0.553124 0.600107 0.183261
0.628214 0.60148 0.180682
0.691279 0.598276 0.178454
0.736278 0.587396 0.171664
0.769512 0.57232 0.160479
0.801053 0.558404 0.149203
0.831754 0.545983 0.138109
0.861585 0.535027 0.127001
0.890211 0.525154 0.115679
0.917815 0.516686 0.10425
0.945403 0.510567 0.0935225
0.970748 0.50721 0.0844434
0.985275 0.506661 0.0764935
0.98526 0.507256 0.0682231
0.985214 0.507652 0.0584726
0.985183 0.508034 0.0492561
0.985153 0.508537 0.0398871
0.985321 0.51043 0.0461128
0.98587 0.514687 0.0838788
0.0287022 0.61033 0.318318
0.0285039 0.612268 0.315908
0.0284581 0.612894 0.314015
0.0284123 0.613565 0.311406
0.0284123 0.61413 0.305745
0.0285801 0.614923 0.284016
0.0287938 0.61561 0.259434
0.0289311 0.615396 0.249058
0.0290379 0.615335 0.241459
0.0306554 0.615595 0.233112
0.113603 0.61912 0.224247
0.233631 0.624323 0.219165
0.340734 0.629343 0.217578
0.432654 0.633707 0.216281
0.516381 0.63714 0.214206
0.593896 0.639323 0.211078
0.66566 0.640223 0.208713
0.726024 0.637079 0.206226
0.769863 0.627298 0.199832
0.802976 0.613718 0.189029
0.833188 0.600473 0.176501
0.862364 0.588525 0.16437
0.890272 0.57763 0.152224
0.916823 0.567681 0.139834
0.942107 0.558709 0.127306
0.966094 0.55111 0.11458
0.985275 0.546227 0.103227
0.987732 0.543267 0.0925612
0.987686 0.543496 0.0843671
0.987655 0.543984 0.0736706
0.98761 0.544518 0.0604257
0.987579 0.545022 0.0502174
0.987839 0.547524 0.069398
0.0243839 0.651926 0.347799
0.0242771 0.653483 0.346014
0.0242466 0.654108 0.344533
0.0242161 0.654551 0.342702
0.0242161 0.654932 0.340047
0.0242771 0.655604 0.324956
0.0243839 0.656764 0.298634
0.0244755 0.657237 0.283085
0.0245365 0.657252 0.274693
0.0245823 0.657404 0.267033
0.0767681 0.658961 0.258289
0.186648 0.661799 0.250965
0.300328 0.665507 0.248112
0.396582 0.669062 0.24715
0.481758 0.671794 0.245655
0.559808 0.673625 0.243366
0.632273 0.67454 0.240101
0.699855 0.674876 0.237552
0.758099 0.672526 0.23563
0.801831 0.664652 0.230411
0.834562 0.652811 0.219913
0.863081 0.640452 0.206607
0.890257 0.628946 0.193545
0.916106 0.61828 0.18024
0.940688 0.60853 0.167102
0.964019 0.599619 0.15346
0.983581 0.591623 0.139391
0.990234 0.584955 0.125429
0.98999 0.581506 0.113924
0.989822 0.579385 0.101778
0.989792 0.579919 0.0913863
0.989731 0.580163 0.0772412
0.989715 0.580591 0.0692607
0.0222782 0.688579 0.377661
0.0222477 0.689738 0.376455
0.0222477 0.690272 0.375433
0.0222324 0.690715 0.374136
0.0222171 0.691157 0.372381
0.0222324 0.691814 0.365209
0.0222477 0.693172 0.343023
0.0222782 0.694545 0.319829
0.0223087 0.69485 0.309697
0.0223239 0.694896 0.302739
0.0480964 0.695338 0.294743
0.15082 0.696712 0.286076
0.264729 0.69865 0.279896
0.361593 0.700999 0.277577
0.448692 0.703029 0.276478
0.527337 0.704356 0.274846
0.600015 0.705135 0.272557
0.668208 0.705547 0.269673
0.732174 0.705913 0.267704
0.788373 0.704646 0.266636
0.831632 0.698787 0.262943
0.863218 0.688563 0.253559
0.889601 0.676982 0.239246
0.914687 0.666087 0.224903
0.938521 0.655985 0.210788
0.961196 0.646632 0.196674
0.981338 0.638102 0.182284
0.992508 0.630335 0.167605
0.992157 0.623468 0.152331
0.991852 0.617975 0.136919
0.991684 0.615412 0.123644
0.991547 0.613886 0.109102
0.991455 0.613504 0.0925612
0.0212711 0.722316 0.408835
0.0212406 0.723201 0.408133
0.0210117 0.730129 0.415793
0.0209964 0.730816 0.415473
0.0209964 0.731014 0.414405
0.0209964 0.731289 0.412284
0.0210117 0.732296 0.394934
0.0210422 0.733761 0.369558
0.0210727 0.734234 0.35523
0.0211032 0.734112 0.347311
0.0542611 0.734279 0.339895
0.155016 0.735195 0.331701
0.256962 0.735744 0.322927
0.345037 0.736553 0.317388
0.429908 0.737606 0.31548
0.508278 0.738277 0.31429
0.580194 0.73846 0.312581
0.64715 0.738277 0.31043
0.709911 0.737911 0.307912
0.769024 0.737865 0.306004
0.821805 0.737072 0.305486
0.862531 0.732204 0.303288
0.89134 0.722774 0.294011
0.91487 0.711879 0.277928
0.937346 0.701534 0.262165
0.958862 0.691737 0.246494
0.979034 0.682689 0.230915
0.993927 0.674327 0.21529
0.993988 0.666712 0.199115
0.993698 0.659922 0.182589
0.993423 0.654047 0.16524
0.993194 0.649729 0.147738
0.993027 0.64712 0.129549
0.0201267 0.756313 0.444739
0.0200961 0.757229 0.445045
0.0197757 0.765743 0.455314
0.0197452 0.766659 0.456138
0.0197452 0.766812 0.456001
0.0197452 0.766796 0.455589
0.0197604 0.76733 0.443976
0.0198062 0.76846 0.422324
0.0198367 0.769329 0.401846
0.0198825 0.769146 0.391836
0.080705 0.769345 0.384985
0.178561 0.769757 0.377295
0.265766 0.769604 0.368292
0.341039 0.7691 0.359655
0.417548 0.768887 0.355062
0.493431 0.768765 0.353567
0.564095 0.768322 0.35227
0.629664 0.767559 0.350652
0.690959 0.766613 0.34873
0.74847 0.765682 0.346624
0.802502 0.76527 0.344961
0.851194 0.764584 0.3449
0.888945 0.76054 0.344457
0.915236 0.752194 0.335225
0.936172 0.742061 0.317601
0.956329 0.73225 0.300237
0.975799 0.722988 0.282979
0.992233 0.714305 0.265843
0.995315 0.706233 0.248524
0.995071 0.69897 0.231281
0.994842 0.692485 0.213336
0.994614 0.686671 0.194186
0.994385 0.681315 0.172412
0.0190433 0.785626 0.479667
0.0189975 0.786496 0.48098
0.018967 0.787305 0.482246
0.0189517 0.787945 0.48336
0.0189364 0.788342 0.483986
0.0189364 0.788373 0.484199
0.0189364 0.788632 0.478172
0.018967 0.789624 0.460151
0.0189975 0.790906 0.437354
0.0231479 0.791043 0.425025
0.0959182 0.791363 0.417975
0.190341 0.791592 0.411017
0.269413 0.791333 0.402991
0.336599 0.79057 0.393927
0.402579 0.789776 0.386419
0.472862 0.789242 0.383291
0.542672 0.788708 0.382589
0.607523 0.787915 0.381735
0.668116 0.786969 0.380697
0.724941 0.785992 0.37966
0.778012 0.785077 0.378515
0.827787 0.784665 0.37731
0.872847 0.784314 0.378302
0.907988 0.781094 0.379721
0.932647 0.774075 0.369924
0.95227 0.765164 0.352911
0.97084 0.756359 0.334569
0.987671 0.747906 0.316274
0.996246 0.740001 0.298039
0.996048 0.732723 0.279805
0.99585 0.726024 0.261326
0.995651 0.719966 0.241642
0.995453 0.714382 0.220264
0.018204 0.806912 0.508736
0.0181888 0.807507 0.510277
0.0181582 0.808118 0.511727
0.0181277 0.808621 0.513024
0.0181277 0.808865 0.514031
0.0181277 0.808865 0.514458
0.0452277 0.809079 0.512749
0.0496834 0.809964 0.497536
0.046128 0.811139 0.476738
0.0568551 0.81178 0.460609
0.133242 0.812161 0.452262
0.217334 0.8121 0.445853
0.285573 0.811612 0.438636
0.346227 0.810788 0.430686
0.402625 0.809674 0.421729
0.463172 0.808682 0.415747
0.528664 0.807904 0.414298
0.592096 0.80705 0.414206
0.651423 0.806088 0.413993
0.70721 0.805081 0.413916
0.759365 0.804135 0.413886
0.807874 0.803326 0.413794
0.852705 0.802762 0.413535
0.893278 0.80235 0.41471
0.926406 0.800336 0.417029
0.949508 0.7944 0.408469
0.967803 0.786648 0.392294
0.984558 0.778714 0.373419
0.996979 0.771191 0.354574
0.996811 0.764172 0.335592
0.996643 0.757687 0.316457
0.99649 0.751675 0.296452
0.996323 0.746044 0.274891
0.01738 0.827512 0.541588
0.0173648 0.827787 0.543069
0.0173495 0.828138 0.54432
0.0173342 0.828336 0.545464
0.0305333 0.828458 0.54638
0.0565499 0.828443 0.546853
0.126345 0.828656 0.547051
0.140932 0.829328 0.535149
0.133654 0.830243 0.517037
0.138903 0.83122 0.497826
0.192355 0.831403 0.488182
0.256443 0.831037 0.4822
0.313558 0.830365 0.475593
0.366644 0.829465 0.468421
0.417212 0.828336 0.460472
0.467796 0.827054 0.452445
0.523964 0.825956 0.448249
0.583886 0.82501 0.448081
0.641428 0.824048 0.448798
0.695567 0.823072 0.449561
0.746227 0.822141 0.450309
0.793423 0.821317 0.451194
0.836957 0.820615 0.451865
0.876905 0.820111 0.452155
0.913283 0.819791 0.453178
0.943557 0.818235 0.455268
0.965301 0.813382 0.4486
0.982315 0.806622 0.433677
0.996048 0.799649 0.415137
0.997436 0.793072 0.39617
0.997299 0.786877 0.376745
0.997162 0.781048 0.356451
0.997024 0.775433 0.334585
0.0166018 0.846403 0.575921
0.0190738 0.84625 0.577005
0.0333562 0.846281 0.577661
0.0509041 0.846204 0.578256
0.0931563 0.84622 0.578744
0.160113 0.84622 0.579278
0.218692 0.846021 0.579629
0.238773 0.846357 0.571435
0.236606 0.847211 0.555917
0.230076 0.848325 0.53669
0.257588 0.848615 0.525353
0.303777 0.848219 0.519249
0.350729 0.847486 0.513405
0.396017 0.846571 0.506905
0.440269 0.845441 0.499733
0.483848 0.844129 0.491844
0.529976 0.842741 0.485039
0.581857 0.841443 0.482307
0.635904 0.840192 0.482658
0.687175 0.838941 0.483131
0.735363 0.83769 0.483619
0.780392 0.836515 0.484077
0.82208 0.835477 0.484321
0.860487 0.834592 0.484291
0.895888 0.833844 0.48365
0.928435 0.833234 0.482933
0.956542 0.832059 0.484627
0.977264 0.828046 0.479667
0.992264 0.822003 0.465705
0.997879 0.815763 0.447059
0.997757 0.809812 0.428061
0.997635 0.804242 0.408179
0.997513 0.79881 0.386542
0.0538491 0.860945 0.604883
0.0734264 0.860838 0.606165
0.113771 0.861006 0.607019
0.162341 0.861036 0.607828
0.206943 0.860853 0.608423
0.249439 0.860471 0.608988
0.290867 0.859953 0.609644
0.310964 0.859953 0.603983
0.310124 0.860655 0.590524
0.304677 0.861646 0.573526
0.314748 0.862165 0.559564
0.346502 0.861814 0.552087
0.38529 0.861051 0.546685
0.423865 0.860121 0.540642
0.462287 0.859052 0.533928
0.500725 0.857816 0.526619
0.539315 0.856443 0.5187
0.582391 0.85507 0.513252
0.631296 0.853788 0.51223
0.680278 0.852491 0.513024
0.726375 0.85124 0.513832
0.769543 0.850095 0.514595
0.80972 0.849012 0.515175
0.84683 0.848081 0.515389
0.88098 0.84712 0.514687
0.912245 0.846006 0.512352
0.941924 0.845594 0.511574
0.968215 0.844923 0.512657
0.987503 0.841535 0.509392
0.998093 0.836042 0.495659
0.998154 0.830304 0.476844
0.998032 0.824918 0.457404
0.997925 0.819715 0.436301
0.175021 0.87512 0.63563
0.220996 0.875059 0.637308
0.245762 0.874983 0.638254
0.272618 0.874647 0.638987
0.300618 0.874128 0.639582
0.330373 0.873487 0.640162
0.361532 0.87274 0.640879
0.379492 0.872435 0.636622
0.378882 0.872908 0.624949
0.37319 0.873716 0.609552
0.37229 0.874388 0.593881
0.393317 0.874067 0.585382
0.424475 0.873228 0.579919
0.456352 0.872251 0.573983
0.48867 0.871138 0.56733
0.521508 0.869902 0.560128
0.555032 0.868544 0.552468
0.590051 0.86714 0.544854
0.630564 0.865782 0.540734
0.675883 0.8645 0.540963
0.719661 0.86331 0.541924
0.760815 0.862181 0.542763
0.799191 0.861082 0.543359
0.834714 0.860059 0.543465
0.867704 0.859083 0.542977
0.898314 0.858183 0.541741
0.926863 0.85742 0.540032
0.953765 0.857038 0.538369
0.978485 0.85684 0.538689
0.996124 0.853956 0.537133
0.998474 0.848844 0.523156
0.998383 0.843565 0.503731
0.998276 0.838529 0.483162
0.268559 0.885344 0.659251
0.301335 0.8851 0.661097
0.320562 0.884916 0.662257
0.341665 0.884565 0.663279
0.364904 0.884077 0.664317
0.390127 0.883482 0.665492
0.417182 0.882765 0.666819
0.434669 0.88249 0.664286
0.435157 0.883055 0.654505
0.431144 0.88394 0.641535
0.426841 0.884916 0.62652
0.441032 0.884901 0.617838
0.466346 0.884276 0.612894
0.493263 0.883482 0.60766
0.520897 0.882536 0.601801
0.549126 0.881468 0.595346
0.578073 0.880308 0.588373
0.607858 0.879057 0.580865
0.640528 0.87776 0.574502
0.678492 0.876478 0.572015
0.718776 0.875257 0.572549
0.757107 0.874113 0.57319
0.793088 0.873045 0.573602
0.826703 0.872053 0.573709
0.858106 0.871183 0.573419
0.887465 0.870359 0.572625
0.914885 0.869657 0.571359
0.940642 0.869093 0.569543
0.964965 0.868818 0.567575
0.987747 0.869307 0.567483
0.998642 0.866865 0.567666
0.998688 0.862058 0.552743
0.998596 0.857084 0.532692
0.353811 0.895354 0.685512
0.378332 0.894926 0.68716
0.393256 0.894621 0.688212
0.409888 0.894209 0.689281
0.429114 0.89366 0.69041
0.450278 0.893034 0.691783
0.473396 0.892302 0.693309
0.488457 0.891997 0.691508
0.488807 0.892561 0.683162
0.485542 0.893446 0.672038
0.482063 0.894408 0.659205
0.490089 0.894728 0.65008
0.50927 0.894347 0.644953
0.531945 0.89369 0.640406
0.555276 0.892927 0.635248
0.579232 0.892042 0.62945
0.603906 0.891035 0.623072
0.629496 0.889982 0.616281
0.65594 0.888884 0.609049
0.686305 0.887785 0.60415
