example-Advanced/bin/data/Shaders/ofxPostProcessing/luts/1.cube
TITLE "Generate by Resolve"
LUT_3D_SIZE 5
0.0131991 0.0143282 0.0143435
0.0967422 0.0550393 0.0572366
0.387823 0.0950179 0.102449
0.649302 0.0964523 0.120256
0.713527 0.108919 0.185824
0.0946059 0.274434 0.171298
0.222354 0.30692 0.127657
0.587045 0.284215 0.0793164
0.941711 0.291218 0.041001
0.965118 0.34226 0.138231
0.0222782 0.688579 0.377661
0.0223087 0.69485 0.309697
0.600015 0.705135 0.272557
0.938521 0.655985 0.210788
0.991455 0.613504 0.0925612
0.175021 0.87512 0.63563
0.378882 0.872908 0.624949
0.555032 0.868544 0.552468
0.867704 0.859083 0.542977
0.998276 0.838529 0.483162
0.71339 0.945068 0.821408
0.743465 0.944595 0.818662
0.769436 0.947265 0.792996
0.854459 0.947631 0.766567
0.971786 0.948394 0.73753
0.0518196 0.0604715 0.101946
0.145357 0.100847 0.172824
0.446174 0.155352 0.289616
0.844709 0.152728 0.358221
0.958587 0.297063 0.376745
0.0937972 0.265141 0.332998
0.184115 0.307774 0.382345
0.619806 0.391608 0.45745
0.959548 0.434516 0.474266
0.984039 0.455528 0.408148
0.0221561 0.671885 0.589548
0.179309 0.682979 0.596262
0.577813 0.698817 0.572015
0.887922 0.668101 0.521019
0.994934 0.669291 0.475578
0.229648 0.867079 0.726024
0.443641 0.863584 0.72987
0.634073 0.860822 0.709895
0.85716 0.857084 0.699809
0.998596 0.844297 0.66067
0.686595 0.945327 0.833371
0.761288 0.941924 0.844633
0.807172 0.943877 0.836347
0.867552 0.945846 0.816602
0.96788 0.947829 0.800214
0.0955367 0.159899 0.363485
0.186725 0.189151 0.447288
0.51873 0.229526 0.585184
0.824628 0.323705 0.643168
0.988632 0.49781 0.695827
0.0829175 0.308248 0.554726
0.114183 0.335012 0.595575
0.549996 0.405051 0.678248
0.82826 0.504921 0.700832
0.993652 0.603189 0.729091
0.0259403 0.595407 0.723064
0.0705272 0.608347 0.726467
0.506447 0.639582 0.740719
0.838911 0.724468 0.777661
0.997513 0.758099 0.789334
0.205982 0.854627 0.825788
0.430304 0.854994 0.827909
0.701534 0.852903 0.834913
0.856092 0.854505 0.831052
0.985 0.848585 0.808713
0.563455 0.950652 0.856321
0.691585 0.945434 0.86508
0.838224 0.940414 0.882445
0.897063 0.943847 0.87715
0.96817 0.948653 0.87068
0.10454 0.340642 0.753094
0.328069 0.362997 0.811673
0.591165 0.393194 0.841535
0.834363 0.449271 0.846632
0.982086 0.5411 0.846632
0.0511635 0.429053 0.803159
0.309682 0.472984 0.843778
0.585962 0.505852 0.852049
0.822065 0.551156 0.852659
0.969497 0.632395 0.854551
0.0236057 0.612039 0.853498
0.166827 0.616495 0.854353
0.53225 0.646281 0.861082
0.810117 0.69958 0.863218
0.958541 0.763058 0.870237
0.249302 0.8047 0.880125
0.395193 0.807034 0.880339
0.610666 0.812528 0.880247
0.819226 0.826246 0.882704
0.973846 0.868971 0.901823
0.560601 0.944839 0.92575
0.643412 0.943847 0.924636
0.785458 0.941909 0.922286
0.918959 0.943618 0.927626
0.973098 0.952316 0.929671
0.555276 0.610346 0.940887
0.620371 0.617502 0.940887
0.73846 0.634043 0.940398
0.868284 0.662165 0.938476
0.97293 0.706783 0.936095
0.513252 0.635279 0.941695
0.630976 0.674662 0.940734
0.739666 0.684184 0.939635
0.866819 0.709575 0.938659
0.967254 0.738598 0.935775
0.442878 0.711467 0.948623
0.538827 0.716426 0.947646
0.763256 0.774227 0.945571
0.877729 0.788754 0.943999
0.96669 0.802167 0.941207
0.497322 0.822217 0.953384
0.568719 0.82327 0.953124
0.703944 0.828183 0.953048
0.882353 0.85304 0.95314
0.973281 0.871199 0.951659
0.481239 0.941238 0.958221
0.57847 0.941756 0.958816
0.743694 0.944183 0.960357
0.907881 0.953658 0.965133
0.988205 0.967208 0.973754
