example-Advanced/bin/data/Shaders/ofxPostProcessing/luts/1.cube
TITLE "Generate by Resolve"
LUT_3D_SIZE 9
0.0131991 0.0143282 0.0143435
0.03093 0.0269169 0.0272068
0.0967422 0.0550393 0.0572366
0.215549 0.079408 0.0851301
0.387823 0.0950179 0.102449
0.558129 0.0978408 0.109346
0.649302 0.0964523 0.120256
0.657237 0.0960708 0.145129
0.713527 0.108919 0.185824
0.070161 0.0975509 0.081529
0.0824903 0.10631 0.0816968
0.167346 0.129534 0.0958572
0.293156 0.144183 0.104875
0.445686 0.137087 0.104051
0.563012 0.114 0.104112
0.690211 0.109575 0.104738
0.78349 0.142275 0.126101
0.888167 0.206592 0.168734
0.0946059 0.274434 0.171298
0.0940414 0.281941 0.144869
0.222354 0.30692 0.127657
0.434897 0.308995 0.100496
0.587045 0.284215 0.0793164
0.779538 0.281849 0.0630045
0.941711 0.291218 0.041001
0.951141 0.309621 0.0589609
0.965118 0.34226 0.138231
0.0469215 0.504646 0.259922
0.0455634 0.514214 0.232853
0.0456092 0.518715 0.18616
0.425116 0.55201 0.16228
0.700908 0.545815 0.146319
0.83122 0.491722 0.104921
0.954314 0.469078 0.0686809
0.982498 0.471748 0.040589
0.983764 0.482933 0.0989548
0.0222782 0.688579 0.377661
0.0222171 0.691157 0.372381
0.0223087 0.69485 0.309697
0.264729 0.69865 0.279896
0.600015 0.705135 0.272557
0.831632 0.698787 0.262943
0.938521 0.655985 0.210788
0.992157 0.623468 0.152331
0.991455 0.613504 0.0925612
0.018204 0.806912 0.508736
0.0181277 0.808865 0.514031
0.046128 0.811139 0.476738
0.285573 0.811612 0.438636
0.528664 0.807904 0.414298
0.759365 0.804135 0.413886
0.926406 0.800336 0.417029
0.996979 0.771191 0.354574
0.996323 0.746044 0.274891
0.175021 0.87512 0.63563
0.300618 0.874128 0.639582
0.378882 0.872908 0.624949
0.424475 0.873228 0.579919
0.555032 0.868544 0.552468
0.719661 0.86331 0.541924
0.867704 0.859083 0.542977
0.978485 0.85684 0.538689
0.998276 0.838529 0.483162
0.508385 0.914168 0.740963
0.558724 0.912215 0.745937
0.597498 0.911406 0.741131
0.603494 0.913787 0.710765
0.665812 0.911635 0.692927
0.744121 0.909148 0.671382
0.846906 0.906416 0.668177
0.934234 0.904448 0.659937
0.9991 0.90605 0.644282
0.71339 0.945068 0.821408
0.740185 0.943648 0.826291
0.743465 0.944595 0.818662
0.742397 0.947097 0.802838
0.769436 0.947265 0.792996
0.804623 0.94754 0.779019
0.854459 0.947631 0.766567
0.914107 0.947448 0.75639
0.971786 0.948394 0.73753
0.0285954 0.0314336 0.0429084
0.0438392 0.0413825 0.0545968
0.0986343 0.0695964 0.0886244
0.207187 0.0850843 0.127153
0.386435 0.0957961 0.164706
0.566033 0.0975052 0.192401
0.671214 0.0952621 0.191394
0.679591 0.0991836 0.176471
0.784558 0.137743 0.175814
0.0778973 0.111467 0.12813
0.0876173 0.12517 0.143069
0.18941 0.167224 0.187289
0.358144 0.178149 0.214939
0.549157 0.178149 0.227253
0.71603 0.17261 0.223316
0.86125 0.179263 0.212238
0.883986 0.200641 0.18883
0.9037 0.22414 0.154726
0.0946975 0.265461 0.252522
0.0922103 0.284047 0.265187
0.216388 0.317891 0.274586
0.41825 0.318379 0.262638
0.619043 0.318257 0.25301
0.799115 0.318242 0.243641
0.948867 0.326406 0.229892
0.966812 0.34165 0.20763
0.968612 0.353323 0.164172
0.047013 0.492302 0.377462
0.0453956 0.500771 0.374746
0.118578 0.518456 0.365835
0.39411 0.53521 0.332509
0.648524 0.526406 0.32224
0.785519 0.482216 0.279316
0.931914 0.481971 0.265171
0.985336 0.490318 0.247837
0.985412 0.495384 0.209415
0.0223239 0.677317 0.476982
0.0222629 0.679286 0.474235
0.0877089 0.682918 0.469993
0.306249 0.688914 0.422644
0.578988 0.693156 0.412421
0.801282 0.691783 0.410544
0.912566 0.654322 0.35671
0.992996 0.628641 0.305623
0.992874 0.628595 0.273976
0.0184176 0.794766 0.569345
0.0184176 0.794522 0.569512
0.197421 0.795468 0.568689
0.329549 0.798703 0.526772
0.517998 0.795499 0.49929
0.738796 0.795087 0.5037
0.906188 0.795605 0.514534
0.98349 0.770275 0.459205
0.996643 0.749874 0.393301
0.168536 0.869093 0.668544
0.28777 0.867796 0.670024
0.417075 0.865431 0.67332
0.481636 0.866453 0.646311
0.578668 0.863813 0.618753
0.718166 0.859602 0.604837
0.85977 0.856611 0.609689
0.967224 0.856001 0.611536
0.998383 0.838834 0.557321
0.499763 0.91194 0.756497
0.551919 0.910201 0.761196
0.622141 0.907439 0.768338
0.649714 0.908644 0.752895
0.68925 0.908476 0.732189
0.75433 0.906294 0.71191
0.846204 0.904036 0.706538
0.929351 0.902541 0.700923
0.998367 0.904753 0.690318
0.690394 0.943496 0.820569
0.724987 0.942641 0.827482
0.772122 0.942107 0.83827
0.770764 0.945052 0.82501
0.788174 0.946136 0.814069
0.818952 0.946685 0.80264
0.860883 0.947204 0.790555
0.915923 0.947219 0.782162
0.969863 0.948363 0.76733
0.0518196 0.0604715 0.101946
0.0601663 0.067628 0.112825
0.145357 0.100847 0.172824
0.238788 0.123461 0.213336
0.446174 0.155352 0.289616
0.638575 0.138415 0.322194
0.844709 0.152728 0.358221
0.936446 0.245701 0.395163
0.958587 0.297063 0.376745
0.0887007 0.138506 0.202564
0.0911269 0.147631 0.217853
0.205463 0.187808 0.282811
0.338918 0.216052 0.319585
0.551827 0.253925 0.372763
0.775021 0.258167 0.402274
0.949386 0.28452 0.419913
0.973342 0.349233 0.430655
0.974441 0.360189 0.38584
0.0937972 0.265141 0.332998
0.092195 0.276188 0.343633
0.184115 0.307774 0.382345
0.410483 0.35671 0.429816
0.619806 0.391608 0.45745
0.820676 0.40322 0.469215
0.959548 0.434516 0.474266
0.983886 0.449241 0.449912
0.984039 0.455528 0.408148
0.0509804 0.463996 0.466056
0.0478218 0.478233 0.477119
0.146715 0.507378 0.499733
0.418891 0.54197 0.522637
0.620676 0.544549 0.512779
0.788708 0.543801 0.502281
0.927657 0.55404 0.494209
0.990906 0.56318 0.475898
0.990906 0.566598 0.440574
0.0221561 0.671885 0.589548
0.022034 0.676188 0.592966
0.179309 0.682979 0.596262
0.413504 0.692622 0.597391
0.577813 0.698817 0.572015
0.779599 0.700008 0.572137
0.887922 0.668101 0.521019
0.986053 0.665202 0.498497
0.994934 0.669291 0.475578
0.0181735 0.792676 0.66009
0.0297093 0.793133 0.660761
0.265339 0.795163 0.662058
0.453468 0.796262 0.662593
0.566827 0.797864 0.633005
0.738125 0.797757 0.629877
0.89102 0.800214 0.641825
0.965927 0.777722 0.589868
0.99707 0.758923 0.529534
0.229648 0.867079 0.726024
0.32958 0.865995 0.727855
0.443641 0.863584 0.72987
0.570275 0.860471 0.73434
0.634073 0.860822 0.709895
0.730938 0.857816 0.691875
0.85716 0.857084 0.699809
0.956222 0.859159 0.707698
0.998596 0.844297 0.66067
0.501717 0.910826 0.784161
0.551659 0.908934 0.78703
0.62092 0.906188 0.792126
0.704967 0.903258 0.801175
0.727749 0.904906 0.7823
0.778454 0.90399 0.768185
0.851743 0.903181 0.761379
0.927245 0.903273 0.760998
0.994049 0.906493 0.756573
0.686595 0.945327 0.833371
0.717266 0.943771 0.837491
0.761288 0.941924 0.844633
0.805692 0.941024 0.851453
0.807172 0.943877 0.836347
0.834089 0.944747 0.827741
0.867552 0.945846 0.816602
0.91812 0.946365 0.810819
0.96788 0.947829 0.800214
0.0776226 0.102831 0.206638
0.0800946 0.108507 0.21648
0.171389 0.138125 0.291386
0.309529 0.159472 0.360937
0.454749 0.172412 0.410346
0.666987 0.230289 0.474998
0.880354 0.296162 0.529595
0.972366 0.332174 0.547692
0.978821 0.376791 0.545403
0.0964523 0.173541 0.313634
0.0971237 0.180423 0.329076
0.195071 0.214954 0.400595
0.366705 0.239612 0.460319
0.537713 0.263554 0.501778
0.709117 0.326268 0.530968
0.89192 0.386038 0.569665
0.982238 0.414054 0.579355
0.984604 0.446998 0.571435
0.090547 0.277882 0.435248
0.08925 0.285115 0.443122
0.13022 0.306569 0.477836
0.381796 0.355901 0.546242
0.572045 0.393088 0.570169
0.722194 0.454749 0.589456
0.895064 0.49662 0.618967
0.989227 0.515999 0.620081
0.99118 0.554345 0.618738
0.0526131 0.446036 0.567208
0.0511177 0.452811 0.570565
0.074464 0.466499 0.57966
0.342031 0.497688 0.606806
0.577173 0.544656 0.634012
0.734829 0.589715 0.653117
0.898405 0.611872 0.669612
0.991897 0.637888 0.672938
0.99472 0.644633 0.646952
0.0242771 0.622919 0.648386
0.0238193 0.62916 0.652399
0.139666 0.640497 0.660548
0.391501 0.661723 0.676692
0.586465 0.686534 0.69572
0.75082 0.705242 0.704097
0.875349 0.707698 0.693874
0.966659 0.712642 0.681193
0.996475 0.714534 0.658289
0.0183566 0.780377 0.730343
0.0587015 0.782605 0.73373
0.289662 0.78645 0.738811
0.475624 0.790082 0.74464
0.624323 0.792035 0.746654
0.734142 0.794507 0.734142
0.870115 0.799619 0.741573
0.942672 0.780453 0.698909
0.997589 0.774578 0.669367
0.267079 0.863859 0.783261
0.356085 0.862913 0.784344
0.46363 0.860914 0.785687
0.58468 0.858351 0.788586
0.698817 0.855695 0.792554
0.762844 0.855924 0.777966
0.854795 0.856123 0.776654
0.945357 0.860883 0.785794
0.997574 0.847257 0.746136
0.489845 0.910307 0.815366
0.543191 0.908492 0.817426
0.616205 0.905852 0.821073
0.701808 0.9028 0.827085
0.780255 0.900511 0.834089
0.808286 0.902052 0.819852
0.85922 0.902007 0.810925
0.926879 0.903777 0.813794
0.986801 0.908385 0.814206
0.649271 0.947051 0.843397
0.689342 0.945541 0.847898
0.739834 0.943145 0.853819
0.799603 0.9411 0.863066
0.843458 0.940703 0.868086
0.853056 0.943084 0.855314
0.880339 0.944656 0.846845
0.922683 0.946075 0.842802
0.967544 0.948363 0.837873
0.0955367 0.159899 0.363485
0.0963302 0.166094 0.374624
0.186725 0.189151 0.447288
0.343236 0.210056 0.526223
0.51873 0.229526 0.585184
0.683482 0.249363 0.626413
0.824628 0.323705 0.643168
0.959915 0.440711 0.679866
0.988632 0.49781 0.695827
0.0973373 0.214496 0.446952
0.0961776 0.228779 0.469841
0.185779 0.256245 0.533806
0.362814 0.278233 0.595071
0.541283 0.300862 0.633066
0.704753 0.330434 0.661677
0.828 0.401785 0.667887
0.953735 0.501045 0.69839
0.990997 0.541421 0.70901
0.0829175 0.308248 0.554726
0.081178 0.315908 0.564782
0.114183 0.335012 0.595575
0.361929 0.378408 0.658976
0.549996 0.405051 0.678248
0.709972 0.442329 0.692821
0.82826 0.504921 0.700832
0.947326 0.580102 0.725795
0.993652 0.603189 0.729091
0.0515755 0.44181 0.657252
0.05066 0.446174 0.657969
0.0488594 0.454627 0.66041
0.305745 0.489189 0.696925
0.547463 0.538003 0.722133
0.714321 0.571633 0.731075
0.83331 0.623377 0.74229
0.946105 0.667231 0.758572
0.995819 0.675044 0.75198
0.0259403 0.595407 0.723064
0.0255131 0.600107 0.724025
0.0705272 0.608347 0.726467
0.325643 0.622889 0.733639
0.506447 0.639582 0.740719
0.711437 0.682292 0.761883
0.838911 0.724468 0.777661
0.946365 0.743496 0.789044
0.997513 0.758099 0.789334
0.0196994 0.73666 0.768612
0.0223392 0.740185 0.770474
0.213642 0.745815 0.77351
0.405097 0.75491 0.778256
0.579919 0.766735 0.78616
0.737087 0.782589 0.800259
0.853788 0.798337 0.810391
0.932219 0.798718 0.801785
0.995529 0.800153 0.790753
0.205982 0.854627 0.825788
0.30927 0.855604 0.827329
0.430304 0.854994 0.827909
0.570886 0.854292 0.830564
0.701534 0.852903 0.834913
0.79527 0.852522 0.837354
0.856092 0.854505 0.831052
0.93666 0.860548 0.836713
0.985 0.848585 0.808713
0.473503 0.907897 0.849699
0.513573 0.906859 0.848508
0.584955 0.904677 0.848875
0.682567 0.901534 0.852583
0.771054 0.899077 0.857481
0.840436 0.898543 0.862333
0.87248 0.90045 0.852567
0.927001 0.903029 0.853056
0.981842 0.909743 0.857557
0.563455 0.950652 0.856321
0.620142 0.948486 0.8598
0.691585 0.945434 0.86508
0.769802 0.942336 0.87303
0.838224 0.940414 0.882445
0.88101 0.941192 0.886534
0.897063 0.943847 0.87715
0.928222 0.945983 0.872602
0.96817 0.948653 0.87068
0.0949416 0.233234 0.551003
0.0940261 0.239948 0.561334
0.224826 0.261509 0.637079
0.381308 0.278859 0.692988
0.541665 0.295995 0.728099
0.698161 0.322133 0.749554
0.832654 0.357107 0.768475
0.919448 0.429206 0.764218
0.991577 0.546395 0.782971
0.0883497 0.274098 0.604852
0.0834363 0.297841 0.63212
0.218585 0.31899 0.688502
0.382528 0.335271 0.727214
0.544259 0.353506 0.750179
0.697826 0.381598 0.762951
0.826627 0.417823 0.774792
0.913436 0.480262 0.771908
0.993179 0.584375 0.789105
0.0694133 0.357961 0.686671
0.0678569 0.364263 0.692897
0.162341 0.388754 0.729107
0.382147 0.422675 0.765103
0.547005 0.441703 0.775189
0.697261 0.46949 0.780102
0.82414 0.505959 0.788922
0.911192 0.562539 0.790372
0.988739 0.648829 0.804608
0.0455329 0.462379 0.747723
0.0449683 0.465324 0.747158
0.0573281 0.474601 0.75198
0.331823 0.508553 0.78436
0.542611 0.548318 0.795682
0.69482 0.572366 0.799069
0.822324 0.606714 0.805951
0.907332 0.655558 0.809552
0.981079 0.718242 0.822232
0.0255894 0.592203 0.793301
0.0253605 0.594842 0.79237
0.0646982 0.599344 0.792035
0.29247 0.607614 0.795285
0.482246 0.624338 0.801144
0.685496 0.667384 0.813169
0.819791 0.697704 0.819821
0.905653 0.739315 0.8271
0.983215 0.768536 0.836515
0.0202029 0.715969 0.818875
0.0251926 0.718227 0.818891
0.210132 0.723186 0.821073
0.37644 0.729931 0.82295
0.530709 0.73901 0.824659
0.678447 0.752483 0.828016
0.832197 0.783444 0.841688
0.917144 0.810803 0.852934
0.987564 0.821454 0.858778
0.177646 0.82153 0.848325
0.268269 0.822843 0.849012
0.37464 0.824155 0.849317
0.509743 0.828473 0.852201
0.641169 0.832425 0.8542
0.766461 0.839109 0.859724
0.862547 0.849607 0.869413
0.928389 0.857664 0.871733
0.978943 0.858015 0.864134
0.439216 0.901045 0.881758
0.49131 0.900862 0.882185
0.564675 0.90042 0.882643
0.659525 0.899016 0.882872
0.755932 0.897993 0.884047
0.836912 0.897536 0.887144
0.8934 0.899275 0.889708
0.928481 0.902541 0.885267
0.978225 0.910536 0.88925
0.585672 0.949065 0.893339
0.608743 0.94815 0.891585
0.648539 0.947173 0.889433
0.714885 0.945388 0.888701
0.809049 0.94229 0.895659
0.880491 0.941573 0.904799
0.918135 0.944152 0.90782
0.93637 0.947127 0.901595
0.970825 0.950683 0.902678
0.10454 0.340642 0.753094
0.216693 0.352758 0.788434
0.328069 0.362997 0.811673
0.456458 0.376211 0.830167
0.591165 0.393194 0.841535
0.720562 0.416266 0.846082
0.834363 0.449271 0.846632
0.923568 0.482841 0.850324
0.982086 0.5411 0.846632
0.0738689 0.371435 0.769772
0.214557 0.402884 0.813962
0.328527 0.412222 0.829557
0.455772 0.423545 0.840406
0.587655 0.438483 0.846159
0.714137 0.4589 0.847425
0.826322 0.487465 0.847272
0.914809 0.518944 0.849989
0.97528 0.573037 0.847745
0.0511635 0.429053 0.803159
0.119188 0.440742 0.818524
0.309682 0.472984 0.843778
0.455879 0.492958 0.850706
0.585962 0.505852 0.852049
0.710842 0.524147 0.852522
0.822065 0.551156 0.852659
0.909026 0.582818 0.855055
0.969497 0.632395 0.854551
0.0357366 0.508492 0.831647
0.0422675 0.51429 0.833814
0.228717 0.530373 0.848493
0.41883 0.557839 0.856367
0.582712 0.588373 0.858869
0.707805 0.604288 0.858991
0.817029 0.627329 0.858763
0.903059 0.656397 0.86099
0.96286 0.699245 0.861814
0.0236057 0.612039 0.853498
0.0245212 0.613916 0.852857
0.166827 0.616495 0.854353
0.335821 0.621241 0.856077
0.53225 0.646281 0.861082
0.698421 0.68014 0.863081
0.810117 0.69958 0.863218
0.898024 0.726223 0.866667
0.958541 0.763058 0.870237
0.0257115 0.714534 0.865248
0.12668 0.717388 0.866667
0.257084 0.719753 0.867308
0.386954 0.723201 0.867262
0.512444 0.725551 0.865187
0.665141 0.740642 0.866743
0.813626 0.771115 0.871946
0.902739 0.790646 0.876554
0.962829 0.819425 0.883223
0.249302 0.8047 0.880125
0.312108 0.805707 0.880339
0.395193 0.807034 0.880339
0.499184 0.809354 0.880385
0.610666 0.812528 0.880247
0.720363 0.817731 0.880735
0.819226 0.826246 0.882704
0.917388 0.847883 0.892424
0.973846 0.868971 0.901823
0.43711 0.875105 0.899489
0.47892 0.87541 0.899672
0.541802 0.876051 0.900084
0.624628 0.877287 0.900771
0.713527 0.879469 0.901518
0.798886 0.884001 0.903014
0.879805 0.892073 0.907912
0.936049 0.901625 0.914672
0.974151 0.907805 0.912779
0.560601 0.944839 0.92575
0.593347 0.944366 0.925231
0.643412 0.943847 0.924636
0.711574 0.94287 0.923583
0.785458 0.941909 0.922286
0.851392 0.942046 0.920638
0.918959 0.943618 0.927626
0.949264 0.947448 0.928908
0.973098 0.952316 0.929671
0.35172 0.472007 0.894972
0.403342 0.479042 0.898482
0.471153 0.485512 0.900404
0.559014 0.49514 0.901518
0.658228 0.509987 0.902556
0.75787 0.529412 0.902968
0.846662 0.550988 0.901564
0.920638 0.578424 0.899184
0.978103 0.606165 0.899779
0.347707 0.504616 0.899336
0.412131 0.519203 0.90161
0.475456 0.522744 0.901823
0.559014 0.529229 0.901991
0.651881 0.53753 0.90135
0.747341 0.550286 0.900298
0.83682 0.569467 0.898863
0.912154 0.595056 0.896681
0.970871 0.622293 0.897444
0.305989 0.535409 0.902861
0.371725 0.545983 0.904036
0.481086 0.57554 0.904662
0.566262 0.583703 0.904738
0.656397 0.590661 0.903899
0.750057 0.603021 0.902998
0.8383 0.623346 0.902296
0.910231 0.646113 0.900175
0.965759 0.668345 0.900008
0.240757 0.583261 0.903395
0.315557 0.589792 0.904479
0.415579 0.602365 0.905562
0.553964 0.636591 0.907042
0.662486 0.655802 0.906767
0.752575 0.665354 0.905608
0.835676 0.679454 0.904143
0.905241 0.697292 0.902098
0.959625 0.718242 0.902419
0.158297 0.649485 0.903441
0.232639 0.65066 0.904219
0.334112 0.653284 0.905257
0.47483 0.666773 0.907286
0.631601 0.698711 0.90779
0.747402 0.720653 0.906432
0.831113 0.732158 0.905303
0.900832 0.747036 0.90399
0.95642 0.766369 0.906096
0.243961 0.733944 0.910292
0.301976 0.736278 0.911009
0.373587 0.737636 0.910948
0.465019 0.739864 0.910567
0.575936 0.743984 0.909804
0.728008 0.766339 0.91014
0.836362 0.787472 0.910201
0.904921 0.798871 0.910033
0.959258 0.813626 0.91339
0.367132 0.808377 0.917525
0.409552 0.809339 0.917632
0.472908 0.811063 0.9178
0.554208 0.81323 0.917647
0.641993 0.815366 0.916854
0.728801 0.817838 0.915679
0.827573 0.827192 0.916106
0.913069 0.844511 0.918334
0.965621 0.858488 0.923232
0.492332 0.864683 0.924895
0.525246 0.865064 0.924971
0.57435 0.86566 0.924971
0.642191 0.867033 0.9252
0.716304 0.869368 0.925505
0.789548 0.873243 0.92607
0.859098 0.879515 0.927184
0.919768 0.889082 0.929213
0.971191 0.910033 0.936797
0.577386 0.921447 0.941466
0.605158 0.921813 0.941695
0.646876 0.92256 0.942046
0.704723 0.924163 0.942794
0.770123 0.92668 0.943633
0.837232 0.931044 0.944808
0.898833 0.940887 0.947784
0.955825 0.948623 0.951965
0.97644 0.954986 0.954299
0.555276 0.610346 0.940887
0.582086 0.614054 0.941115
0.620371 0.617502 0.940887
0.675273 0.624949 0.940856
0.73846 0.634043 0.940398
0.804181 0.64564 0.939483
0.868284 0.662165 0.938476
0.926329 0.683742 0.937407
0.97293 0.706783 0.936095
0.560037 0.633875 0.940841
0.586542 0.637308 0.940749
0.624201 0.640635 0.940627
0.681239 0.650538 0.941192
0.741146 0.657206 0.940444
0.804166 0.666239 0.939315
0.866896 0.680568 0.938262
0.924544 0.700801 0.937407
0.97023 0.718883 0.935653
0.513252 0.635279 0.941695
0.569436 0.655741 0.94168
0.630976 0.674662 0.940734
0.679927 0.677806 0.940185
0.739666 0.684184 0.939635
0.803204 0.693889 0.938979
0.866819 0.709575 0.938659
0.923278 0.727062 0.938048
0.967254 0.738598 0.935775
0.475273 0.661997 0.944137
0.524941 0.673289 0.944366
0.595148 0.691096 0.943984
0.695933 0.72578 0.942504
0.754955 0.733166 0.942
0.814145 0.741268 0.941665
0.873182 0.75259 0.941436
0.923659 0.759808 0.939712
0.966155 0.769253 0.937911
0.442878 0.711467 0.948623
0.476814 0.711406 0.948272
0.538827 0.716426 0.947646
0.647227 0.73959 0.94696
0.763256 0.774227 0.945571
0.825162 0.783764 0.944854
0.877729 0.788754 0.943999
0.926406 0.794583 0.942641
0.96669 0.802167 0.941207
0.435004 0.764889 0.949676
0.465034 0.765621 0.949615
0.510521 0.766644 0.949401
0.596918 0.772931 0.949966
0.708095 0.785992 0.949828
0.82208 0.813397 0.948516
0.882933 0.822507 0.947402
0.929961 0.826673 0.94612
0.968338 0.833051 0.944869
0.497322 0.822217 0.953384
0.525505 0.822629 0.953292
0.568719 0.82327 0.953124
0.632105 0.825299 0.953094
0.703944 0.828183 0.953048
0.779202 0.831937 0.95285
0.882353 0.85304 0.95314
0.937865 0.863828 0.952392
0.973281 0.871199 0.951659
0.542702 0.87657 0.957778
0.576181 0.877256 0.958083
0.621012 0.877943 0.958251
0.680797 0.879271 0.958419
0.747448 0.881712 0.95874
0.814771 0.885756 0.959228
0.879438 0.892607 0.960189
0.943694 0.909239 0.962249
0.980117 0.925689 0.963241
0.481239 0.941238 0.958221
0.521126 0.941436 0.958495
0.57847 0.941756 0.958816
0.654276 0.942519 0.959365
0.743694 0.944183 0.960357
0.832547 0.947662 0.962097
0.907881 0.953658 0.965133
0.963104 0.961456 0.96968
0.988205 0.967208 0.973754
