example-Advanced/bin/data/Shaders/ofxPostProcessing/luts/3.cube
TITLE "Generate by Resolve"
LUT_3D_SIZE 33
0 0 0
0.00494392 0.00477607 0.00477607
0.0121157 0.0111391 0.0111696
0.0201572 0.0175631 0.0176242
0.0290074 0.0239567 0.0240635
0.0387579 0.0303044 0.0304723
0.049546 0.0366064 0.0368505
0.0616007 0.0429389 0.0432441
0.0752422 0.0493172 0.0496986
0.0907607 0.0557565 0.0562295
0.108141 0.062089 0.062623
0.127489 0.0682689 0.0688487
0.14905 0.0742351 0.0748608
0.172732 0.0798657 0.0804913
0.198306 0.0850538 0.0856794
0.225834 0.0897688 0.0903944
0.25536 0.0940108 0.0945449
0.286824 0.0977188 0.0981918
0.3196 0.100862 0.101305
0.353155 0.103426 0.103822
0.387121 0.105425 0.105791
0.421714 0.106935 0.107347
0.461143 0.10811 0.108843
0.506233 0.108827 0.11017
0.546685 0.108995 0.111162
0.580819 0.108812 0.112154
0.599466 0.108598 0.113298
0.600046 0.108583 0.114748
0.600702 0.108553 0.116487
0.601007 0.108553 0.117266
0.601068 0.108553 0.117418
0.601511 0.108537 0.118578
0.603708 0.108476 0.124315
0.0160067 0.0166323 0.0160678
0.0229953 0.0229038 0.0220798
0.0322881 0.030518 0.0292973
0.0417334 0.0375525 0.0358892
0.0516518 0.0441291 0.0420539
0.0614633 0.0496529 0.0473182
0.0720684 0.054963 0.0523995
0.083238 0.0596933 0.0570687
0.0958877 0.0644999 0.0618143
0.109468 0.068864 0.0662547
0.125063 0.0733959 0.0708171
0.144015 0.0787823 0.0760052
0.165637 0.0843671 0.0812085
0.189349 0.0896162 0.0860914
0.212924 0.0933852 0.0899519
0.234852 0.0952163 0.092607
0.256214 0.0958419 0.094667
0.281926 0.0974136 0.097261
0.313298 0.100298 0.100313
0.346258 0.102937 0.102953
0.37969 0.105013 0.105028
0.416495 0.106737 0.106752
0.459312 0.108064 0.108125
0.499611 0.108766 0.109056
0.536767 0.108995 0.109987
0.571038 0.108888 0.110948
0.597452 0.108629 0.111925
0.599481 0.108583 0.113329
0.600168 0.108568 0.115084
0.600839 0.108553 0.116823
0.601022 0.108553 0.117281
0.601114 0.108553 0.117525
0.602304 0.108522 0.120638
0.0350805 0.0385748 0.0352483
0.0416724 0.0440986 0.0401312
0.0513771 0.0511788 0.0464179
0.0625162 0.0587625 0.0529793
0.0731365 0.0651713 0.0584421
0.0844587 0.0712596 0.0635843
0.0972457 0.0775921 0.0688182
0.110643 0.0830549 0.0734264
0.125429 0.0882582 0.077821
0.141939 0.0933547 0.0820783
0.15993 0.0980697 0.0860456
0.179736 0.10251 0.0897536
0.20058 0.106111 0.0929427
0.222629 0.109071 0.0957351
0.245106 0.110994 0.0979934
0.267323 0.111681 0.0997787
0.288731 0.111116 0.101091
0.308995 0.109407 0.102022
0.334264 0.109285 0.103456
0.365896 0.110979 0.105303
0.394842 0.110735 0.106447
0.422812 0.108827 0.107164
0.456992 0.108003 0.108003
0.495171 0.108705 0.108721
0.530724 0.10898 0.109255
0.563928 0.108934 0.110201
0.59115 0.108705 0.111086
0.599145 0.108598 0.112428
0.599756 0.108583 0.114015
0.600488 0.108568 0.115908
0.601007 0.108553 0.11725
0.601068 0.108553 0.117388
0.601633 0.108537 0.118868
0.0530861 0.0623178 0.0533608
0.0590219 0.0671397 0.0571756
0.0698711 0.0742809 0.0628824
0.0813764 0.0809491 0.0681468
0.0947585 0.0884413 0.0737469
0.10724 0.0944686 0.0781567
0.120867 0.100557 0.082475
0.136339 0.107027 0.0868391
0.153735 0.11339 0.0909438
0.17258 0.119005 0.0944686
0.193118 0.124132 0.0975662
0.21561 0.128954 0.100343
0.239628 0.133043 0.102678
0.264988 0.136339 0.104601
0.291218 0.138674 0.106081
0.318456 0.140215 0.10721
0.346273 0.140826 0.108003
0.373678 0.1402 0.108492
0.400793 0.138796 0.108782
0.42707 0.136599 0.108934
0.45478 0.133745 0.108995
0.484901 0.130434 0.108965
0.509804 0.125872 0.108919
0.530129 0.120806 0.108904
0.550744 0.116609 0.108873
0.581781 0.115724 0.108888
0.599542 0.112383 0.110002
0.600626 0.109041 0.111498
0.599405 0.108598 0.11313
0.600198 0.108568 0.115175
0.600992 0.108553 0.117235
0.601038 0.108553 0.117342
0.60116 0.108553 0.117632
0.0684672 0.0862287 0.0687724
0.0742351 0.0903944 0.0717174
0.0841077 0.0962997 0.0759136
0.0966201 0.102937 0.0805219
0.110155 0.109346 0.0848402
0.125536 0.116442 0.0891737
0.140475 0.122698 0.0926986
0.156878 0.129091 0.0961166
0.175418 0.135836 0.0993362
0.196353 0.142641 0.102174
0.219059 0.148699 0.104463
0.243732 0.154086 0.106279
0.270176 0.158694 0.107607
0.298512 0.162585 0.108492
0.32845 0.165743 0.108934
0.359731 0.168017 0.108965
0.392523 0.169574 0.108629
0.425925 0.170108 0.108034
0.458671 0.169406 0.107286
0.493233 0.168017 0.106355
0.530999 0.166308 0.105165
0.566613 0.163592 0.104005
0.597543 0.159396 0.103212
0.625071 0.154665 0.102632
0.649149 0.149416 0.102296
0.671839 0.144518 0.102022
0.687785 0.138659 0.102724
0.688975 0.132662 0.105379
0.671687 0.127382 0.108995
0.653147 0.121996 0.112642
0.634699 0.116899 0.115908
0.629953 0.115618 0.116747
0.629618 0.115526 0.116899
0.0823072 0.112673 0.0826123
0.0883803 0.116655 0.085008
0.0969558 0.121324 0.0877394
0.111116 0.12813 0.0916457
0.125963 0.13434 0.0950332
0.141741 0.140368 0.0981613
0.160159 0.147692 0.101137
0.178408 0.154269 0.103441
0.19826 0.160967 0.105409
0.220295 0.167727 0.107073
0.244755 0.174456 0.108263
0.271748 0.181064 0.108904
0.300816 0.186603 0.108949
0.331685 0.191012 0.108476
0.364324 0.194568 0.107546
0.398825 0.197391 0.106203
0.434897 0.19939 0.104524
0.471702 0.20032 0.102617
0.511589 0.200931 0.100313
0.554757 0.201129 0.0975967
0.59588 0.199908 0.0951553
0.634119 0.197467 0.0929885
0.692836 0.197482 0.0884413
0.777951 0.200305 0.0803998
0.805051 0.194705 0.080293
0.821546 0.188952 0.0829633
0.816663 0.183276 0.0877852
0.808667 0.177371 0.09337
0.797391 0.171847 0.0980392
0.785382 0.166445 0.100969
0.774258 0.161547 0.104997
0.765652 0.157351 0.113344
0.759441 0.154284 0.120546
0.0975662 0.153414 0.0976425
0.102617 0.156405 0.0988327
0.112108 0.160739 0.100542
0.129976 0.167865 0.103151
0.148455 0.174029 0.105165
0.167315 0.179614 0.106722
0.187182 0.184924 0.107836
0.21033 0.192035 0.10869
0.23331 0.198337 0.108995
0.258091 0.204837 0.108812
0.28542 0.211444 0.108064
0.31519 0.217914 0.106691
0.347189 0.223819 0.104753
0.381415 0.22916 0.102266
0.417166 0.232944 0.0995346
0.454093 0.235355 0.0966354
0.493523 0.237385 0.0934615
0.538323 0.239643 0.0894636
0.586786 0.241627 0.0849317
0.63389 0.242176 0.0806744
0.678355 0.241108 0.0769818
0.720882 0.238941 0.0737011
0.766857 0.237003 0.0699626
0.816098 0.235065 0.0658427
0.849867 0.230442 0.0642252
0.874876 0.225147 0.0646982
0.879713 0.219699 0.0693065
0.872557 0.214237 0.0755474
0.864698 0.208576 0.0816815
0.856855 0.203357 0.0856641
0.84889 0.198428 0.0885481
0.841413 0.193545 0.0955978
0.835187 0.189105 0.106462
0.10518 0.187625 0.10518
0.106783 0.188998 0.105455
0.115572 0.192523 0.106294
0.136858 0.200153 0.107759
0.158389 0.20647 0.108598
0.179889 0.211994 0.108965
0.201846 0.216876 0.108934
0.225437 0.221988 0.108507
0.252049 0.228641 0.107485
0.279316 0.234928 0.105959
0.308049 0.241321 0.103883
0.338933 0.247654 0.101198
0.371817 0.253544 0.0980392
0.406577 0.258976 0.0944991
0.443015 0.263523 0.0906386
0.484688 0.268589 0.085893
0.530648 0.273136 0.0805829
0.577279 0.275929 0.0754864
0.623514 0.277378 0.0706798
0.668009 0.277333 0.0664225
0.711025 0.276234 0.0625925
0.753246 0.274266 0.0590982
0.794415 0.271687 0.0558785
0.833417 0.26833 0.0531472
0.869215 0.264225 0.0509804
0.900404 0.259297 0.0496986
0.919585 0.253758 0.0510109
0.914473 0.248386 0.0573434
0.908782 0.242649 0.0641337
0.903258 0.2374 0.0700542
0.897108 0.23212 0.0733806
0.891005 0.22707 0.0769055
0.886275 0.222416 0.0883955
0.108659 0.2224 0.108659
0.108843 0.223362 0.108705
0.116716 0.226246 0.108873
0.13753 0.232929 0.10898
0.162142 0.239445 0.108568
0.186511 0.244968 0.107759
0.210956 0.249699 0.106615
0.236347 0.253986 0.10515
0.263386 0.258717 0.103212
0.29366 0.265202 0.10042
0.32491 0.271473 0.0971542
0.357107 0.277638 0.0935225
0.391104 0.283665 0.0893873
0.429297 0.290517 0.0843366
0.470542 0.297322 0.0786755
0.514061 0.303502 0.0727245
0.558938 0.308598 0.066804
0.603296 0.311772 0.0614328
0.646754 0.31284 0.0567941
0.689326 0.312413 0.0527352
0.731365 0.311345 0.0489357
0.773312 0.309712 0.0453498
0.814542 0.307485 0.0420539
0.853803 0.304372 0.0392767
0.890089 0.300389 0.0370642
0.922621 0.295476 0.0355383
0.946426 0.289906 0.035584
0.946548 0.28423 0.0404059
0.942321 0.278309 0.0474403
0.938125 0.272709 0.0544442
0.93344 0.267018 0.0590066
0.928664 0.261677 0.0616007
0.924651 0.25655 0.0720836
0.108278 0.260899 0.108278
0.108232 0.261585 0.108232
0.112032 0.262852 0.10808
0.131518 0.268208 0.107134
0.160128 0.2748 0.105394
0.188098 0.28011 0.10338
0.215595 0.284611 0.101152
0.243351 0.288563 0.0987106
0.271946 0.292287 0.0960555
0.302541 0.296666 0.0928359
0.33817 0.304234 0.0880903
0.375769 0.3122 0.0826581
0.413703 0.319554 0.0770428
0.453925 0.326879 0.070985
0.495949 0.333654 0.0647288
0.53872 0.3393 0.0586709
0.581857 0.343877 0.0528878
0.624842 0.34728 0.0475166
0.667262 0.34934 0.0426947
0.708827 0.349767 0.0385138
0.749722 0.348608 0.0349889
0.789975 0.346609 0.0318303
0.829068 0.343877 0.0290379
0.866239 0.340322 0.0267338
0.900832 0.335973 0.024918
0.932464 0.33077 0.0236515
0.958556 0.324895 0.023209
0.969055 0.318883 0.0252384
0.965927 0.312978 0.0314031
0.962814 0.30721 0.0388952
0.959503 0.301442 0.0457923
0.955871 0.295872 0.0484627
0.952697 0.290669 0.0562448
0.104265 0.299351 0.104265
0.104143 0.300175 0.104143
0.104829 0.300587 0.104051
0.117494 0.303685 0.102953
0.151247 0.311055 0.0997177
0.183978 0.31693 0.0963455
0.215274 0.321569 0.0930953
0.246967 0.327016 0.08925
0.279789 0.33228 0.0850996
0.313909 0.33727 0.0806744
0.350896 0.343404 0.0754406
0.391333 0.350927 0.0692302
0.432517 0.357916 0.0629587
0.473335 0.36434 0.0568093
0.514733 0.370321 0.0507362
0.556481 0.375158 0.0450294
0.598215 0.378927 0.0397345
0.63978 0.381811 0.0348211
0.680568 0.383719 0.0303807
0.720531 0.384543 0.0264439
0.759991 0.384375 0.0229496
0.798871 0.383093 0.019913
0.836667 0.380056 0.0175479
0.872694 0.376211 0.0155947
0.906569 0.371679 0.0140536
0.938064 0.3664 0.0129244
0.966339 0.360388 0.0122835
0.985687 0.354208 0.0126955
0.983322 0.34818 0.016968
0.981064 0.342306 0.0248264
0.978683 0.3364 0.0330053
0.976059 0.330694 0.0365148
0.973571 0.325338 0.0420844
0.0966201 0.341726 0.0966201
0.0961776 0.343862 0.0961776
0.0959945 0.3449 0.0959945
0.102464 0.347448 0.0949569
0.136187 0.354986 0.0905623
0.175113 0.362219 0.0854353
0.212253 0.36817 0.0804761
0.248585 0.373999 0.0753796
0.285679 0.379355 0.0701915
0.323476 0.38436 0.0649119
0.362219 0.388876 0.0596323
0.402869 0.393698 0.0540169
0.468223 0.418372 0.0394751
0.527535 0.43476 0.0286564
0.571633 0.438621 0.0234684
0.613443 0.441062 0.019089
0.653925 0.442084 0.0153658
0.692943 0.441947 0.012192
0.730617 0.440879 0.00949111
0.767346 0.439231 0.00709544
0.803449 0.4374 0.00485237
0.838819 0.435019 0.0028687
0.873045 0.431434 0.00132753
0.90573 0.426657 0.000183108
0.936828 0.420462 0
0.96585 0.413748 0
0.990265 0.406546 0
1 0.399283 0.00477607
0.998383 0.392096 0.0112001
0.996597 0.385092 0.0177462
0.994675 0.378241 0.0224002
0.992844 0.371679 0.0312047
0.99115 0.365606 0.0424353
0.079408 0.4112 0.079408
0.0787823 0.413443 0.0787823
0.0785229 0.414359 0.0785229
0.0803693 0.415564 0.0779889
0.109361 0.42031 0.0738384
0.159274 0.426963 0.0669413
0.205966 0.432242 0.0606546
0.249271 0.436866 0.0548409
0.291981 0.441108 0.0492256
0.334966 0.445472 0.0435645
0.378775 0.450004 0.0378424
0.423651 0.45452 0.0321202
0.482689 0.470466 0.0218662
0.539254 0.481544 0.0138705
0.588373 0.485756 0.00880446
0.633082 0.488136 0.00483711
0.673228 0.488045 0.00196841
0.71107 0.486381 0
0.747097 0.483711 0
0.782086 0.480659 0
0.816434 0.477516 0
0.850019 0.474266 0
0.882414 0.470588 0
0.913375 0.466087 0
0.943038 0.460502 0
0.97113 0.453849 0
0.995682 0.446082 0
1 0.438315 0
1 0.430732 0.00390631
1 0.423194 0.0111391
1 0.416052 0.0141756
1 0.40911 0.0224155
1 0.402564 0.0386053
0.0606699 0.475364 0.0606699
0.0602884 0.476631 0.0602884
0.0603494 0.476432 0.0603494
0.0604257 0.476204 0.0604257
0.0778363 0.477287 0.0583352
0.13373 0.481865 0.0513008
0.189075 0.485496 0.0446632
0.238651 0.488441 0.03888
0.28571 0.491356 0.0334478
0.332235 0.494652 0.0280766
0.379065 0.498497 0.0226902
0.426642 0.502815 0.0172885
0.475105 0.507073 0.0121004
0.524163 0.510842 0.00726329
0.573617 0.514244 0.00277714
0.621668 0.517113 0
0.664393 0.517586 0
0.702098 0.515663 0
0.738048 0.512978 0
0.773007 0.509926 0
0.807019 0.506691 0
0.840406 0.503319 0
0.872786 0.499672 0
0.903792 0.495628 0
0.933486 0.491188 0
0.961746 0.485939 0
0.988357 0.479606 0
1 0.472236 0
1 0.464668 0
1 0.45716 0.00332647
1 0.45005 0.0074464
1 0.443122 0.0129091
1 0.4365 0.0305333
0.0458534 0.524437 0.0458534
0.0456855 0.525002 0.0456855
0.0459297 0.524193 0.0459297
0.0462654 0.523079 0.0462654
0.0514839 0.521782 0.0461738
0.100603 0.523934 0.0406806
0.16376 0.526558 0.0337835
0.219333 0.528496 0.0280003
0.2701 0.530465 0.0228122
0.319142 0.532937 0.0178225
0.367529 0.536065 0.0129091
0.416251 0.539773 0.00807202
0.465263 0.543511 0.00349432
0.514275 0.546654 0
0.562829 0.548669 0
0.610986 0.549981 0
0.656779 0.550378 0
0.696788 0.54847 0
0.732525 0.545022 0
0.767224 0.541634 0
0.8009 0.538033 0
0.833814 0.534279 0
0.86569 0.530297 0
0.896376 0.52604 0
0.925963 0.521523 0
0.954177 0.516747 0
0.981155 0.511498 0
1 0.505531 0
1 0.499229 0
1 0.492012 0
1 0.485039 0.00256352
1 0.478264 0.0106966
1 0.47187 0.0291447
0.0325475 0.569482 0.0325475
0.0323949 0.569986 0.0323949
0.0325322 0.569512 0.0325322
0.0328069 0.568551 0.0328069
0.0332494 0.567041 0.0332494
0.0608988 0.567208 0.0306096
0.132982 0.56994 0.0231937
0.19733 0.571969 0.0170138
0.253315 0.573709 0.011902
0.305821 0.575586 0.00730907
0.35642 0.577813 0.00302129
0.406424 0.580224 0
0.455879 0.582391 0
0.504509 0.583963 0
0.552407 0.584543 0
0.59913 0.583902 0
0.644938 0.582879 0
0.688411 0.581323 0
0.726925 0.578012 0
0.761715 0.573816 0
0.795422 0.570092 0
0.828321 0.566201 0
0.860014 0.56202 0
0.89044 0.557519 0
0.91986 0.552804 0
0.948043 0.54786 0
0.975082 0.542702 0
0.99971 0.53756 0
1 0.532311 0
1 0.526406 0
1 0.520394 0
1 0.513512 0.0122683
1 0.506981 0.0307469
0.0213169 0.609476 0.0213169
0.02121 0.609842 0.02121
0.0212711 0.609659 0.0212711
0.0214237 0.609079 0.0214237
0.0216526 0.608225 0.0216526
0.0284581 0.607614 0.0212406
0.0988327 0.610208 0.0144808
0.171267 0.612314 0.00813306
0.23299 0.61387 0.00317388
0.289097 0.615106 0
0.341985 0.616251 0
0.392935 0.617273 0
0.442664 0.617899 0
0.491112 0.617975 0
0.53843 0.617334 0
0.584634 0.6159 0
0.629633 0.61387 0
0.67422 0.612055 0
0.716869 0.609873 0
0.754742 0.606027 0
0.788907 0.601648 0
0.821897 0.597772 0
0.853819 0.593561 0
0.884413 0.588937 0
0.91371 0.584146 0
0.941863 0.579141 0
0.968994 0.573983 0
0.994522 0.56875 0
1 0.5635 0
1 0.558556 0
1 0.553475 0
1 0.547585 0.0159152
1 0.541405 0.034226
0.0113985 0.647486 0.0113985
0.0113375 0.64773 0.0113375
0.00787366 0.661921 0.00787366
0.0077821 0.662272 0.0077821
0.00798047 0.661479 0.00798047
0.00819409 0.660624 0.00819409
0.0639811 0.661479 0.00381476
0.144549 0.662516 0
0.21416 0.66305 0
0.2748 0.663294 0
0.3308 0.663386 0
0.383902 0.663294 0
0.435065 0.66276 0
0.48452 0.661723 0
0.532372 0.660044 0
0.578744 0.65774 0
0.623865 0.654932 0
0.667918 0.651789 0
0.711391 0.648936 0
0.752712 0.645518 0
0.788998 0.640162 0
0.821347 0.634302 0
0.852399 0.629221 0
0.882383 0.623865 0
0.911055 0.61828 0
0.938476 0.612512 0
0.964935 0.606714 0
0.990433 0.6009 0
1 0.595224 0
1 0.589944 0
1 0.584909 0.00444038
1 0.580087 0.0246433
1 0.57496 0.0432593
0.00140383 0.690166 0.00140383
0.0011902 0.691142 0.0011902
0 0.708812 0
0 0.710185 0
0 0.709926 0
0 0.709209 0
0.028809 0.708705 0
0.113893 0.708766 0
0.192737 0.708354 0
0.258427 0.707713 0
0.317556 0.70695 0
0.372992 0.705943 0
0.425467 0.704448 0
0.475654 0.702419 0
0.523934 0.699901 0
0.57055 0.696849 0
0.615808 0.693401 0
0.659846 0.689693 0
0.702892 0.685924 0
0.745296 0.682383 0
0.785336 0.678019 0
0.820111 0.671382 0
0.850828 0.664485 0
0.880095 0.658457 0
0.908202 0.652125 0
0.934981 0.645533 0
0.960723 0.638941 0
0.98555 0.63241 0
1 0.626123 0
1 0.62034 0
1 0.614954 0.0108492
1 0.609857 0.0316472
1 0.605097 0.0507057
0 0.72784 0
0 0.729412 0
0 0.73106 0
0 0.732326 0
0 0.732982 0
0 0.732845 0
0.000503548 0.73228 0
0.076112 0.73225 0
0.160861 0.731792 0
0.231586 0.731029 0
0.29305 0.730083 0
0.349874 0.728923 0
0.403006 0.727459 0
0.45359 0.725536 0
0.502205 0.723217 0
0.549096 0.720516 0
0.594644 0.717479 0
0.638972 0.714275 0
0.682353 0.711025 0
0.725063 0.707881 0
0.767208 0.704997 0
0.807065 0.701091 0
0.841413 0.694423 0
0.87129 0.687297 0
0.899565 0.681056 0
0.926558 0.674403 0
0.952483 0.667643 0
0.977417 0.660899 0
1 0.654383 0
1 0.648386 0
1 0.642756 0.0113832
1 0.637522 0.033341
1 0.632609 0.0532235
0 0.753719 0
0 0.755261 0
0 0.756939 0
0 0.758267 0
0 0.75903 0
0 0.759167 0
0 0.75874 0
0.0390173 0.758282 0
0.127306 0.757687 0
0.205081 0.756649 0
0.269703 0.755413 0
0.328222 0.753979 0
0.382361 0.7523 0
0.433661 0.750347 0
0.482719 0.748211 0
0.529915 0.745815 0
0.575799 0.743191 0
0.620508 0.740459 0
0.664271 0.737758 0
0.707454 0.735195 0
0.750027 0.732784 0
0.792187 0.730678 0
0.832197 0.727413 0
0.86595 0.7205 0
0.894774 0.713024 0
0.922011 0.706218 0
0.947951 0.699321 0
0.973007 0.692348 0
0.996124 0.685603 0
1 0.679362 0.00512703
1 0.673625 0.0238956
1 0.668223 0.0464942
1 0.663157 0.0670024
0 0.784512 0
0 0.785779 0
0 0.787045 0
0 0.787976 0
0 0.788357 0
0 0.788128 0
0 0.787442 0
0.0047303 0.786587 0
0.0940108 0.785641 0
0.179751 0.784176 0
0.248325 0.78262 0
0.308522 0.781003 0
0.363775 0.779187 0
0.415839 0.777142 0
0.465339 0.775006 0
0.512901 0.772732 0
0.559152 0.770413 0
0.604288 0.7682 0
0.6486 0.766049 0
0.692271 0.764065 0
0.735332 0.762264 0
0.777874 0.76054 0
0.819974 0.758968 0
0.859632 0.755932 0
0.892073 0.748379 0
0.919661 0.740078 0
0.945815 0.732799 0
0.970916 0.725765 0
0.994324 0.718853 0.00030518
1 0.712367 0.0218662
1 0.70634 0.0451514
1 0.70071 0.0677653
1 0.695399 0.0885939
0 0.816938 0
0 0.817243 0
0 0.817487 0
0 0.817441 0
0 0.81706 0
0 0.816327 0
0 0.815442 0
0 0.814588 0
0.0643778 0.813474 0
0.154589 0.811948 0
0.227939 0.810407 0
0.290303 0.808865 0
0.346914 0.807126 0
0.399756 0.805158 0
0.44979 0.802991 0
0.497734 0.800656 0
0.54406 0.798215 0
0.588952 0.795819 0
0.632898 0.793393 0
0.676158 0.790997 0
0.718532 0.788708 0
0.760311 0.786435 0
0.801434 0.784146 0
0.84213 0.781994 0
0.880446 0.778531 0
0.910597 0.769543 0
0.937011 0.760418 0
0.962448 0.753017 0
0.986664 0.746181 0.0104829
1 0.73962 0.0298466
1 0.733425 0.0502174
1 0.727733 0.0727703
1 0.722499 0.0950179
0 0.841291 0
0 0.84152 0
0 0.841688 0
0 0.841505 0
0 0.841047 0
0 0.840269 0
0 0.839307 0
0 0.838346 0
0.0347906 0.837049 0
0.125322 0.835264 0
0.204547 0.833402 0
0.269352 0.831632 0
0.327214 0.829725 0
0.380652 0.827695 0
0.43093 0.825513 0
0.479042 0.823209 0
0.525429 0.820859 0
0.570352 0.818555 0
0.614328 0.816312 0
0.657542 0.81416 0
0.699931 0.812116 0
0.741604 0.810101 0
0.782635 0.808011 0
0.822934 0.805783 0
0.862425 0.803311 0
0.899107 0.7991 0
0.928283 0.789776 0
0.953933 0.780377 0.00456245
0.978561 0.7729 0.0240177
1 0.766293 0.0424353
1 0.760082 0.0599527
1 0.75436 0.0789654
1 0.749279 0.101305
0 0.866972 0
0 0.867308 0
0 0.86743 0
0 0.867033 0
0 0.866285 0
0 0.865248 0
0 0.864027 0
0 0.86273 0
0.00869764 0.861189 0
0.0977188 0.859007 0
0.182223 0.856641 0
0.24947 0.854414 0
0.3084 0.852155 0
0.362249 0.84976 0
0.412512 0.847211 0
0.460395 0.844556 0
0.506523 0.841871 0
0.551232 0.839323 0
0.594949 0.836988 0
0.637934 0.834913 0
0.680217 0.833066 0
0.721736 0.831235 0
0.762463 0.829236 0
0.802335 0.826932 0
0.84126 0.824369 0.000366217
0.879713 0.821866 0.00273136
0.916777 0.81883 0.00646983
0.944533 0.808972 0.0174563
0.969696 0.799435 0.0364538
0.992737 0.792096 0.0540475
1 0.785916 0.0711986
1 0.780285 0.089189
1 0.775204 0.108049
0 0.88426 0
0 0.884565 0
0 0.884779 0
0 0.884596 0
0 0.884169 0
0 0.883513 0
0 0.882826 0
0 0.882078 0
0 0.881239 0
0.0704356 0.879698 0
0.158572 0.877882 0
0.229603 0.876036 0
0.290486 0.874113 0
0.345342 0.872068 0
0.396262 0.86981 0
0.444465 0.867369 0
0.490669 0.864851 0
0.535378 0.862333 0
0.578943 0.859937 0
0.621607 0.857725 0
0.663432 0.855711 0
0.704524 0.853773 0.00129702
0.744869 0.851774 0.00561532
0.784512 0.849607 0.013901
0.823316 0.847333 0.0222477
0.861433 0.844862 0.030457
0.899046 0.842466 0.0380102
0.935515 0.839658 0.0450599
0.96289 0.830411 0.0599374
0.987457 0.821118 0.0780957
1 0.814282 0.0953994
1 0.808591 0.112108
1 0.803616 0.130297
0 0.904372 0
0 0.904387 0
0 0.904341 0
0 0.904082 0
0 0.903639 0
0 0.903044 0
0 0.902434 0
0 0.901778 0
0 0.901167 0.00109865
0.0488899 0.900053 0.00231937
0.137255 0.898482 0.00340276
0.211902 0.89688 0.00466926
0.274266 0.895247 0.00605783
0.330144 0.893462 0.00729381
0.381598 0.891432 0.00836194
0.429923 0.889158 0.00915541
0.475975 0.886763 0.00984207
0.520455 0.884337 0.0115358
0.56379 0.882017 0.0153506
0.606195 0.879927 0.0211643
0.647883 0.877974 0.028336
0.688777 0.876143 0.0367132
0.728969 0.874281 0.0453956
0.768414 0.872343 0.0532235
0.80705 0.870283 0.0611429
0.844938 0.86804 0.0689403
0.882139 0.865675 0.0761578
0.918746 0.863279 0.0831769
0.953964 0.860441 0.0903029
0.980957 0.851789 0.1028
1 0.842557 0.119539
1 0.836194 0.136217
1 0.831266 0.153857
0 0.923781 0.0107881
0 0.923613 0.0132601
0 0.923491 0.0150149
0 0.923232 0.0159152
0 0.922957 0.0169985
0 0.922698 0.0193942
0 0.922698 0.0231022
0 0.922805 0.0282139
0 0.923064 0.0339818
