example-Advanced/bin/data/Shaders/ofxPostProcessing/luts/3.cube
TITLE "Generate by Resolve"
LUT_3D_SIZE 9
0 0 0
0.0290074 0.0239567 0.0240635
0.0752422 0.0493172 0.0496986
0.14905 0.0742351 0.0748608
0.25536 0.0940108 0.0945449
0.387121 0.105425 0.105791
0.546685 0.108995 0.111162
0.600702 0.108553 0.116487
0.603708 0.108476 0.124315
0.0684672 0.0862287 0.0687724
0.110155 0.109346 0.0848402
0.175418 0.135836 0.0993362
0.270176 0.158694 0.107607
0.392523 0.169574 0.108629
0.530999 0.166308 0.105165
0.649149 0.149416 0.102296
0.671687 0.127382 0.108995
0.629618 0.115526 0.116899
0.108659 0.2224 0.108659
0.162142 0.239445 0.108568
0.263386 0.258717 0.103212
0.391104 0.283665 0.0893873
0.558938 0.308598 0.066804
0.731365 0.311345 0.0489357
0.890089 0.300389 0.0370642
0.942321 0.278309 0.0474403
0.924651 0.25655 0.0720836
0.079408 0.4112 0.079408
0.109361 0.42031 0.0738384
0.291981 0.441108 0.0492256
0.482689 0.470466 0.0218662
0.673228 0.488045 0.00196841
0.816434 0.477516 0
0.943038 0.460502 0
1 0.430732 0.00390631
1 0.402564 0.0386053
0.0213169 0.609476 0.0213169
0.0216526 0.608225 0.0216526
0.23299 0.61387 0.00317388
0.442664 0.617899 0
0.629633 0.61387 0
0.788907 0.601648 0
0.91371 0.584146 0
1 0.5635 0
1 0.541405 0.034226
0 0.753719 0
0 0.75903 0
0.127306 0.757687 0
0.382361 0.7523 0
0.575799 0.743191 0
0.750027 0.732784 0
0.894774 0.713024 0
0.996124 0.685603 0
1 0.663157 0.0670024
0 0.866972 0
0 0.866285 0
0.00869764 0.861189 0
0.3084 0.852155 0
0.506523 0.841871 0
0.680217 0.833066 0
0.84126 0.824369 0.000366217
0.969696 0.799435 0.0364538
1 0.775204 0.108049
0 0.947738 0.0756695
0 0.946471 0.0780957
0 0.944411 0.0829175
0.257725 0.939513 0.0952468
0.455314 0.931334 0.103838
0.624811 0.923781 0.122774
0.781262 0.916259 0.149569
0.925124 0.907301 0.175692
1 0.888518 0.218433
0 1 0.211872
0 1 0.212406
0.058381 1 0.216419
0.261021 1 0.234394
0.44712 0.998856 0.25214
0.616007 0.992706 0.279316
0.77438 0.987243 0.321172
0.917006 0.982895 0.374899
1 0.983276 0.45304
0.00827039 0.00813306 0.00923171
0.0319219 0.027039 0.0314183
0.0765087 0.0514992 0.0630198
0.147173 0.0756847 0.0988785
0.24976 0.0948806 0.132113
0.380926 0.105791 0.146441
0.528878 0.108995 0.160876
0.619989 0.107912 0.168719
0.622126 0.10782 0.174792
0.069688 0.0847334 0.0835431
0.109987 0.107118 0.104753
0.166888 0.12604 0.124224
0.244388 0.137133 0.138628
0.338796 0.137819 0.147753
0.441306 0.127993 0.153567
0.535454 0.115801 0.158022
0.619394 0.108263 0.163745
0.620676 0.107881 0.170657
0.108339 0.212222 0.149416
0.154849 0.229297 0.152667
0.256825 0.24828 0.156664
0.374594 0.267475 0.155154
0.525612 0.281727 0.147936
0.680812 0.278019 0.139345
0.823331 0.264698 0.137697
0.921294 0.245838 0.145541
0.904768 0.229114 0.164569
0.0841077 0.388281 0.139483
0.100511 0.392111 0.138064
0.272786 0.413306 0.122881
0.442679 0.42678 0.107622
0.610147 0.437201 0.0877241
0.755123 0.434806 0.0901808
0.890974 0.422766 0.0953231
1 0.400366 0.108232
0.998154 0.378882 0.133745
0.0252384 0.590021 0.0768139
0.0258793 0.587747 0.0770275
0.212207 0.591409 0.0618448
0.422019 0.591333 0.0505684
0.605386 0.585733 0.0434882
0.763317 0.57644 0.0413825
0.891844 0.563851 0.0673381
1 0.547509 0.0976272
1 0.52636 0.13048
0 0.728969 0.0362402
0 0.727749 0.0372625
0.0949874 0.725795 0.0331121
0.35729 0.721599 0.0282292
0.551171 0.713939 0.0304112
0.726299 0.70663 0.038056
0.873442 0.691981 0.0601511
0.982025 0.671077 0.095491
1 0.654948 0.151476
0 0.851087 0.0713054
0 0.848585 0.0700999
0.00407416 0.845533 0.0707866
0.294209 0.840162 0.0757916
0.497078 0.831647 0.0801404
0.672328 0.823636 0.0910811
0.83357 0.814984 0.105898
0.961578 0.791074 0.130632
1 0.767269 0.169482
0 0.94052 0.15642
0 0.939849 0.159808
0 0.937942 0.162905
0.251362 0.934096 0.172473
0.452461 0.926986 0.181064
0.620417 0.918441 0.190249
0.775769 0.909941 0.206058
0.918975 0.900404 0.222812
1 0.881315 0.257282
0 1 0.229465
0 1 0.244114
0.097612 1 0.274723
0.285023 1 0.296117
0.457252 0.998703 0.313542
0.622675 0.992844 0.337942
0.777935 0.987213 0.373297
0.917723 0.982544 0.418708
1 0.982834 0.4878
0.019852 0.0191043 0.0261234
0.0487068 0.0391089 0.0553902
0.0879835 0.0581674 0.0856031
0.162188 0.081239 0.13167
0.268116 0.0986038 0.179019
0.40737 0.107729 0.22298
0.557687 0.108492 0.257542
0.65275 0.106126 0.268788
0.648203 0.106432 0.254032
0.0661326 0.076585 0.0970932
0.118471 0.110124 0.139284
0.174014 0.12755 0.165347
0.25742 0.13994 0.195621
0.3552 0.138201 0.218296
0.45948 0.124941 0.233646
0.547677 0.108721 0.233799
0.643244 0.106737 0.238178
0.644266 0.106676 0.241428
0.10869 0.213138 0.207172
0.168399 0.231724 0.223133
0.261463 0.247425 0.235264
0.382162 0.258717 0.248432
0.53373 0.260441 0.255756
0.683497 0.251911 0.258396
0.81854 0.237644 0.2607
0.907698 0.221561 0.263859
0.894453 0.210147 0.270466
0.0789807 0.394308 0.261448
0.120714 0.403464 0.252171
0.269139 0.418784 0.245716
0.454154 0.428977 0.24181
0.619165 0.433646 0.239765
0.763668 0.42739 0.242725
0.900771 0.411612 0.244923
1 0.390799 0.2495
0.999695 0.371893 0.260914
0.0211643 0.58883 0.231312
0.021088 0.589273 0.229541
0.204517 0.59501 0.221637
0.424216 0.596262 0.215839
0.618387 0.591058 0.21178
0.770687 0.576257 0.210422
0.893721 0.561929 0.227741
1 0.544793 0.241962
1 0.522683 0.258106
0 0.730861 0.206943
0 0.730694 0.207965
0.118441 0.729839 0.204639
0.35613 0.725841 0.202136
0.556512 0.718257 0.202731
0.736034 0.711391 0.207004
0.876631 0.69247 0.21593
0.982483 0.671595 0.237812
1 0.654627 0.269184
0 0.849317 0.22417
0 0.848142 0.224933
0.0542763 0.844343 0.223102
0.293248 0.838895 0.222782
0.497948 0.83093 0.22475
0.673823 0.822751 0.230137
0.83624 0.815213 0.24123
0.962051 0.792096 0.257908
1 0.770825 0.287175
0 0.937392 0.270848
0 0.935943 0.270481
0.0543526 0.933242 0.270497
0.265309 0.92987 0.276677
0.453803 0.923568 0.28304
0.622019 0.916167 0.292103
0.777523 0.908858 0.306981
0.920394 0.900954 0.323857
1 0.882445 0.352621
0 1 0.340398
0 1 0.339788
0.142428 1 0.344198
0.299229 0.999222 0.35761
0.4551 0.995422 0.373724
0.621088 0.989899 0.395468
0.776059 0.984482 0.425696
0.915282 0.979919 0.463722
1 0.980331 0.522148
0.0436408 0.0381933 0.064332
0.0736248 0.0544594 0.0957504
0.114 0.0701152 0.129107
0.174731 0.085832 0.168368
0.281209 0.101228 0.227298
0.420645 0.108492 0.285252
0.560021 0.108064 0.324559
0.675715 0.104341 0.348409
0.676722 0.10425 0.352087
0.0874952 0.0940414 0.148821
0.131456 0.111421 0.183429
0.184512 0.124315 0.213611
0.256825 0.133089 0.243458
0.358862 0.131334 0.279774
0.462562 0.120897 0.304234
0.586007 0.115999 0.332158
0.731914 0.119799 0.365881
0.80972 0.147127 0.397711
0.10782 0.194308 0.258305
0.166079 0.209812 0.285161
0.267292 0.239109 0.323598
0.381476 0.250095 0.348592
0.530632 0.255238 0.377371
0.680751 0.254246 0.395209
0.828779 0.25388 0.410086
0.939223 0.238697 0.408972
0.910491 0.210971 0.392645
0.07776 0.387396 0.371649
0.14168 0.397391 0.378302
0.287892 0.406577 0.382803
0.445945 0.412879 0.38439
0.602594 0.40972 0.387213
0.751141 0.400702 0.387152
0.888014 0.388815 0.388067
1 0.373831 0.387915
1 0.360906 0.390524
0.0189822 0.579812 0.398337
0.0826581 0.581353 0.395911
0.251225 0.583307 0.381445
0.42005 0.585504 0.37499
0.617197 0.580499 0.372625
0.761257 0.56759 0.37528
0.883864 0.555993 0.3841
0.995392 0.536492 0.386328
1 0.517357 0.391775
0 0.718593 0.389029
0.0224002 0.720073 0.372915
0.170031 0.718837 0.35761
0.354635 0.716121 0.355673
0.5523 0.709133 0.354635
0.732418 0.701869 0.355779
0.868864 0.684886 0.361028
0.973297 0.668879 0.380575
1 0.654994 0.398611
0 0.842527 0.371191
0 0.841794 0.371817
0.14139 0.838468 0.370062
0.322225 0.834943 0.370428
0.501472 0.828473 0.370611
0.675258 0.819913 0.371893
0.834958 0.810956 0.375677
0.95491 0.787289 0.382086
1 0.7691 0.403464
0 0.933211 0.398169
0 0.932021 0.398154
0.156069 0.928985 0.398245
0.312795 0.925704 0.400961
0.462028 0.92108 0.404654
0.626001 0.913817 0.409598
0.778744 0.9066 0.419318
0.919829 0.899611 0.432731
1 0.882933 0.456107
0.0189212 1 0.435584
0.0901961 1 0.441138
0.210544 0.998215 0.441306
0.338293 0.995941 0.450217
0.463203 0.992798 0.459251
0.620493 0.987274 0.47332
0.775189 0.982269 0.498756
0.914305 0.978576 0.53341
1 0.980362 0.588434
0.0754253 0.0583505 0.124132
0.107027 0.0708476 0.158114
0.150362 0.0831006 0.195132
0.212268 0.094728 0.238499
0.300664 0.104036 0.287373
0.440299 0.108949 0.357122
0.577478 0.107012 0.403677
0.695003 0.102358 0.430488
0.696727 0.102312 0.428687
0.104219 0.0953078 0.19176
0.141756 0.106004 0.223529
0.190509 0.114336 0.255222
0.255909 0.120455 0.289586
0.341863 0.119966 0.323949
0.459709 0.115328 0.368399
0.586618 0.111437 0.405905
0.720058 0.110124 0.439628
0.803464 0.136355 0.476173
0.109407 0.178058 0.310933
0.199069 0.220508 0.390356
0.286427 0.232929 0.426383
0.391897 0.239933 0.456779
0.521904 0.240711 0.481331
0.671061 0.238987 0.506218
0.81828 0.242725 0.525002
0.945357 0.249516 0.534325
0.96939 0.26746 0.540551
0.0829633 0.35819 0.479011
0.152743 0.363317 0.492409
0.292409 0.373342 0.512917
0.45481 0.402853 0.536873
0.609613 0.408789 0.546654
0.748913 0.41004 0.548028
0.877714 0.413123 0.553246
0.988205 0.415122 0.556893
1 0.408804 0.554299
0.0215305 0.557122 0.532296
0.0773785 0.562463 0.535103
0.270176 0.564828 0.534157
0.441337 0.563531 0.531121
0.59852 0.559274 0.525734
0.739086 0.548623 0.524651
0.869261 0.536156 0.523171
0.983566 0.522545 0.521675
1 0.51014 0.522087
0 0.709926 0.526848
0.104829 0.710369 0.528283
0.273838 0.705104 0.525841
0.408759 0.702281 0.516518
0.54641 0.697932 0.504616
0.725628 0.689952 0.503059
0.854154 0.677684 0.510719
0.958267 0.665522 0.519539
1 0.648539 0.522744
0.0968338 0.829541 0.542641
0.2094 0.827085 0.544289
0.291997 0.824414 0.53344
0.369772 0.824369 0.510994
0.506325 0.820188 0.50901
0.672953 0.812665 0.5084
0.832059 0.805295 0.511299
0.946136 0.783764 0.512413
1 0.769528 0.528786
0.178576 0.916579 0.551461
0.177279 0.917556 0.534661
0.22414 0.918181 0.515297
0.353719 0.915953 0.517098
0.479789 0.912779 0.519661
0.624887 0.907423 0.523217
0.775891 0.900618 0.529076
0.914534 0.893339 0.535348
1 0.879011 0.551888
0.118853 0.995178 0.541054
0.185687 0.994736 0.541176
0.276402 0.993011 0.543984
0.380423 0.990967 0.549035
0.491173 0.988434 0.555581
0.621225 0.984863 0.566323
0.774487 0.980285 0.586343
0.91223 0.976837 0.61236
1 0.978408 0.651545
0.106081 0.0732586 0.189471
0.136126 0.0821393 0.222034
0.179843 0.0915236 0.26154
0.242832 0.100359 0.309529
0.328252 0.106706 0.364096
0.440803 0.108995 0.419791
0.580957 0.106157 0.477623
0.703609 0.100679 0.509941
0.715038 0.100191 0.505089
0.115724 0.0887465 0.221881
0.145647 0.0945754 0.24802
0.188754 0.100389 0.280674
0.25539 0.10837 0.328649
0.337041 0.111818 0.373892
0.436942 0.108995 0.414343
0.571939 0.106538 0.468132
0.692561 0.101411 0.49984
0.742504 0.10811 0.516472
0.164508 0.204837 0.441321
0.225055 0.214191 0.479133
0.30071 0.220005 0.513619
0.396719 0.22327 0.546944
0.509133 0.223743 0.575982
0.646113 0.219821 0.601984
0.793805 0.219394 0.625345
0.925658 0.227161 0.636362
0.962646 0.246433 0.638178
0.0943313 0.30695 0.54493
0.168338 0.321386 0.578271
0.317891 0.359823 0.630747
0.450874 0.374105 0.654521
0.58468 0.378759 0.666743
0.732525 0.378378 0.671778
0.8654 0.385122 0.669505
0.978576 0.391196 0.665141
1 0.404959 0.664363
0.0318303 0.509148 0.653712
0.111727 0.511299 0.659083
0.27422 0.513146 0.665156
0.430335 0.517205 0.667842
0.585168 0.532952 0.665583
0.727062 0.533196 0.66305
0.849302 0.536934 0.661067
0.957183 0.539239 0.662501
1 0.545419 0.667903
0 0.693309 0.666606
0.0948959 0.694133 0.666468
0.262104 0.694179 0.664958
0.425162 0.690913 0.66096
0.576349 0.685802 0.656977
0.715251 0.681727 0.653513
0.836881 0.672496 0.653819
0.945388 0.657343 0.648768
1 0.645563 0.647349
0.0595865 0.818265 0.650309
0.185183 0.815686 0.650141
0.307393 0.810941 0.649332
0.450629 0.810559 0.657847
0.564355 0.806729 0.654124
0.673793 0.80441 0.64419
0.825635 0.796735 0.642893
0.930892 0.781567 0.645426
1 0.774182 0.655268
0.222599 0.908492 0.655589
0.290822 0.907027 0.658305
0.378134 0.904356 0.662165
0.479774 0.901839 0.667979
0.527504 0.903349 0.643626
0.633677 0.900252 0.641733
0.774258 0.894347 0.643809
0.910002 0.88835 0.647684
1 0.878401 0.658457
0.385061 0.983627 0.692821
0.414481 0.981674 0.692576
0.461311 0.980713 0.693553
0.466239 0.984421 0.668772
0.539681 0.984466 0.665141
0.645777 0.982849 0.673976
0.780407 0.980102 0.68925
0.914137 0.97789 0.710567
1 0.980911 0.743343
0.135271 0.0841993 0.257237
0.163149 0.0904097 0.287694
0.205493 0.0973831 0.32784
0.267323 0.103899 0.378561
0.347082 0.108019 0.432807
0.444953 0.108873 0.486915
0.57142 0.10573 0.543694
0.709468 0.09897 0.591943
0.732906 0.0978408 0.585916
0.13138 0.0875715 0.260792
0.159213 0.0927443 0.288869
0.200412 0.098024 0.324773
0.260014 0.103258 0.370626
0.340215 0.107774 0.42501
0.438102 0.108934 0.479072
0.56347 0.106096 0.534859
0.696666 0.099855 0.579751
0.731319 0.0980545 0.578546
0.193576 0.192203 0.50222
0.240208 0.196872 0.533089
0.304128 0.200046 0.566781
0.389502 0.20209 0.605097
0.491096 0.201633 0.640528
0.608209 0.199527 0.673426
0.747814 0.193347 0.702693
0.888106 0.193439 0.72256
0.943145 0.210956 0.724453
0.116991 0.288426 0.613184
0.229572 0.32018 0.684672
0.333837 0.336645 0.722301
0.443305 0.341527 0.745632
0.56405 0.344091 0.762173
0.692012 0.344976 0.772366
0.83653 0.344579 0.779309
0.961563 0.351461 0.77229
1 0.363699 0.760906
0.0496681 0.44271 0.733639
0.129091 0.446464 0.748333
0.267491 0.451942 0.765042
0.430854 0.483864 0.77937
0.568475 0.494408 0.781399
0.69723 0.495247 0.779904
0.837079 0.49575 0.777218
0.948898 0.504616 0.764996
1 0.516075 0.760693
0 0.629908 0.775982
0.0886091 0.632471 0.779522
0.250599 0.632181 0.77998
0.404685 0.632731 0.778515
0.546868 0.630564 0.771115
0.690761 0.646571 0.766827
0.819226 0.648539 0.764645
0.923033 0.651408 0.760311
1 0.657237 0.764599
0 0.796948 0.773342
0.13106 0.795163 0.771298
0.273014 0.792386 0.768139
0.412818 0.790753 0.765881
0.549538 0.785992 0.761013
0.682979 0.780896 0.757626
0.804669 0.778592 0.757107
0.909957 0.772 0.758801
1 0.763806 0.758648
0.178668 0.89868 0.747494
0.254383 0.897002 0.748074
0.351019 0.894789 0.750195
0.463478 0.892042 0.75433
0.578363 0.88838 0.759762
0.683207 0.885435 0.762875
0.771084 0.88539 0.753735
0.9019 0.880644 0.75581
0.991714 0.878279 0.764858
0.345022 0.978363 0.76112
0.38471 0.97702 0.762417
0.446876 0.975372 0.766232
0.533516 0.974044 0.775021
0.627512 0.972427 0.786099
0.676371 0.975341 0.771359
0.777646 0.976242 0.779095
0.906844 0.974319 0.791333
1 0.980514 0.822431
0.155032 0.0901808 0.306981
0.180392 0.0948653 0.335988
0.218463 0.10013 0.373632
0.273976 0.105119 0.421714
0.347768 0.108354 0.477287
0.438926 0.108782 0.535302
0.545235 0.106081 0.589502
0.674846 0.0998703 0.643015
0.749722 0.0953689 0.669123
0.144549 0.0879683 0.295201
0.170718 0.0932174 0.325399
0.209842 0.0990768 0.364538
0.266255 0.10454 0.413703
0.337789 0.108064 0.465797
0.425025 0.108934 0.519234
0.530037 0.106722 0.573205
0.659113 0.100908 0.627298
0.747494 0.0957198 0.657816
0.204746 0.168032 0.515572
0.239902 0.169955 0.539864
0.289342 0.169955 0.566659
0.359854 0.170428 0.605417
0.441855 0.166674 0.638376
0.540948 0.162646 0.676326
0.665446 0.161288 0.725002
0.796338 0.150362 0.75433
0.880125 0.149294 0.769543
0.194232 0.285557 0.710628
0.254139 0.291875 0.739834
0.326452 0.292714 0.762844
0.423713 0.297551 0.795621
0.533822 0.300404 0.822293
0.650706 0.299504 0.839826
0.776455 0.299763 0.854429
0.915831 0.295323 0.862684
0.999329 0.310033 0.859525
0.0741131 0.361273 0.754192
0.101396 0.372915 0.773022
0.264195 0.404517 0.830106
0.417288 0.43621 0.861509
0.53901 0.43946 0.869917
0.662867 0.440253 0.872877
0.789868 0.443503 0.873854
0.926589 0.444602 0.871595
1 0.462791 0.858
0.0140536 0.551766 0.857923
0.0516518 0.555337 0.863722
0.217273 0.557122 0.873533
0.370153 0.561227 0.878019
0.532555 0.590692 0.875471
0.665309 0.602152 0.87042
0.787198 0.607202 0.868009
0.915602 0.611444 0.865339
1 0.628962 0.855283
0 0.729763 0.871672
0.0686046 0.730465 0.871855
0.24152 0.731991 0.871519
0.390249 0.733608 0.870207
0.528222 0.734585 0.867338
0.66212 0.73846 0.864683
0.789593 0.755947 0.861936
0.901244 0.757733 0.859953
0.988602 0.764324 0.85713
0.103334 0.88278 0.863951
0.198947 0.881575 0.862745
0.305394 0.879652 0.860822
0.427512 0.878004 0.859327
0.550423 0.875959 0.857511
0.668711 0.875227 0.857084
0.785824 0.871519 0.855207
0.887266 0.870604 0.857298
0.97612 0.877317 0.867948
0.322194 0.974289 0.843748
0.368353 0.973327 0.844877
0.432456 0.971786 0.846601
0.520226 0.97055 0.851255
0.616281 0.968917 0.857847
0.719524 0.967834 0.869795
0.824292 0.968566 0.886961
0.905577 0.974868 0.892653
0.996994 0.983612 0.91928
0.169284 0.0939498 0.346807
0.190661 0.0973678 0.371191
0.223819 0.101457 0.404929
0.272969 0.105562 0.450263
0.336812 0.108309 0.50106
0.414572 0.108919 0.553704
0.507149 0.107042 0.60763
0.617868 0.102281 0.662242
0.754147 0.0941024 0.720211
0.156191 0.0914931 0.330434
0.178317 0.0954452 0.356237
0.212833 0.100206 0.392767
0.265293 0.105058 0.443748
0.32987 0.10811 0.495216
0.407767 0.108965 0.547692
0.500282 0.107286 0.601099
0.610605 0.102708 0.655207
0.750469 0.0943923 0.716258
0.14548 0.0968643 0.335088
0.169223 0.100084 0.360662
0.206226 0.105257 0.399313
0.252308 0.106584 0.434348
0.31339 0.10753 0.478309
0.394156 0.108995 0.534813
0.491203 0.107561 0.593378
0.60705 0.102907 0.652888
0.751995 0.0942855 0.717479
0.167391 0.20354 0.60032
0.215351 0.208896 0.640543
0.27512 0.210346 0.676265
0.35259 0.210468 0.716167
0.440635 0.206195 0.749355
0.538705 0.199039 0.778958
0.654597 0.195193 0.81709
0.791653 0.197162 0.861708
0.966659 0.224262 0.922087
0.0901045 0.3037 0.751369
0.118029 0.313649 0.775876
0.234867 0.332082 0.837537
0.352834 0.336996 0.872831
0.470069 0.336034 0.895888
0.597101 0.33962 0.918822
0.736065 0.357321 0.94403
0.876783 0.387686 0.962264
1 0.40412 0.96585
0.0523384 0.420676 0.867094
0.0535744 0.417044 0.864149
0.0552834 0.412055 0.85948
0.263783 0.459846 0.930709
0.478279 0.51191 0.957809
0.61738 0.524224 0.961608
0.754971 0.548989 0.964569
0.876616 0.560342 0.962142
1 0.565011 0.958129
0 0.667414 0.969375
0.0165713 0.667063 0.969619
0.192737 0.666239 0.970871
0.349523 0.669001 0.970169
0.495659 0.67483 0.968521
0.641367 0.701305 0.962921
0.765759 0.71751 0.958129
0.874327 0.722271 0.955169
0.988357 0.731151 0.953079
0.232914 0.845685 0.969665
0.309392 0.848478 0.970016
0.386511 0.849027 0.968933
0.480674 0.849775 0.967361
0.584192 0.851453 0.965606
0.689433 0.853376 0.963516
0.79527 0.858213 0.962478
0.893889 0.875257 0.96112
0.984817 0.899702 0.967086
0.386938 0.976867 0.965438
0.430381 0.977142 0.965896
0.487556 0.977111 0.966171
0.563195 0.977188 0.966628
0.6542 0.977661 0.967819
0.752697 0.978561 0.96997
0.857038 0.981949 0.975341
0.951247 0.989761 0.985794
1 1 1
