example-Advanced/bin/data/Shaders/ofxPostProcessing/luts/3.cube
TITLE "Generate by Resolve"
LUT_3D_SIZE 5
0 0 0
0.0752422 0.0493172 0.0496986
0.25536 0.0940108 0.0945449
0.546685 0.108995 0.111162
0.603708 0.108476 0.124315
0.108659 0.2224 0.108659
0.263386 0.258717 0.103212
0.558938 0.308598 0.066804
0.890089 0.300389 0.0370642
0.924651 0.25655 0.0720836
0.0213169 0.609476 0.0213169
0.23299 0.61387 0.00317388
0.629633 0.61387 0
0.91371 0.584146 0
1 0.541405 0.034226
0 0.866972 0
0.00869764 0.861189 0
0.506523 0.841871 0
0.84126 0.824369 0.000366217
1 0.775204 0.108049
0 1 0.211872
0.058381 1 0.216419
0.44712 0.998856 0.25214
0.77438 0.987243 0.321172
1 0.983276 0.45304
0.019852 0.0191043 0.0261234
0.0879835 0.0581674 0.0856031
0.268116 0.0986038 0.179019
0.557687 0.108492 0.257542
0.648203 0.106432 0.254032
0.10869 0.213138 0.207172
0.261463 0.247425 0.235264
0.53373 0.260441 0.255756
0.81854 0.237644 0.2607
0.894453 0.210147 0.270466
0.0211643 0.58883 0.231312
0.204517 0.59501 0.221637
0.618387 0.591058 0.21178
0.893721 0.561929 0.227741
1 0.522683 0.258106
0 0.849317 0.22417
0.0542763 0.844343 0.223102
0.497948 0.83093 0.22475
0.83624 0.815213 0.24123
1 0.770825 0.287175
0 1 0.340398
0.142428 1 0.344198
0.4551 0.995422 0.373724
0.776059 0.984482 0.425696
1 0.980331 0.522148
0.0754253 0.0583505 0.124132
0.150362 0.0831006 0.195132
0.300664 0.104036 0.287373
0.577478 0.107012 0.403677
0.696727 0.102312 0.428687
0.109407 0.178058 0.310933
0.286427 0.232929 0.426383
0.521904 0.240711 0.481331
0.81828 0.242725 0.525002
0.96939 0.26746 0.540551
0.0215305 0.557122 0.532296
0.270176 0.564828 0.534157
0.59852 0.559274 0.525734
0.869261 0.536156 0.523171
1 0.51014 0.522087
0.0968338 0.829541 0.542641
0.291997 0.824414 0.53344
0.506325 0.820188 0.50901
0.832059 0.805295 0.511299
1 0.769528 0.528786
0.118853 0.995178 0.541054
0.276402 0.993011 0.543984
0.491173 0.988434 0.555581
0.774487 0.980285 0.586343
1 0.978408 0.651545
0.135271 0.0841993 0.257237
0.205493 0.0973831 0.32784
0.347082 0.108019 0.432807
0.57142 0.10573 0.543694
0.732906 0.0978408 0.585916
0.193576 0.192203 0.50222
0.304128 0.200046 0.566781
0.491096 0.201633 0.640528
0.747814 0.193347 0.702693
0.943145 0.210956 0.724453
0.0496681 0.44271 0.733639
0.267491 0.451942 0.765042
0.568475 0.494408 0.781399
0.837079 0.49575 0.777218
1 0.516075 0.760693
0 0.796948 0.773342
0.273014 0.792386 0.768139
0.549538 0.785992 0.761013
0.804669 0.778592 0.757107
1 0.763806 0.758648
0.345022 0.978363 0.76112
0.446876 0.975372 0.766232
0.627512 0.972427 0.786099
0.777646 0.976242 0.779095
1 0.980514 0.822431
0.169284 0.0939498 0.346807
0.223819 0.101457 0.404929
0.336812 0.108309 0.50106
0.507149 0.107042 0.60763
0.754147 0.0941024 0.720211
0.14548 0.0968643 0.335088
0.206226 0.105257 0.399313
0.31339 0.10753 0.478309
0.491203 0.107561 0.593378
0.751995 0.0942855 0.717479
0.0901045 0.3037 0.751369
0.234867 0.332082 0.837537
0.470069 0.336034 0.895888
0.736065 0.357321 0.94403
1 0.40412 0.96585
0 0.667414 0.969375
0.192737 0.666239 0.970871
0.495659 0.67483 0.968521
0.765759 0.71751 0.958129
0.988357 0.731151 0.953079
0.386938 0.976867 0.965438
0.487556 0.977111 0.966171
0.6542 0.977661 0.967819
0.857038 0.981949 0.975341
1 1 1
