example-Advanced/bin/data/Shaders/ofxPostProcessing/luts/5.cube
TITLE "Generate by Resolve"
LUT_3D_SIZE 33
0.0105745 0.0108644 0.011368
0.0182498 0.0192416 0.0196841
0.0310826 0.0303044 0.0306859
0.0456855 0.041413 0.0415808
0.064622 0.0548257 0.0544442
0.0846113 0.0673838 0.0660716
0.101015 0.0758373 0.0737926
0.118791 0.084184 0.0810407
0.138552 0.0929274 0.0880446
0.1608 0.101457 0.0955825
0.18201 0.108888 0.101183
0.203693 0.115923 0.105974
0.228946 0.124071 0.110918
0.252522 0.130953 0.11516
0.275456 0.136751 0.119127
0.300267 0.142916 0.122438
0.325811 0.14876 0.125322
0.352285 0.153796 0.128618
0.381552 0.15903 0.131716
0.412055 0.164248 0.134371
0.441459 0.168658 0.136904
0.472389 0.173205 0.138857
0.505302 0.177661 0.140703
0.536782 0.181964 0.141695
0.566384 0.186542 0.140993
0.601144 0.191531 0.140444
0.632853 0.196124 0.139239
0.660975 0.200244 0.137789
0.686915 0.203235 0.137682
0.713069 0.206332 0.137255
0.745602 0.210681 0.135485
0.779629 0.214099 0.135531
0.81268 0.218616 0.133211
0.0281376 0.0309148 0.0305028
0.0303502 0.0337072 0.0326696
0.0390326 0.0389715 0.0380255
0.0539406 0.0494698 0.0480507
0.0707561 0.0604715 0.0584421
0.0872816 0.0702373 0.0675669
0.104204 0.0786908 0.0757305
0.12256 0.0865492 0.0827192
0.138567 0.0928206 0.0881666
0.158953 0.100755 0.0950332
0.182055 0.108736 0.101457
0.205081 0.116121 0.10663
0.227619 0.123049 0.11133
0.250553 0.129839 0.115434
0.276005 0.136721 0.119402
0.302281 0.143343 0.122744
0.327596 0.14931 0.125307
0.355215 0.154925 0.128176
0.385702 0.160555 0.130922
0.416892 0.166186 0.132967
0.449165 0.171756 0.134279
0.483253 0.177462 0.134844
0.519112 0.183154 0.135027
0.550744 0.188251 0.134371
0.583215 0.193118 0.133669
0.615869 0.197391 0.133379
0.644251 0.20148 0.132204
0.671199 0.204974 0.131502
0.701473 0.209155 0.130144
0.728038 0.212238 0.129473
0.760204 0.216754 0.127382
0.787259 0.218585 0.129
0.819806 0.223026 0.126696
0.0413825 0.0485695 0.0447852
0.0450904 0.0541238 0.0484321
0.0496681 0.0554971 0.0500954
0.0641031 0.0608988 0.0558022
0.0797742 0.0681926 0.0623026
0.0976272 0.0775006 0.070634
0.11487 0.0868849 0.0780194
0.133059 0.0952773 0.0849165
0.149828 0.101564 0.0907301
0.170489 0.108873 0.0966201
0.191592 0.115297 0.101808
0.214176 0.121904 0.106218
0.238178 0.129076 0.110445
0.263416 0.136461 0.114275
0.288502 0.142901 0.117723
0.313237 0.148714 0.120623
0.34049 0.155016 0.12285
0.369833 0.161028 0.125032
0.400015 0.166781 0.126894
0.431983 0.172946 0.127672
0.465599 0.179004 0.127977
0.501167 0.185046 0.12784
0.536019 0.190768 0.127108
0.568872 0.195773 0.126452
0.600549 0.199954 0.126192
0.629557 0.204837 0.124041
0.658686 0.209369 0.122148
0.687099 0.212589 0.121889
0.71342 0.215763 0.121141
0.742718 0.218997 0.120912
0.772045 0.222187 0.1205
0.801907 0.22533 0.119997
0.827527 0.228092 0.119463
0.0531014 0.0670481 0.0578164
0.0561227 0.0726177 0.0594492
0.0634928 0.0750439 0.0623789
0.0731365 0.0763409 0.0651102
0.0917983 0.0819867 0.0695201
0.109743 0.088365 0.0749218
0.127337 0.0960098 0.0808728
0.145388 0.102556 0.0865644
0.164233 0.11014 0.0916457
0.1841 0.116594 0.0970932
0.205356 0.123705 0.10164
0.227756 0.130617 0.105211
0.252018 0.137819 0.108583
0.276585 0.144686 0.111589
0.302556 0.151202 0.114321
0.329809 0.157748 0.116381
0.358419 0.164248 0.117845
0.387396 0.170245 0.119081
0.416541 0.175769 0.119997
0.449378 0.181704 0.12047
0.484794 0.188113 0.120027
0.519554 0.194202 0.118929
0.554009 0.199954 0.11754
0.585626 0.204974 0.116197
0.615564 0.208637 0.115923
0.643275 0.212558 0.114778
0.672984 0.216251 0.114046
0.703532 0.220447 0.112474
0.731685 0.223713 0.111788
0.757977 0.226764 0.110979
0.783383 0.229587 0.11043
0.812787 0.232914 0.109453
0.843946 0.237583 0.106767
0.0626535 0.0856031 0.066743
0.0664225 0.0942855 0.0697795
0.0757153 0.0949874 0.0713817
0.0880751 0.0960403 0.0748913
0.102846 0.100908 0.0782177
0.120836 0.102968 0.0803082
0.13521 0.105119 0.0825208
0.154955 0.111101 0.0867628
0.176715 0.118379 0.0919661
0.196307 0.124865 0.0963149
0.216571 0.131167 0.100267
0.241703 0.138949 0.104005
0.266941 0.146059 0.107134
0.292241 0.15314 0.109224
0.318486 0.159991 0.11078
0.345403 0.166888 0.111452
0.373129 0.173632 0.11162
0.403037 0.17969 0.112139
0.435554 0.185855 0.112261
0.469566 0.192355 0.111467
0.503899 0.198688 0.110048
0.537499 0.204608 0.108339
0.570199 0.209934 0.106645
0.600916 0.214374 0.105531
0.631968 0.219333 0.103441
0.661753 0.223301 0.102144
0.692805 0.22771 0.100298
0.723827 0.230823 0.10013
0.750591 0.232441 0.101411
0.777493 0.235355 0.100862
0.805463 0.23827 0.100267
0.828077 0.241199 0.0989548
0.858351 0.246464 0.0953384
0.0704051 0.104601 0.0749523
0.0718547 0.10901 0.0749065
0.0843977 0.114061 0.0776379
0.100664 0.115663 0.0815595
0.113695 0.116091 0.0847944
0.132311 0.122194 0.0866407
0.150027 0.122301 0.0875105
0.168688 0.123995 0.08925
0.187289 0.127626 0.0921645
0.206287 0.131899 0.0960708
0.231739 0.139437 0.100145
0.257252 0.147204 0.103014
0.282322 0.153948 0.105455
0.306981 0.16054 0.106935
0.333028 0.167422 0.107622
0.360769 0.174243 0.107851
0.389609 0.180682 0.107927
0.420783 0.187488 0.10724
0.453254 0.194461 0.105714
0.485801 0.20116 0.10367
0.520012 0.208743 0.100099
0.555032 0.215717 0.0967422
0.586725 0.220554 0.0951095
0.618235 0.22591 0.0925765
0.650507 0.231312 0.0896162
0.682261 0.23534 0.0882277
0.71136 0.238453 0.0876173
0.742428 0.24094 0.0881361
0.77261 0.24239 0.0899519
0.802106 0.246159 0.0882582
0.82797 0.247608 0.0895552
0.849424 0.250889 0.087602
0.873671 0.256245 0.0831464
0.075227 0.120089 0.0794995
0.0753643 0.120272 0.0784466
0.0898146 0.128817 0.0816358
0.1093 0.13315 0.0851759
0.12604 0.132967 0.0886091
0.141955 0.137224 0.0894789
0.163241 0.142275 0.0906844
0.183413 0.14168 0.0927901
0.202518 0.142367 0.0937972
0.219608 0.143099 0.0954299
0.241871 0.147097 0.0985885
0.268055 0.153887 0.10135
0.294743 0.161364 0.102876
0.32108 0.167834 0.104173
0.348638 0.174777 0.104417
0.376822 0.181521 0.10425
0.407355 0.188098 0.103792
0.439094 0.194903 0.102464
0.470985 0.201801 0.100282
0.504158 0.209155 0.0970321
0.538201 0.216678 0.0930343
0.573831 0.224887 0.0877546
0.606729 0.232181 0.0827802
0.638544 0.238437 0.0787213
0.671427 0.244907 0.0742199
0.703944 0.249241 0.0722057
0.736156 0.251469 0.0729686
0.767285 0.253758 0.0742504
0.795178 0.254948 0.0778058
0.821256 0.257389 0.07776
0.848142 0.259098 0.078706
0.874617 0.261097 0.0766766
0.894453 0.265995 0.0720989
0.0784619 0.133837 0.0822461
0.0784924 0.133211 0.0818952
0.0959029 0.143709 0.0848096
0.117586 0.150317 0.0869306
0.135058 0.149691 0.0902113
0.153323 0.15198 0.0919814
0.175357 0.15819 0.0922408
0.198398 0.162539 0.0936751
0.218006 0.159686 0.0951247
0.235752 0.157961 0.0953994
0.256687 0.159762 0.0962692
0.281102 0.163668 0.0981918
0.306737 0.168582 0.100145
0.336706 0.176272 0.100359
0.367193 0.183307 0.10042
0.395758 0.189349 0.10013
0.4262 0.196155 0.0986954
0.458564 0.203052 0.0966964
0.491432 0.210163 0.0938125
0.524849 0.217762 0.0897841
0.55874 0.225727 0.0847334
0.593133 0.233783 0.079118
0.625269 0.240925 0.073991
0.657389 0.247364 0.0694133
0.687984 0.2542 0.0640726
0.720302 0.259495 0.0606699
0.75523 0.262974 0.0599069
0.784375 0.265461 0.0610971
0.812451 0.269169 0.0636606
0.838712 0.273579 0.0637522
0.864958 0.274571 0.0660258
0.892149 0.275212 0.0647898
0.918486 0.27747 0.0599832
0.0804761 0.145403 0.0843671
0.081178 0.144884 0.0843214
0.10042 0.153765 0.0863355
0.123507 0.162997 0.0876478
0.143114 0.164706 0.0899825
0.162844 0.166384 0.092546
0.189883 0.174685 0.0911574
0.214832 0.181704 0.0917372
0.233661 0.180468 0.0934615
0.251789 0.175387 0.094728
0.273167 0.175219 0.0945296
0.294621 0.176196 0.0946059
0.320134 0.179019 0.095552
0.349783 0.184649 0.096025
0.379385 0.190799 0.0957809
0.410101 0.197513 0.0945602
0.443244 0.204913 0.0922713
0.477195 0.212604 0.0890059
0.512078 0.220584 0.0848096
0.545785 0.228595 0.0798199
0.578134 0.236576 0.0741741
0.61265 0.243687 0.0693217
0.644755 0.250156 0.0647135
0.676219 0.256947 0.0594949
0.706081 0.263462 0.0543832
0.737362 0.268559 0.0510109
0.772015 0.272007 0.050309
0.80116 0.275334 0.0516213
0.828855 0.280537 0.0533761
0.853605 0.284306 0.05449
0.88011 0.286564 0.0555581
0.905348 0.289326 0.0533455
0.934905 0.291341 0.0478676
0.0818494 0.156542 0.0860151
0.0852064 0.157595 0.0862287
0.105318 0.166644 0.0875105
0.129213 0.176425 0.087892
0.151644 0.1832 0.087953
0.173571 0.183566 0.0905623
0.197024 0.1888 0.0896468
0.227771 0.197177 0.0889754
0.254719 0.205173 0.0885176
0.273304 0.202625 0.0898299
0.291417 0.195789 0.0916152
0.312398 0.19408 0.0911879
0.337057 0.195682 0.0901656
0.364645 0.198749 0.0892042
0.392615 0.202579 0.0882887
0.42298 0.207309 0.0873426
0.457374 0.214359 0.0847028
0.4934 0.222721 0.0803693
0.530602 0.231266 0.0752117
0.565911 0.239704 0.0694285
0.598199 0.247105 0.0640726
0.631846 0.254078 0.0590372
0.662974 0.2607 0.0539101
0.692714 0.267323 0.0486305
0.723857 0.273762 0.0436713
0.755001 0.277775 0.0414435
0.790494 0.281315 0.0410925
0.817563 0.285206 0.0432898
0.843 0.290547 0.043534
0.866163 0.293202 0.0454414
0.893446 0.296208 0.0465553
0.919676 0.29958 0.0433814
0.948089 0.301244 0.0381933
0.0827649 0.16965 0.0872816
0.0910048 0.172702 0.0875868
0.110994 0.182071 0.0878767
0.133577 0.189685 0.0873426
0.157778 0.196582 0.0860914
0.183291 0.201083 0.0857404
0.206592 0.205432 0.0850996
0.237583 0.215717 0.082948
0.268467 0.224369 0.082002
0.296574 0.231006 0.080705
0.315831 0.226184 0.082948
0.334081 0.218631 0.0851148
0.358328 0.2168 0.0840162
0.38471 0.217273 0.082063
0.411627 0.219226 0.0801556
0.440726 0.222553 0.0779583
0.473274 0.226947 0.0753338
0.508888 0.233707 0.0711986
0.5467 0.242573 0.0652018
0.583474 0.251133 0.0589914
0.617121 0.258335 0.0535744
0.650446 0.265736 0.0477607
0.681666 0.273136 0.0417945
0.711589 0.279149 0.0370336
0.742275 0.284459 0.033051
0.7738 0.288426 0.0311589
0.805707 0.292058 0.0318761
0.83241 0.296757 0.0332494
0.858595 0.300633 0.0352636
0.883619 0.302846 0.0376745
0.908797 0.30634 0.0366064
0.933989 0.308812 0.0314031
0.964523 0.31017 0.0285191
0.0829938 0.182971 0.0878309
0.0961166 0.18732 0.0878767
0.116945 0.196658 0.0872053
0.138186 0.20235 0.0861067
0.163851 0.209567 0.0840467
0.189456 0.218296 0.0810559
0.215854 0.224216 0.0784161
0.242435 0.231846 0.0754711
0.276905 0.241428 0.0740978
0.309422 0.250965 0.0717174
0.338094 0.255833 0.0702525
0.35874 0.250599 0.0724956
0.379034 0.243214 0.074815
0.403449 0.239246 0.0742504
0.43209 0.240284 0.0713512
0.461051 0.241779 0.0685283
0.491661 0.243992 0.0654765
0.525032 0.248798 0.0611276
0.559838 0.255055 0.0557412
0.596094 0.262699 0.0495613
0.631296 0.270329 0.0433814
0.666178 0.277958 0.0370336
0.699397 0.285664 0.0306554
0.729259 0.291463 0.025864
0.759243 0.296284 0.0221103
0.792325 0.300633 0.0198672
0.821256 0.304036 0.0221714
0.847852 0.308598 0.0246738
0.87248 0.31043 0.0277256
0.897566 0.312261 0.0289311
0.922942 0.315511 0.0273747
0.948257 0.318608 0.0202792
0.979507 0.320516 0.0154421
0.0834211 0.19559 0.0877852
0.0991379 0.202701 0.0871595
0.121019 0.209842 0.0858167
0.144884 0.217319 0.0836957
0.170123 0.225101 0.0807202
0.196597 0.235187 0.0764172
0.223606 0.242374 0.0720378
0.249119 0.248768 0.0680858
0.283223 0.258381 0.065095
0.317556 0.267506 0.0627604
0.348882 0.275364 0.0601358
0.380743 0.281956 0.0566873
0.402472 0.277058 0.0590066
0.422751 0.267079 0.0627604
0.451774 0.263844 0.0614328
0.482338 0.263844 0.0582895
0.512108 0.265538 0.0547646
0.543755 0.26865 0.0504311
0.576547 0.272587 0.0456397
0.610117 0.278462 0.0398718
0.643931 0.283558 0.0343938
0.678386 0.289723 0.0283665
0.711727 0.297581 0.0217288
0.742702 0.303578 0.0163882
0.773816 0.308797 0.0118563
0.805783 0.312566 0.00926223
0.837827 0.316228 0.010132
0.862882 0.320409 0.0137026
0.887236 0.322576 0.0170443
0.91165 0.324086 0.018204
0.937499 0.325841 0.0180362
0.962814 0.327779 0.0114137
0.992844 0.330037 0.00454719
0.0856031 0.209552 0.0869459
0.103593 0.217426 0.0855268
0.125734 0.225101 0.0833295
0.152438 0.233631 0.0799878
0.178317 0.242786 0.0758221
0.204273 0.251972 0.0708324
0.23267 0.259571 0.0654459
0.260105 0.26685 0.0598917
0.289876 0.27602 0.0549935
0.326192 0.28574 0.0517739
0.359716 0.29453 0.0486305
0.391379 0.302129 0.0449531
0.42211 0.310277 0.0403449
0.445518 0.304509 0.0431525
0.470207 0.293019 0.0479438
0.499809 0.289097 0.0468757
0.530205 0.289998 0.0429541
0.562036 0.291249 0.0391546
0.59498 0.294179 0.0344701
0.627161 0.298375 0.0292821
0.65893 0.300984 0.0248112
0.690974 0.304646 0.0198825
0.722652 0.310521 0.0141146
0.754253 0.315541 0.00881971
0.785168 0.321477 0.0034638
0.814649 0.325917 0
0.850385 0.329397 0
0.877424 0.332357 0
0.901793 0.334981 0.00355535
0.927169 0.335531 0.00537118
0.953368 0.337484 0.00430304
0.97734 0.338308 9.15541e-05
1 0.340612 0
0.0899062 0.225406 0.0849775
0.109346 0.23125 0.0831006
0.132692 0.240742 0.0796979
0.159869 0.248554 0.0757458
0.186404 0.258808 0.0703441
0.212238 0.268391 0.0644694
0.240681 0.276493 0.0582132
0.269093 0.284077 0.0516518
0.297566 0.293095 0.0461128
0.331594 0.302831 0.0407721
0.368658 0.313039 0.0365148
0.402228 0.320317 0.033402
0.433646 0.332006 0.0266575
0.466468 0.339834 0.0219425
0.492256 0.332723 0.0255589
0.516899 0.321401 0.0304112
0.547936 0.31632 0.0302739
0.581033 0.315999 0.0267948
0.613748 0.318135 0.0222324
0.645121 0.32079 0.0177768
0.675502 0.322469 0.0138399
0.706355 0.324666 0.00965896
0.736294 0.327626 0.00535592
0.764965 0.330724 0.00112917
0.793256 0.334539 0
0.822614 0.339849 0
0.858137 0.344732 0
0.88751 0.345968 0
0.915099 0.346761 0
0.941756 0.347204 0
0.967651 0.349523 0
0.99025 0.349355 0
1 0.353216 0
0.0982223 0.241291 0.0818036
0.117861 0.2477 0.0791028
0.141909 0.256428 0.0750439
0.169162 0.263981 0.0703288
0.194903 0.274449 0.0641337
0.221088 0.283284 0.0578317
0.247105 0.292729 0.0507668
0.276753 0.300633 0.0441138
0.304982 0.309194 0.0376593
0.336996 0.318914 0.0298466
0.373526 0.330556 0.0240787
0.411215 0.340673 0.0197604
0.44506 0.349737 0.0150759
0.478386 0.361669 0.00810254
0.510475 0.369924 0.002533
0.536934 0.36321 0.00607309
0.56553 0.350179 0.0129091
0.598047 0.344762 0.0132753
0.629938 0.345144 0.00936904
0.661463 0.345724 0.00569161
0.691341 0.34612 0.00225834
0.721386 0.347219 0
0.749981 0.34931 0
0.777325 0.351278 0
0.80383 0.353002 0
0.831586 0.355322 0
0.86276 0.359106 0
0.893477 0.360525 0
0.925566 0.360983 0
0.950896 0.362005 0
0.976074 0.36318 0
0.998032 0.36231 0
1 0.365011 0
0.109407 0.257572 0.077348
0.127886 0.261952 0.0746624
0.1523 0.270542 0.0698253
0.178592 0.279789 0.0639658
0.202106 0.289097 0.0577707
0.229282 0.297978 0.050782
0.254917 0.307958 0.0430457
0.284504 0.316716 0.0361639
0.313954 0.325475 0.0274815
0.344503 0.334676 0.0186465
0.377646 0.34699 0.01149
0.415656 0.358572 0.00706493
0.453925 0.368872 0.00213626
0.486671 0.379034 0
0.521004 0.394614 0
0.554543 0.403967 0
0.583139 0.395407 0
0.611399 0.381857 0
0.643229 0.375692 0
0.676036 0.374075 0
0.706874 0.37319 0
0.736324 0.372992 0
0.763821 0.374456 0
0.790982 0.375753 0
0.816922 0.376226 0
0.842786 0.375967 0
0.869368 0.375631 0
0.896574 0.375555 0
0.930083 0.376654 0
0.953597 0.37789 0
0.977844 0.377432 0
1 0.376364 0
1 0.374914 0
0.119341 0.276448 0.0710765
0.138628 0.277256 0.0689708
0.162051 0.285298 0.0637369
0.186801 0.294911 0.0572671
0.209873 0.30309 0.0510567
0.237903 0.313146 0.0429694
0.264881 0.322713 0.0348058
0.29247 0.332753 0.0266117
0.32285 0.341955 0.0175479
0.352117 0.35137 0.00817884
0.382528 0.362737 0
0.420508 0.374929 0
0.458625 0.387976 0
0.495521 0.399435 0
0.528786 0.412909 0
0.56408 0.430488 0
0.596994 0.439582 0
0.624979 0.430655 0
0.656275 0.415427 0
0.689464 0.407706 0
0.720913 0.405173 0
0.749874 0.403342 0
0.776303 0.403281 0
0.802792 0.402884 0
0.828687 0.401389 0
0.853986 0.400519 0
0.879286 0.397848 0
0.902632 0.395346 0
0.930892 0.393698 0
0.955535 0.394171 0
0.981857 0.391272 0
1 0.389685 0
1 0.387457 0
0.125933 0.297871 0.0630655
0.147906 0.298604 0.0603494
0.169467 0.305074 0.0552377
0.193866 0.313909 0.0484627
0.219745 0.321553 0.0416114
0.246342 0.330755 0.0335851
0.274418 0.338857 0.0255741
0.301137 0.348363 0.0171969
0.329259 0.358144 0.00863661
0.358862 0.368383 0
0.389639 0.379431 0
0.424338 0.391653 0
0.462013 0.406516 0
0.500572 0.419593 0
0.536629 0.432258 0
0.569787 0.447242 0
0.603632 0.467491 0
0.636622 0.478355 0
0.667918 0.466636 0
0.699748 0.449973 0
0.730266 0.441886 0
0.758206 0.437568 0
0.786282 0.435584 0
0.813703 0.433188 0
0.838849 0.429786 0
0.863951 0.427115 0
0.889036 0.424292 0
0.913436 0.421042 0
0.935805 0.415656 0
0.962631 0.411963 0
0.991638 0.406958 0
1 0.404196 0
1 0.403418 0
0.128023 0.321218 0.053666
0.150484 0.322454 0.0503395
0.173632 0.328832 0.0445106
0.199023 0.337102 0.0372473
0.227268 0.34493 0.029633
0.253086 0.352697 0.0225681
0.281285 0.35848 0.0166781
0.308034 0.364416 0.0103914
0.33576 0.373831 0.00134279
0.364736 0.384848 0
0.396033 0.396277 0
0.427787 0.40856 0
0.463218 0.423331 0
0.501961 0.438361 0
0.541802 0.453422 0
0.577264 0.467369 0
0.607736 0.484428 0
0.641123 0.50663 0
0.675334 0.516213 0
0.705409 0.504189 0
0.735531 0.487587 0
0.765225 0.476295 0
0.793927 0.470008 0
0.821591 0.466529 0
0.846784 0.461357 0
0.87454 0.456718 0
0.898283 0.453117 0
0.923644 0.448676 0
0.9458 0.442252 0
0.972992 0.433967 0
1 0.428779 0
1 0.422095 0
1 0.419501 0
0.125887 0.347677 0.0424048
0.150408 0.349783 0.0380865
0.175692 0.35494 0.0328069
0.203281 0.36054 0.0262303
0.233234 0.368536 0.0190585
0.260334 0.373861 0.0146334
0.28719 0.378119 0.0115969
0.314595 0.38117 0.00671397
0.343206 0.389136 0
0.371145 0.401877 0
0.401312 0.414191 0
0.432929 0.426352 0
0.465339 0.440406 0
0.502754 0.456153 0
0.542748 0.473365 0
0.58172 0.490898 0
0.614008 0.50457 0
0.643687 0.522438 0
0.677531 0.547478 0
0.708644 0.558114 0
0.737957 0.54493 0
0.770367 0.524651 0
0.798428 0.50988 0
0.826032 0.502495 0
0.852567 0.496117 0
0.88188 0.489738 0
0.906249 0.48336 0
0.931456 0.477516 0
0.95552 0.470283 0
0.982101 0.46154 0
1 0.454932 0
1 0.444923 0
1 0.439979 0
0.123522 0.372229 0.0331121
0.15108 0.374212 0.0281987
0.178759 0.377295 0.0250248
0.207416 0.381384 0.0199435
0.23856 0.386175 0.0161593
0.26775 0.390005 0.0128023
0.294102 0.393957 0.0105592
0.321981 0.397009 0.00598154
0.34995 0.404623 0
0.37821 0.416846 0
0.409506 0.430335 0
0.439857 0.444007 0
0.469871 0.457893 0
0.505043 0.473259 0
0.543374 0.492332 0
0.581872 0.511406 0
0.61976 0.528084 0
0.650416 0.543114 0
0.678843 0.56405 0
0.710201 0.58999 0
0.737865 0.598764 0
0.767514 0.583535 0
0.800198 0.561837 0
0.830884 0.545403 0
0.857053 0.534997 0
0.883635 0.526238 0
0.910521 0.518441 0
0.936461 0.509941 0
0.964096 0.499718 0
0.990951 0.490715 0
1 0.481376 0
1 0.472435 0
1 0.467521 0
0.127214 0.386969 0.0323949
0.154711 0.388708 0.0276341
0.183597 0.392355 0.024918
0.213977 0.395682 0.0214084
0.243565 0.398367 0.0204318
0.274891 0.403342 0.0156405
0.30164 0.40885 0.0124666
0.328099 0.413321 0.00782788
0.355016 0.419852 0.00224308
0.38497 0.431693 0
0.416312 0.445075 0
0.447074 0.459632 0
0.476234 0.4748 0
0.508385 0.490364 0
0.544152 0.509316 0
0.582223 0.529168 0
0.619684 0.548318 0
0.653788 0.567498 0
0.682963 0.584741 0
0.708995 0.605982 0
0.736904 0.630304 0
0.765835 0.63679 0
0.795682 0.621286 0
0.82884 0.598856 0
0.858198 0.580545 0
0.886213 0.565896 0
0.913054 0.557351 0
0.941451 0.54641 0
0.970672 0.533486 0
0.997894 0.52221 0
1 0.511803 0
1 0.502693 0
1 0.497719 0
0.135958 0.398871 0.0364691
0.163043 0.401495 0.0313268
0.188632 0.405554 0.0285954
0.219272 0.409964 0.0244297
0.249577 0.412177 0.0240177
0.279774 0.416754 0.0221866
0.309163 0.422309 0.0170901
0.335607 0.428458 0.0133974
0.362692 0.434531 0.00883497
0.391623 0.446708 0
0.421607 0.460914 0
0.452995 0.476646 0
0.48278 0.491249 0
0.51342 0.505943 0
0.547005 0.523827 0
0.58381 0.544305 0
0.620233 0.566171 0
0.655039 0.587869 0
0.687419 0.60763 0
0.711955 0.624262 0
0.735973 0.645029 0
0.765698 0.669978 0
0.790494 0.67364 0
0.819486 0.655756 0
0.854429 0.633921 0
0.887236 0.611032 0
0.913741 0.595453 0
0.94342 0.583108 0
0.974716 0.5691 0
1 0.555596 0
1 0.54284 0
1 0.534035 0
1 0.530968 0
0.144976 0.409705 0.0419318
0.170733 0.414038 0.0363317
0.196841 0.416266 0.0331426
0.227619 0.420142 0.0297246
0.256489 0.424994 0.0264744
0.285252 0.429465 0.0249027
0.314244 0.436622 0.0213016
0.342718 0.442451 0.0191043
0.369909 0.451026 0.0137789
0.397894 0.460349 0.00556954
0.426337 0.4748 0
0.457389 0.491829 0
0.487953 0.507622 0
0.518944 0.522225 0
0.550851 0.540261 0
0.585962 0.561913 0
0.621454 0.583429 0
0.655436 0.604959 0
0.688273 0.626566 0
0.716136 0.644587 0
0.738293 0.660838 0
0.760784 0.684016 0
0.78616 0.706722 0
0.808515 0.706508 0
0.840604 0.688655 0
0.87866 0.662074 0
0.912169 0.636255 0
0.944198 0.618631 0
0.974075 0.604257 0
1 0.590768 0
1 0.578408 0
1 0.569787 0
1 0.565179 0
0.152209 0.430289 0.0365606
0.177935 0.430381 0.0330358
0.203494 0.43444 0.0304723
0.234897 0.436866 0.028687
0.262882 0.443229 0.0260624
0.291722 0.448936 0.0257877
0.321202 0.45594 0.0209201
0.350591 0.461204 0.0185702
0.377523 0.470359 0.0141146
0.404929 0.479362 0.0078584
0.434607 0.493004 0
0.463584 0.509407 0
0.495277 0.52546 0
0.526207 0.543191 0
0.556497 0.561578 0
0.587777 0.580148 0
0.620966 0.599817 0
0.655512 0.621759 0
0.688212 0.644053 0
0.718029 0.664546 0
0.741711 0.682353 0
0.75967 0.698558 0
0.781521 0.720562 0
0.805997 0.737667 0
0.831922 0.734844 0
0.863096 0.716075 0
0.905058 0.68632 0
0.941207 0.659388 0
0.973098 0.641428 0
0.99205 0.627985 0
0.996933 0.616312 0
0.998856 0.609964 0
1 0.601083 0
0.153689 0.477043 0.00570687
0.176425 0.473716 0.00474556
0.208301 0.474617 0.00303655
0.236789 0.481788 0
0.267353 0.486534 0
0.296544 0.493736 0
0.325383 0.498268 0
0.355657 0.505608 0
0.384344 0.513359 0
0.413123 0.520699 0
0.44181 0.529702 0
0.470207 0.545357 0
0.500237 0.561746 0
0.530831 0.577493 0
0.559655 0.593622 0
0.588083 0.611139 0
0.61912 0.628519 0
0.651392 0.646754 0
0.683253 0.667613 0
0.714641 0.68751 0
0.74229 0.705333 0
0.762402 0.720195 0
0.77908 0.732631 0
0.802228 0.751873 0
0.82594 0.766171 0
0.850874 0.761288 0
0.886458 0.738323 0
0.930938 0.708812 0
0.968063 0.679561 0
0.983688 0.663081 0
0.983108 0.654032 0
0.988373 0.645136 0
0.992706 0.635874 0
0.160891 0.533028 0
0.186633 0.527092 0
0.214466 0.531289 0
0.241657 0.538186 0
0.270604 0.542367 0
0.300801 0.549371 0
0.332509 0.55201 0
0.361044 0.559625 0
0.390188 0.567498 0
