example-Advanced/bin/data/Shaders/ofxPostProcessing/luts/5.cube
TITLE "Generate by Resolve"
LUT_3D_SIZE 9
0.0105745 0.0108644 0.011368
0.064622 0.0548257 0.0544442
0.138552 0.0929274 0.0880446
0.228946 0.124071 0.110918
0.325811 0.14876 0.125322
0.441459 0.168658 0.136904
0.566384 0.186542 0.140993
0.686915 0.203235 0.137682
0.81268 0.218616 0.133211
0.0626535 0.0856031 0.066743
0.102846 0.100908 0.0782177
0.176715 0.118379 0.0919661
0.266941 0.146059 0.107134
0.373129 0.173632 0.11162
0.503899 0.198688 0.110048
0.631968 0.219333 0.103441
0.750591 0.232441 0.101411
0.858351 0.246464 0.0953384
0.0804761 0.145403 0.0843671
0.143114 0.164706 0.0899825
0.233661 0.180468 0.0934615
0.320134 0.179019 0.095552
0.443244 0.204913 0.0922713
0.578134 0.236576 0.0741741
0.706081 0.263462 0.0543832
0.828855 0.280537 0.0533761
0.934905 0.291341 0.0478676
0.0834211 0.19559 0.0877852
0.170123 0.225101 0.0807202
0.283223 0.258381 0.065095
0.402472 0.277058 0.0590066
0.512108 0.265538 0.0547646
0.643931 0.283558 0.0343938
0.773816 0.308797 0.0118563
0.887236 0.322576 0.0170443
0.992844 0.330037 0.00454719
0.109407 0.257572 0.077348
0.202106 0.289097 0.0577707
0.313954 0.325475 0.0274815
0.453925 0.368872 0.00213626
0.583139 0.395407 0
0.706874 0.37319 0
0.816922 0.376226 0
0.930083 0.376654 0
1 0.374914 0
0.125887 0.347677 0.0424048
0.233234 0.368536 0.0190585
0.343206 0.389136 0
0.465339 0.440406 0
0.614008 0.50457 0
0.737957 0.54493 0
0.852567 0.496117 0
0.95552 0.470283 0
1 0.439979 0
0.144976 0.409705 0.0419318
0.256489 0.424994 0.0264744
0.369909 0.451026 0.0137789
0.487953 0.507622 0
0.621454 0.583429 0
0.738293 0.660838 0
0.840604 0.688655 0
0.974075 0.604257 0
1 0.565179 0
0.189014 0.571725 0
0.278218 0.594903 0
0.393133 0.624186 0
0.504021 0.650614 0
0.620508 0.699092 0
0.729885 0.749279 0
0.816388 0.793378 0
0.930922 0.783612 0
0.97525 0.703792 0
0.228275 0.762539 0
0.292988 0.771847 0
0.378592 0.795956 0
0.483238 0.830137 0
0.599756 0.863066 0
0.706004 0.877913 0
0.800809 0.884718 0
0.893065 0.900343 0
0.946487 0.872038 0
0.0471351 0.0562905 0.0604715
0.105714 0.0827802 0.0905776
0.180423 0.112016 0.118456
0.264805 0.135027 0.137377
0.363165 0.154467 0.150622
0.480095 0.171801 0.157641
0.602411 0.18703 0.159854
0.716548 0.199329 0.159579
0.822614 0.213519 0.14519
0.0634775 0.0855116 0.0862287
0.10338 0.108553 0.110933
0.198032 0.144305 0.139147
0.291096 0.162142 0.148547
0.391959 0.175357 0.156069
0.514076 0.193133 0.160067
0.644465 0.211536 0.159808
0.760021 0.225162 0.159854
0.879118 0.234852 0.146685
0.0824903 0.160845 0.12369
0.102129 0.188998 0.119142
0.248615 0.200214 0.121462
0.346197 0.20119 0.127535
0.461189 0.227893 0.128496
0.590723 0.255268 0.120424
0.719951 0.276921 0.115465
0.827893 0.287724 0.120928
0.935088 0.290043 0.109941
0.0813458 0.207248 0.121126
0.087541 0.257359 0.0940108
0.278019 0.278264 0.0948196
0.410559 0.296025 0.0570687
0.537697 0.285512 0.0523995
0.668147 0.307378 0.040589
0.783825 0.33167 0.0496681
0.883513 0.350393 0.0647898
0.980819 0.357488 0.0598459
0.0751659 0.245319 0.114565
0.113634 0.331075 0.0658427
0.299794 0.345373 0.0644541
0.45153 0.389685 0
0.588037 0.415534 0
0.726238 0.394812 0
0.846479 0.394934 0
0.943664 0.400504 0
1 0.399954 0
0.0653239 0.282475 0.118029
0.138888 0.38912 0.0572213
0.319463 0.412894 0.049836
0.454643 0.455695 0.0160525
0.613642 0.526329 0
0.739376 0.564416 0
0.868772 0.519753 0
0.983001 0.482948 0
1 0.463432 0
0.0352636 0.369741 0.112383
0.169116 0.437964 0.0668803
0.341466 0.471611 0.0528267
0.474891 0.518624 0.0324102
0.613352 0.59585 0
0.738933 0.674052 0
0.839597 0.700343 0
0.990967 0.624353 0
1 0.578866 0
0.039353 0.560647 0
0.201114 0.635904 0
0.356008 0.659419 0
0.488579 0.680949 0
0.612177 0.716289 0
0.727184 0.761501 0
0.816892 0.798062 0
0.924834 0.793835 0
0.972412 0.714015 0
0.145312 0.762844 0
0.251667 0.793652 0
0.353933 0.812207 0
0.461295 0.844312 0
0.583307 0.877623 0
0.699229 0.894942 0
0.802991 0.899611 0
0.889586 0.901305 0
0.941894 0.881102 0
0.0703288 0.100832 0.109926
0.113924 0.110323 0.129442
0.243122 0.148074 0.16144
0.342351 0.172671 0.180301
0.441947 0.186389 0.185382
0.550042 0.2 0.188388
0.654521 0.212696 0.192599
0.751965 0.221576 0.191135
0.866392 0.230045 0.175051
0.076463 0.120287 0.126574
0.0934462 0.137041 0.148241
0.248844 0.172366 0.187839
0.34667 0.191638 0.198077
0.451926 0.202213 0.197436
0.56669 0.215564 0.198825
0.672007 0.225025 0.199588
0.769268 0.232288 0.196155
0.878935 0.237827 0.176944
0.0827344 0.16173 0.15935
0.0841993 0.183352 0.179355
0.225711 0.225452 0.222232
0.356878 0.247333 0.232898
0.475166 0.254551 0.225895
0.598367 0.263478 0.219013
0.711742 0.269902 0.213993
0.814115 0.277501 0.207294
0.92488 0.281758 0.185229
0.0686656 0.261219 0.215702
0.0686961 0.262852 0.198627
0.180865 0.315251 0.177066
0.408118 0.326116 0.16199
0.533288 0.321447 0.182864
0.654994 0.34641 0.181109
0.769863 0.36405 0.179248
0.874662 0.371893 0.173404
0.974624 0.364385 0.150668
0.0540169 0.307317 0.203464
0.057969 0.298528 0.181125
0.177813 0.380514 0.131624
0.411032 0.409186 0.128954
0.573938 0.438361 0.0730297
0.718456 0.414725 0.0932631
0.830182 0.422217 0.0964828
0.923384 0.433387 0.0988937
1 0.430381 0.0825513
0.0437171 0.334218 0.200214
0.0419928 0.340764 0.177356
0.192203 0.437705 0.117968
0.415656 0.473136 0.116045
0.591653 0.543847 0.0428779
0.727016 0.580392 0
0.858869 0.533303 0.0320134
0.974899 0.500313 0.0209506
1 0.487678 0.0139773
0.036408 0.35082 0.209613
0.0288548 0.376059 0.18233
0.216709 0.487877 0.11812
0.431296 0.535698 0.110597
0.584955 0.602136 0.0796063
0.730785 0.687617 0
0.831418 0.71194 0
0.981292 0.635264 0
1 0.588617 0.0108492
0 0.500404 0.127779
0 0.577173 0.00480659
0.25304 0.692622 0
0.442847 0.715007 0.0116274
0.585702 0.732021 0.0382849
0.713527 0.772396 0.00260929
0.815122 0.808011 0
0.91812 0.803006 0
0.964599 0.724407 0.0247654
0 0.769177 0
0.0693065 0.785748 0
0.295171 0.827161 0
0.422477 0.853925 0
0.558267 0.905501 0
0.682612 0.910307 0
0.793881 0.91249 0
0.89099 0.9075 0
0.939925 0.892912 0
0.0821698 0.15198 0.167163
0.11928 0.158267 0.181384
0.266682 0.185351 0.217563
0.410163 0.21268 0.212879
0.524422 0.229755 0.215518
0.625315 0.239979 0.214771
0.715236 0.248798 0.215106
0.798306 0.255253 0.211765
0.895918 0.260426 0.195804
0.082887 0.163821 0.176883
0.0835431 0.178408 0.197635
0.215824 0.19295 0.241993
0.409003 0.237003 0.242313
0.526833 0.249577 0.239017
0.632792 0.257008 0.234562
0.724895 0.26215 0.231739
0.809583 0.265873 0.225483
0.909285 0.267536 0.203983
0.0818341 0.194064 0.203098
0.0793011 0.212329 0.223819
0.167483 0.249973 0.274739
0.395544 0.27863 0.28571
0.519356 0.290105 0.278126
0.63917 0.294118 0.266392
0.738064 0.293233 0.257221
0.826246 0.290867 0.246387
0.92723 0.286717 0.220264
0.0721904 0.245121 0.241062
0.0642405 0.271321 0.263172
0.130861 0.317494 0.305226
0.347158 0.34992 0.328283
0.505272 0.366873 0.328908
0.645304 0.377569 0.316594
0.765484 0.375738 0.302129
0.864225 0.370413 0.281758
0.965499 0.354192 0.247517
0.0317388 0.352117 0.303899
0.0172732 0.383093 0.314061
0.066041 0.394507 0.29456
0.29749 0.437537 0.25803
0.547219 0.464805 0.228824
0.685283 0.456168 0.270085
0.79501 0.474998 0.265415
0.89369 0.48632 0.256962
0.996963 0.465095 0.223941
0 0.449668 0.334691
0.00196841 0.417746 0.290715
0.0638895 0.429725 0.26659
0.283757 0.498009 0.217762
0.533654 0.551171 0.206928
0.704524 0.596689 0.141451
0.834821 0.553643 0.185443
0.937606 0.539803 0.17116
1 0.521096 0.15877
0 0.450706 0.306859
0 0.42858 0.279332
0.0794995 0.456275 0.259937
0.297566 0.558816 0.195331
0.535027 0.614557 0.197421
0.704326 0.694194 0.133944
0.816083 0.722972 0.0732433
0.961334 0.647211 0.0879225
1 0.601175 0.118791
0 0.582467 0.247623
0 0.577752 0.203677
0 0.680308 0.0408179
0.328161 0.746181 0.0479896
0.541222 0.760693 0.116136
0.68687 0.781765 0.129854
0.805936 0.817685 0.0831769
0.908446 0.81088 0
0.964767 0.733532 0.133013
0 0.802213 0.0809949
0 0.811154 0
0.0818952 0.823407 0
0.345373 0.915206 0
0.511986 0.941985 0
0.658335 0.932647 0.0552987
0.776791 0.925307 0.0482948
0.888258 0.916167 0
0.937819 0.902922 0
0.0804303 0.20412 0.227466
0.108965 0.21033 0.237217
0.235981 0.22504 0.275944
0.411597 0.2654 0.26891
0.588464 0.272648 0.228
0.694362 0.283711 0.221378
0.77319 0.292943 0.222339
0.849363 0.298497 0.216022
0.931762 0.299214 0.201968
0.0800183 0.20705 0.228489
0.0757916 0.228061 0.257694
0.190692 0.250324 0.29543
0.395361 0.278645 0.303212
0.582757 0.29308 0.259724
0.694148 0.304341 0.252293
0.777813 0.309636 0.24918
0.853834 0.311376 0.242466
0.937942 0.30779 0.219516
0.0737163 0.237278 0.257481
0.069398 0.252567 0.275456
0.130632 0.287556 0.327291
0.342306 0.291829 0.356069
0.56524 0.330587 0.309361
0.686122 0.340627 0.301381
0.778271 0.3411 0.292897
0.858686 0.335729 0.277485
0.949813 0.32488 0.248478
0.0637675 0.270405 0.286931
0.0551156 0.293339 0.311925
0.0956588 0.3299 0.353719
0.277974 0.367361 0.407401
0.532525 0.38912 0.37464
0.669108 0.401892 0.366537
0.778546 0.398245 0.350835
0.869871 0.385321 0.326162
0.963775 0.361898 0.285069
0.0392767 0.331548 0.33341
0.0266423 0.35848 0.354574
0.0280766 0.401114 0.390356
0.225299 0.453849 0.435386
0.476432 0.483131 0.431205
0.640101 0.499092 0.4365
0.770459 0.505898 0.425422
0.877134 0.498894 0.40119
0.985046 0.461418 0.351247
0 0.453346 0.408927
0 0.492454 0.425666
0 0.534401 0.442985
0.154223 0.534966 0.409583
0.427283 0.568261 0.365469
0.668406 0.614984 0.322942
0.790127 0.597955 0.376013
0.888792 0.606546 0.366583
0.995178 0.581292 0.337606
0 0.599496 0.492302
0 0.587976 0.460441
0 0.554665 0.404105
0.165362 0.564233 0.360662
0.414923 0.640528 0.312001
0.65243 0.694545 0.312367
0.795254 0.734173 0.235599
0.928481 0.668498 0.269474
0.990707 0.631724 0.261204
0 0.693751 0.451713
0 0.673823 0.375311
0 0.687617 0.300908
0.0780652 0.754101 0.159991
0.429313 0.791897 0.18201
0.645426 0.79556 0.260227
0.782635 0.823117 0.25594
0.893721 0.819821 0.169787
0.962463 0.747539 0.269841
0 0.851972 0.327764
0 0.849485 0.243488
0 0.860609 0.147616
0.0345464 0.985183 0
0.422415 0.976791 0.00779736
0.616632 0.963394 0.146593
0.751858 0.937881 0.214145
0.883528 0.927687 0.162997
0.935439 0.912032 0.125216
0.067628 0.257374 0.289784
0.0838788 0.265095 0.294469
0.216785 0.290196 0.32752
0.402686 0.312917 0.327199
0.579812 0.330098 0.283879
0.738048 0.325948 0.234195
0.817182 0.339025 0.259419
0.876112 0.343938 0.270268
0.94435 0.339666 0.261128
0.0675669 0.25742 0.291264
0.0589456 0.281086 0.325856
0.16878 0.301686 0.350179
0.359075 0.306279 0.369894
0.55436 0.344884 0.3252
0.728145 0.344121 0.287678
0.80972 0.354665 0.304097
0.875593 0.355871 0.304051
0.949111 0.349248 0.287312
0.0594186 0.28069 0.31603
0.0539406 0.29427 0.334707
0.0925612 0.330022 0.387991
0.285359 0.340551 0.41561
0.517174 0.370947 0.387762
0.708782 0.37792 0.354742
0.797101 0.385458 0.360555
0.871992 0.382559 0.350057
0.951782 0.367285 0.320836
0.0471351 0.310811 0.347601
0.0371252 0.332723 0.372381
0.0575265 0.361486 0.410117
0.233997 0.402243 0.484138
0.468635 0.392782 0.476982
0.679484 0.43267 0.43241
0.782284 0.440864 0.431037
0.86949 0.430747 0.40824
0.959014 0.402777 0.365545
0.0288548 0.350393 0.385962
0.0157321 0.37612 0.415976
0.00534066 0.411353 0.455375
0.200458 0.457938 0.510811
0.401038 0.491142 0.551476
0.644968 0.507958 0.511437
0.764736 0.520409 0.50454
0.866941 0.511498 0.48069
0.962173 0.476066 0.429129
0 0.423789 0.447425
0 0.452094 0.470268
0 0.494255 0.507164
0.119585 0.546715 0.548119
0.355154 0.59379 0.579812
0.607813 0.62472 0.548959
0.751278 0.638025 0.559686
0.863645 0.638193 0.548257
0.966018 0.603204 0.511833
0 0.557595 0.540444
0 0.597559 0.555154
0 0.645304 0.576562
0 0.686 0.594858
0.293706 0.678737 0.541909
0.577478 0.711162 0.487694
0.768688 0.750912 0.451865
0.882673 0.716838 0.492576
0.970459 0.694484 0.481849
0 0.725048 0.63415
0 0.758541 0.639307
0 0.769711 0.593988
0 0.772183 0.505959
0.234073 0.806088 0.375692
0.563561 0.827298 0.375631
0.748516 0.832624 0.443961
0.876387 0.834684 0.369039
0.954314 0.771298 0.443931
0 0.904952 0.649256
0 0.905135 0.569741
0 0.908141 0.470283
0 0.948898 0.329778
0.155245 1 0.117876
0.54107 0.992676 0.220356
0.722881 0.965545 0.347356
0.862837 0.943755 0.361913
0.931533 0.927123 0.316075
0.0449683 0.314748 0.362478
0.0451209 0.320348 0.354635
0.192386 0.339895 0.370123
0.364889 0.359884 0.385199
0.546227 0.385931 0.373297
0.708125 0.388113 0.357321
0.823804 0.375891 0.340825
0.884901 0.386267 0.364843
0.940688 0.384115 0.366735
0.0455329 0.313207 0.36405
0.035935 0.332815 0.399023
0.14023 0.354482 0.409003
0.308309 0.366354 0.433463
0.523873 0.38703 0.424887
0.68333 0.405463 0.40882
0.810575 0.394583 0.389609
0.87657 0.404547 0.406821
0.937453 0.398001 0.400992
0.0394293 0.326238 0.382437
0.0331579 0.338903 0.402609
0.0463874 0.376104 0.465003
0.252995 0.392264 0.492622
0.47454 0.377096 0.507469
0.660578 0.424704 0.470344
0.796155 0.429175 0.457282
0.867704 0.435126 0.467674
0.936538 0.423423 0.447776
0.0247196 0.356085 0.420798
0.0142061 0.376059 0.448981
0.0101472 0.397696 0.479728
0.195117 0.44271 0.568643
0.387793 0.423911 0.577188
0.654917 0.436606 0.556725
0.78732 0.467933 0.529
0.861265 0.478965 0.533013
0.935485 0.460975 0.502327
0.00660716 0.390494 0.464866
0 0.415015 0.49659
0 0.445655 0.530755
0.166155 0.484688 0.585733
0.347127 0.516335 0.658854
0.585657 0.489143 0.650721
0.77821 0.527855 0.605386
0.852476 0.54725 0.600534
0.932158 0.526986 0.560342
0 0.439872 0.520684
0 0.467872 0.548806
0 0.500633 0.58439
0.110597 0.540978 0.629999
0.327092 0.583413 0.672236
0.544671 0.62092 0.697124
0.752956 0.630884 0.669139
0.839963 0.643565 0.658076
0.931212 0.618585 0.616648
0 0.524102 0.589578
0 0.551812 0.609567
0 0.587503 0.636744
0 0.631327 0.672419
0.265705 0.675715 0.699001
0.513542 0.72108 0.709712
0.728298 0.753017 0.695094
0.845914 0.757046 0.694728
0.94403 0.732341 0.668742
0 0.660044 0.689143
0 0.694453 0.700862
0 0.73959 0.716014
0 0.791791 0.73373
0.129305 0.823896 0.726986
0.422889 0.838163 0.639994
0.702846 0.856199 0.613321
0.855955 0.855421 0.600885
0.942763 0.81146 0.620279
0 0.829953 0.771984
0 0.87248 0.776883
0 0.92549 0.777798
0 0.955825 0.719158
0 0.983902 0.603693
0.33518 1 0.408988
0.664012 0.997879 0.450797
0.837461 0.956024 0.544472
0.929473 0.944381 0.515572
0.0140993 0.376059 0.450965
0.0107576 0.384848 0.434226
0.157549 0.398566 0.441779
0.314931 0.419699 0.470481
0.524453 0.416205 0.489647
0.666163 0.448737 0.47924
0.78616 0.448341 0.484337
0.877272 0.432731 0.477684
0.939681 0.441245 0.514397
0.0176394 0.368277 0.452949
0.00396735 0.393118 0.493431
0.0905928 0.407996 0.493385
0.269703 0.418723 0.517006
0.465156 0.406012 0.549447
0.669093 0.436225 0.527916
0.787457 0.45182 0.527886
0.878645 0.44387 0.52311
0.94583 0.448737 0.552712
0.0138399 0.37528 0.464118
0.00399786 0.392828 0.495583
0 0.42739 0.552132
0.219013 0.444373 0.585412
0.391455 0.422644 0.613672
0.661051 0.419806 0.627543
0.796139 0.45069 0.594278
0.888548 0.455253 0.583352
0.95314 0.464271 0.598566
0 0.407095 0.510872
0 0.4224 0.534463
0 0.438315 0.558755
0.148226 0.484123 0.660883
0.343328 0.472587 0.681666
0.576593 0.442084 0.69868
0.801114 0.460334 0.685328
0.901793 0.479194 0.654963
0.959945 0.491279 0.650233
0 0.438636 0.5552
0 0.461158 0.58587
0 0.483314 0.615869
0.120195 0.51458 0.667506
0.305898 0.546349 0.749722
0.500938 0.511254 0.758953
0.76527 0.510643 0.772351
0.903105 0.530495 0.726772
0.957809 0.545251 0.700221
0 0.480476 0.607126
0 0.503273 0.638254
0 0.529458 0.667628
0.063386 0.563104 0.708476
0.286122 0.600229 0.754574
0.495277 0.631174 0.802991
0.707607 0.611185 0.80444
0.885756 0.618082 0.778927
0.941573 0.629313 0.736309
0 0.537408 0.669993
0 0.564584 0.697688
0 0.591119 0.723384
0 0.622126 0.752956
0.247395 0.653696 0.777691
0.478279 0.700099 0.799954
0.687404 0.743435 0.816663
0.852995 0.737789 0.802579
0.919371 0.735088 0.772305
0 0.624704 0.738155
0 0.647272 0.751522
0 0.678813 0.771084
0 0.715404 0.794507
0.15346 0.745129 0.806729
0.414725 0.785519 0.810925
0.660716 0.830869 0.8112
0.828336 0.863325 0.79823
0.934264 0.848066 0.781018
0 0.752789 0.829648
0 0.788479 0.836728
0 0.82742 0.845716
0 0.877882 0.857313
0 0.926207 0.856443
0.293614 0.95903 0.822003
0.536568 1 0.707927
0.80708 0.983658 0.690318
0.927367 0.965148 0.703517
0 0.449424 0.55758
0 0.448722 0.531701
0.1037 0.462348 0.528878
0.27602 0.47393 0.557382
0.437201 0.470359 0.617029
0.676066 0.458381 0.640223
0.799649 0.475151 0.63183
0.889921 0.475898 0.641413
0.96878 0.460395 0.64712
0 0.435691 0.55938
0 0.457221 0.594079
0.0162509 0.464469 0.586633
0.235416 0.477089 0.611551
0.393668 0.468284 0.668223
0.630167 0.448783 0.700191
0.813962 0.457496 0.701076
0.910079 0.466499 0.697353
0.981476 0.463874 0.69575
0 0.435126 0.559579
0 0.454093 0.601785
0 0.482612 0.651377
0.17705 0.496651 0.684916
0.350362 0.4795 0.712871
0.563592 0.450034 0.753048
0.794827 0.457206 0.782055
0.917693 0.464714 0.762631
0.994293 0.466606 0.749798
0 0.463783 0.611124
0 0.474235 0.628977
0 0.487648 0.65745
0.0814832 0.527382 0.747295
0.305013 0.520211 0.777493
0.493996 0.479912 0.802457
0.739925 0.478187 0.833753
0.90988 0.483833 0.834745
1 0.485847 0.805447
0 0.494392 0.657572
0 0.513115 0.683604
0 0.52488 0.702602
0.0519722 0.547478 0.746212
0.256733 0.576898 0.829862
0.455238 0.5505 0.855253
0.680446 0.530343 0.871962
0.884504 0.534417 0.893492
0.998489 0.528008 0.851865
0 0.52845 0.703853
0 0.550042 0.731746
0 0.566979 0.753536
0 0.592386 0.783123
0.237934 0.616236 0.824445
0.449729 0.643992 0.883986
0.643763 0.616083 0.888258
0.846616 0.616632 0.913787
0.983948 0.600824 0.879973
0 0.569345 0.754818
0 0.592477 0.779782
0 0.615488 0.80177
0 0.639765 0.826017
0.195743 0.665629 0.851011
0.430457 0.703319 0.872023
0.645518 0.73611 0.904799
0.812711 0.728008 0.907118
0.960464 0.70219 0.896803
0 0.631479 0.814588
0 0.656489 0.840345
0 0.680186 0.858946
0 0.705486 0.873014
0.139086 0.72195 0.880507
0.387686 0.754742 0.88867
0.621012 0.805508 0.896361
0.808408 0.847791 0.893797
0.931868 0.826627 0.889265
0 0.712596 0.870954
0 0.73875 0.881163
0 0.766293 0.892271
0 0.798611 0.909483
0 0.826368 0.918654
0.311894 0.853239 0.906569
0.568002 0.889143 0.90013
0.774701 0.932921 0.894194
0.908751 0.969009 0.872755
