example-Advanced/bin/data/Shaders/ofxPostProcessing/luts/5.cube
TITLE "Generate by Resolve"
LUT_3D_SIZE 5
0.0105745 0.0108644 0.011368
0.138552 0.0929274 0.0880446
0.325811 0.14876 0.125322
0.566384 0.186542 0.140993
0.81268 0.218616 0.133211
0.0804761 0.145403 0.0843671
0.233661 0.180468 0.0934615
0.443244 0.204913 0.0922713
0.706081 0.263462 0.0543832
0.934905 0.291341 0.0478676
0.109407 0.257572 0.077348
0.313954 0.325475 0.0274815
0.583139 0.395407 0
0.816922 0.376226 0
1 0.374914 0
0.144976 0.409705 0.0419318
0.369909 0.451026 0.0137789
0.621454 0.583429 0
0.840604 0.688655 0
1 0.565179 0
0.228275 0.762539 0
0.378592 0.795956 0
0.599756 0.863066 0
0.800809 0.884718 0
0.946487 0.872038 0
0.0703288 0.100832 0.109926
0.243122 0.148074 0.16144
0.441947 0.186389 0.185382
0.654521 0.212696 0.192599
0.866392 0.230045 0.175051
0.0827344 0.16173 0.15935
0.225711 0.225452 0.222232
0.475166 0.254551 0.225895
0.711742 0.269902 0.213993
0.92488 0.281758 0.185229
0.0540169 0.307317 0.203464
0.177813 0.380514 0.131624
0.573938 0.438361 0.0730297
0.830182 0.422217 0.0964828
1 0.430381 0.0825513
0.036408 0.35082 0.209613
0.216709 0.487877 0.11812
0.584955 0.602136 0.0796063
0.831418 0.71194 0
1 0.588617 0.0108492
0 0.769177 0
0.295171 0.827161 0
0.558267 0.905501 0
0.793881 0.91249 0
0.939925 0.892912 0
0.0804303 0.20412 0.227466
0.235981 0.22504 0.275944
0.588464 0.272648 0.228
0.77319 0.292943 0.222339
0.931762 0.299214 0.201968
0.0737163 0.237278 0.257481
0.130632 0.287556 0.327291
0.56524 0.330587 0.309361
0.778271 0.3411 0.292897
0.949813 0.32488 0.248478
0.0392767 0.331548 0.33341
0.0280766 0.401114 0.390356
0.476432 0.483131 0.431205
0.770459 0.505898 0.425422
0.985046 0.461418 0.351247
0 0.599496 0.492302
0 0.554665 0.404105
0.414923 0.640528 0.312001
0.795254 0.734173 0.235599
0.990707 0.631724 0.261204
0 0.851972 0.327764
0 0.860609 0.147616
0.422415 0.976791 0.00779736
0.751858 0.937881 0.214145
0.935439 0.912032 0.125216
0.0449683 0.314748 0.362478
0.192386 0.339895 0.370123
0.546227 0.385931 0.373297
0.823804 0.375891 0.340825
0.940688 0.384115 0.366735
0.0394293 0.326238 0.382437
0.0463874 0.376104 0.465003
0.47454 0.377096 0.507469
0.796155 0.429175 0.457282
0.936538 0.423423 0.447776
0.00660716 0.390494 0.464866
0 0.445655 0.530755
0.347127 0.516335 0.658854
0.77821 0.527855 0.605386
0.932158 0.526986 0.560342
0 0.524102 0.589578
0 0.587503 0.636744
0.265705 0.675715 0.699001
0.728298 0.753017 0.695094
0.94403 0.732341 0.668742
0 0.829953 0.771984
0 0.92549 0.777798
0 0.983902 0.603693
0.664012 0.997879 0.450797
0.929473 0.944381 0.515572
0 0.449424 0.55758
0.1037 0.462348 0.528878
0.437201 0.470359 0.617029
0.799649 0.475151 0.63183
0.96878 0.460395 0.64712
0 0.435126 0.559579
0 0.482612 0.651377
0.350362 0.4795 0.712871
0.794827 0.457206 0.782055
0.994293 0.466606 0.749798
0 0.494392 0.657572
0 0.52488 0.702602
0.256733 0.576898 0.829862
0.680446 0.530343 0.871962
0.998489 0.528008 0.851865
0 0.569345 0.754818
0 0.615488 0.80177
0.195743 0.665629 0.851011
0.645518 0.73611 0.904799
0.960464 0.70219 0.896803
0 0.712596 0.870954
0 0.766293 0.892271
0 0.826368 0.918654
0.568002 0.889143 0.90013
0.908751 0.969009 0.872755
