example-Advanced/bin/data/ofxGpuLutCube/LUT/Dramatic-11.cube
#Generated by Picture Instruments - Look Creator
TITLE "Agfa Scala 200++"
LUT_3D_SIZE 17
0.105882 0.105882 0.105882
0.105882 0.105882 0.105882
0.105882 0.105882 0.105882
0.109804 0.109804 0.109804
0.109804 0.109804 0.109804
0.113725 0.113725 0.113725
0.117647 0.117647 0.117647
0.12549 0.12549 0.12549
0.133333 0.133333 0.133333
0.14902 0.14902 0.14902
0.168627 0.168627 0.168627
0.196078 0.196078 0.196078
0.231373 0.231373 0.231373
0.278431 0.278431 0.278431
0.329412 0.329412 0.329412
0.388235 0.388235 0.388235
0.443137 0.443137 0.443137
0.105882 0.105882 0.105882
0.109804 0.109804 0.109804
0.109804 0.109804 0.109804
0.109804 0.109804 0.109804
0.113725 0.113725 0.113725
0.117647 0.117647 0.117647
0.121569 0.121569 0.121569
0.129412 0.129412 0.129412
0.141176 0.141176 0.141176
0.156863 0.156863 0.156863
0.180392 0.180392 0.180392
0.207843 0.207843 0.207843
0.243137 0.243137 0.243137
0.286275 0.286275 0.286275
0.337255 0.337255 0.337255
0.396078 0.396078 0.396078
0.454902 0.454902 0.454902
0.109804 0.109804 0.109804
0.109804 0.109804 0.109804
0.113725 0.113725 0.113725
0.113725 0.113725 0.113725
0.121569 0.121569 0.121569
0.12549 0.12549 0.12549
0.129412 0.129412 0.129412
0.141176 0.141176 0.141176
0.152941 0.152941 0.152941
0.172549 0.172549 0.172549
0.196078 0.196078 0.196078
0.223529 0.223529 0.223529
0.262745 0.262745 0.262745
0.305882 0.305882 0.305882
0.356863 0.356863 0.356863
0.411765 0.411765 0.411765
0.466667 0.466667 0.466667
0.113725 0.113725 0.113725
0.113725 0.113725 0.113725
0.117647 0.117647 0.117647
0.121569 0.121569 0.121569
0.129412 0.129412 0.129412
0.137255 0.137255 0.137255
0.14902 0.14902 0.14902
0.160784 0.160784 0.160784
0.176471 0.176471 0.176471
0.196078 0.196078 0.196078
0.223529 0.223529 0.223529
0.25098 0.25098 0.25098
0.290196 0.290196 0.290196
0.333333 0.333333 0.333333
0.384314 0.384314 0.384314
0.439216 0.439216 0.439216
0.494118 0.494118 0.494118
0.12549 0.12549 0.12549
0.12549 0.12549 0.12549
0.129412 0.129412 0.129412
0.133333 0.133333 0.133333
0.141176 0.141176 0.141176
0.160784 0.160784 0.160784
0.176471 0.176471 0.176471
0.192157 0.192157 0.192157
0.215686 0.215686 0.215686
0.235294 0.235294 0.235294
0.258824 0.258824 0.258824
0.290196 0.290196 0.290196
0.32549 0.32549 0.32549
0.368627 0.368627 0.368627
0.419608 0.419608 0.419608
0.47451 0.47451 0.47451
0.529412 0.529412 0.529412
0.145098 0.145098 0.145098
0.14902 0.14902 0.14902
0.145098 0.145098 0.145098
0.152941 0.152941 0.152941
0.164706 0.164706 0.164706
0.180392 0.180392 0.180392
0.211765 0.211765 0.211765
0.231373 0.231373 0.231373
0.254902 0.254902 0.254902
0.282353 0.282353 0.282353
0.309804 0.309804 0.309804
0.337255 0.337255 0.337255
0.376471 0.376471 0.376471
0.415686 0.415686 0.415686
0.462745 0.462745 0.462745
0.517647 0.517647 0.517647
0.572549 0.572549 0.572549
0.180392 0.180392 0.180392
0.180392 0.180392 0.180392
0.180392 0.180392 0.180392
0.184314 0.184314 0.184314
0.196078 0.196078 0.196078
0.211765 0.211765 0.211765
0.235294 0.235294 0.235294
0.27451 0.27451 0.27451
0.301961 0.301961 0.301961
0.329412 0.329412 0.329412
0.360784 0.360784 0.360784
0.396078 0.396078 0.396078
0.431373 0.431373 0.431373
0.470588 0.470588 0.470588
0.517647 0.517647 0.517647
0.568627 0.568627 0.568627
0.619608 0.619608 0.619608
0.227451 0.227451 0.227451
0.227451 0.227451 0.227451
0.231373 0.231373 0.231373
0.231373 0.231373 0.231373
0.239216 0.239216 0.239216
0.254902 0.254902 0.254902
0.278431 0.278431 0.278431
0.305882 0.305882 0.305882
0.345098 0.345098 0.345098
0.384314 0.384314 0.384314
0.411765 0.411765 0.411765
0.447059 0.447059 0.447059
0.486275 0.486275 0.486275
0.533333 0.533333 0.533333
0.576471 0.576471 0.576471
0.623529 0.623529 0.623529
0.666667 0.666667 0.666667
0.286275 0.286275 0.286275
0.286275 0.286275 0.286275
0.290196 0.290196 0.290196
0.286275 0.286275 0.286275
0.290196 0.290196 0.290196
0.305882 0.305882 0.305882
0.32549 0.32549 0.32549
0.352941 0.352941 0.352941
0.380392 0.380392 0.380392
0.415686 0.415686 0.415686
0.466667 0.466667 0.466667
0.501961 0.501961 0.501961
0.541176 0.541176 0.541176
0.584314 0.584314 0.584314
0.631373 0.631373 0.631373
0.67451 0.67451 0.67451
0.709804 0.709804 0.709804
0.352941 0.352941 0.352941
0.352941 0.352941 0.352941
0.352941 0.352941 0.352941
0.352941 0.352941 0.352941
0.352941 0.352941 0.352941
0.360784 0.360784 0.360784
0.380392 0.380392 0.380392
0.403922 0.403922 0.403922
0.431373 0.431373 0.431373
0.462745 0.462745 0.462745
0.498039 0.498039 0.498039
0.556863 0.556863 0.556863
0.592157 0.592157 0.592157
0.631373 0.631373 0.631373
0.670588 0.670588 0.670588
0.713725 0.713725 0.713725
0.752941 0.752941 0.752941
0.431373 0.431373 0.431373
0.431373 0.431373 0.431373
0.431373 0.431373 0.431373
0.427451 0.427451 0.427451
0.427451 0.427451 0.427451
0.431373 0.431373 0.431373
0.447059 0.447059 0.447059
0.470588 0.470588 0.470588
0.494118 0.494118 0.494118
0.521569 0.521569 0.521569
0.552941 0.552941 0.552941
0.584314 0.584314 0.584314
0.643137 0.643137 0.643137
0.678431 0.678431 0.678431
0.713725 0.713725 0.713725
0.752941 0.752941 0.752941
0.788235 0.788235 0.788235
0.513725 0.513725 0.513725
0.513725 0.513725 0.513725
0.513725 0.513725 0.513725
0.513725 0.513725 0.513725
0.509804 0.509804 0.509804
0.509804 0.509804 0.509804
0.521569 0.521569 0.521569
0.541176 0.541176 0.541176
0.560784 0.560784 0.560784
0.588235 0.588235 0.588235
0.611765 0.611765 0.611765
0.639216 0.639216 0.639216
0.666667 0.666667 0.666667
0.721569 0.721569 0.721569
0.752941 0.752941 0.752941
0.788235 0.788235 0.788235
0.823529 0.823529 0.823529
0.603922 0.603922 0.603922
0.6 0.6 0.6
0.6 0.6 0.6
0.6 0.6 0.6
0.596078 0.596078 0.596078
0.596078 0.596078 0.596078
0.596078 0.596078 0.596078
0.611765 0.611765 0.611765
0.631373 0.631373 0.631373
0.65098 0.65098 0.65098
0.67451 0.67451 0.67451
0.694118 0.694118 0.694118
0.717647 0.717647 0.717647
0.741176 0.741176 0.741176
0.788235 0.788235 0.788235
0.827451 0.827451 0.827451
0.854902 0.854902 0.854902
0.682353 0.682353 0.682353
0.678431 0.678431 0.678431
0.678431 0.678431 0.678431
0.678431 0.678431 0.678431
0.678431 0.678431 0.678431
0.67451 0.67451 0.67451
0.67451 0.67451 0.67451
0.682353 0.682353 0.682353
0.698039 0.698039 0.698039
0.713725 0.713725 0.713725
0.733333 0.733333 0.733333
0.74902 0.74902 0.74902
0.772549 0.772549 0.772549
0.792157 0.792157 0.792157
0.811765 0.811765 0.811765
0.85098 0.85098 0.85098
0.882353 0.882353 0.882353
0.756863 0.756863 0.756863
0.752941 0.752941 0.752941
0.752941 0.752941 0.752941
0.74902 0.74902 0.74902
0.74902 0.74902 0.74902
0.74902 0.74902 0.74902
0.74902 0.74902 0.74902
0.752941 0.752941 0.752941
0.764706 0.764706 0.764706
0.780392 0.780392 0.780392
0.796078 0.796078 0.796078
0.811765 0.811765 0.811765
0.827451 0.827451 0.827451
0.847059 0.847059 0.847059
0.862745 0.862745 0.862745
0.878431 0.878431 0.878431
0.901961 0.901961 0.901961
0.827451 0.827451 0.827451
0.823529 0.823529 0.823529
0.823529 0.823529 0.823529
0.823529 0.823529 0.823529
0.823529 0.823529 0.823529
0.823529 0.823529 0.823529
0.823529 0.823529 0.823529
0.827451 0.827451 0.827451
0.831373 0.831373 0.831373
0.843137 0.843137 0.843137
0.858824 0.858824 0.858824
0.870588 0.870588 0.870588
0.882353 0.882353 0.882353
0.898039 0.898039 0.898039
0.909804 0.909804 0.909804
0.921569 0.921569 0.921569
0.92549 0.92549 0.92549
0.886275 0.886275 0.886275
0.882353 0.882353 0.882353
0.882353 0.882353 0.882353
0.882353 0.882353 0.882353
0.882353 0.882353 0.882353
0.882353 0.882353 0.882353
0.882353 0.882353 0.882353
0.886275 0.886275 0.886275
0.890196 0.890196 0.890196
0.898039 0.898039 0.898039
0.909804 0.909804 0.909804
0.917647 0.917647 0.917647
0.92549 0.92549 0.92549
0.937255 0.937255 0.937255
0.941176 0.941176 0.941176
0.94902 0.94902 0.94902
0.952941 0.952941 0.952941
0.105882 0.105882 0.105882
0.105882 0.105882 0.105882
0.109804 0.109804 0.109804
0.109804 0.109804 0.109804
0.113725 0.113725 0.113725
0.117647 0.117647 0.117647
0.121569 0.121569 0.121569
0.129412 0.129412 0.129412
0.141176 0.141176 0.141176
0.156863 0.156863 0.156863
0.180392 0.180392 0.180392
0.207843 0.207843 0.207843
0.243137 0.243137 0.243137
0.286275 0.286275 0.286275
0.337255 0.337255 0.337255
0.396078 0.396078 0.396078
0.454902 0.454902 0.454902
0.109804 0.109804 0.109804
0.109804 0.109804 0.109804
0.109804 0.109804 0.109804
0.113725 0.113725 0.113725
0.117647 0.117647 0.117647
0.121569 0.121569 0.121569
0.12549 0.12549 0.12549
0.137255 0.137255 0.137255
0.14902 0.14902 0.14902
0.168627 0.168627 0.168627
0.192157 0.192157 0.192157
0.219608 0.219608 0.219608
0.254902 0.254902 0.254902
0.298039 0.298039 0.298039
0.345098 0.345098 0.345098
0.403922 0.403922 0.403922
0.462745 0.462745 0.462745
0.113725 0.113725 0.113725
0.113725 0.113725 0.113725
0.113725 0.113725 0.113725
0.121569 0.121569 0.121569
0.121569 0.121569 0.121569
0.129412 0.129412 0.129412
0.137255 0.137255 0.137255
0.14902 0.14902 0.14902
0.160784 0.160784 0.160784
0.180392 0.180392 0.180392
0.207843 0.207843 0.207843
0.235294 0.235294 0.235294
0.270588 0.270588 0.270588
0.313725 0.313725 0.313725
0.364706 0.364706 0.364706
0.419608 0.419608 0.419608
0.478431 0.478431 0.478431
0.121569 0.121569 0.121569
0.121569 0.121569 0.121569
0.121569 0.121569 0.121569
0.129412 0.129412 0.129412
0.137255 0.137255 0.137255
0.145098 0.145098 0.145098
0.156863 0.156863 0.156863
0.168627 0.168627 0.168627
0.184314 0.184314 0.184314
0.207843 0.207843 0.207843
0.231373 0.231373 0.231373
0.262745 0.262745 0.262745
0.298039 0.298039 0.298039
0.341176 0.341176 0.341176
0.388235 0.388235 0.388235
0.443137 0.443137 0.443137
0.501961 0.501961 0.501961
0.133333 0.133333 0.133333
0.137255 0.137255 0.137255
0.133333 0.133333 0.133333
0.141176 0.141176 0.141176
0.14902 0.14902 0.14902
0.168627 0.168627 0.168627
0.184314 0.184314 0.184314
0.203922 0.203922 0.203922
0.223529 0.223529 0.223529
0.243137 0.243137 0.243137
0.270588 0.270588 0.270588
0.298039 0.298039 0.298039
0.333333 0.333333 0.333333
0.376471 0.376471 0.376471
0.423529 0.423529 0.423529
0.478431 0.478431 0.478431
0.537255 0.537255 0.537255
0.156863 0.156863 0.156863
0.156863 0.156863 0.156863
0.156863 0.156863 0.156863
0.160784 0.160784 0.160784
0.172549 0.172549 0.172549
0.188235 0.188235 0.188235
0.219608 0.219608 0.219608
0.239216 0.239216 0.239216
0.266667 0.266667 0.266667
0.294118 0.294118 0.294118
0.317647 0.317647 0.317647
0.34902 0.34902 0.34902
0.380392 0.380392 0.380392
0.423529 0.423529 0.423529
0.470588 0.470588 0.470588
0.521569 0.521569 0.521569
0.576471 0.576471 0.576471
0.192157 0.192157 0.192157
0.196078 0.196078 0.196078
0.196078 0.196078 0.196078
0.196078 0.196078 0.196078
0.207843 0.207843 0.207843
0.223529 0.223529 0.223529
0.247059 0.247059 0.247059
0.282353 0.282353 0.282353
0.313725 0.313725 0.313725
0.341176 0.341176 0.341176
0.368627 0.368627 0.368627
0.403922 0.403922 0.403922
0.439216 0.439216 0.439216
0.478431 0.478431 0.478431
0.521569 0.521569 0.521569
0.572549 0.572549 0.572549
0.623529 0.623529 0.623529
0.243137 0.243137 0.243137
0.243137 0.243137 0.243137
0.243137 0.243137 0.243137
0.243137 0.243137 0.243137
0.247059 0.247059 0.247059
0.266667 0.266667 0.266667
0.286275 0.286275 0.286275
0.313725 0.313725 0.313725
0.352941 0.352941 0.352941
0.392157 0.392157 0.392157
0.419608 0.419608 0.419608
0.454902 0.454902 0.454902
0.494118 0.494118 0.494118
0.537255 0.537255 0.537255
0.580392 0.580392 0.580392
0.627451 0.627451 0.627451
0.666667 0.666667 0.666667
0.298039 0.298039 0.298039
0.298039 0.298039 0.298039
0.301961 0.301961 0.301961
0.298039 0.298039 0.298039
0.298039 0.298039 0.298039
0.313725 0.313725 0.313725
0.337255 0.337255 0.337255
0.360784 0.360784 0.360784
0.388235 0.388235 0.388235
0.423529 0.423529 0.423529
0.47451 0.47451 0.47451
0.505882 0.505882 0.505882
0.545098 0.545098 0.545098
0.588235 0.588235 0.588235
0.631373 0.631373 0.631373
0.67451 0.67451 0.67451
0.709804 0.709804 0.709804
0.360784 0.360784 0.360784
0.364706 0.364706 0.364706
0.364706 0.364706 0.364706
0.364706 0.364706 0.364706
0.364706 0.364706 0.364706
0.372549 0.372549 0.372549
0.392157 0.392157 0.392157
0.411765 0.411765 0.411765
0.439216 0.439216 0.439216
0.470588 0.470588 0.470588
0.501961 0.501961 0.501961
0.564706 0.564706 0.564706
0.6 0.6 0.6
0.635294 0.635294 0.635294
0.67451 0.67451 0.67451
0.717647 0.717647 0.717647
0.752941 0.752941 0.752941
0.435294 0.435294 0.435294
0.435294 0.435294 0.435294
0.439216 0.439216 0.439216
0.435294 0.435294 0.435294
0.435294 0.435294 0.435294
0.435294 0.435294 0.435294
0.454902 0.454902 0.454902
0.47451 0.47451 0.47451
0.501961 0.501961 0.501961
0.529412 0.529412 0.529412
0.556863 0.556863 0.556863
0.588235 0.588235 0.588235
0.65098 0.65098 0.65098
0.682353 0.682353 0.682353
0.713725 0.713725 0.713725
0.752941 0.752941 0.752941
0.788235 0.788235 0.788235
0.517647 0.517647 0.517647
0.517647 0.517647 0.517647
0.517647 0.517647 0.517647
0.517647 0.517647 0.517647
0.517647 0.517647 0.517647
0.517647 0.517647 0.517647
0.52549 0.52549 0.52549
0.545098 0.545098 0.545098
0.568627 0.568627 0.568627
0.592157 0.592157 0.592157
0.615686 0.615686 0.615686
0.643137 0.643137 0.643137
0.670588 0.670588 0.670588
0.721569 0.721569 0.721569
0.756863 0.756863 0.756863
0.792157 0.792157 0.792157
0.823529 0.823529 0.823529
0.6 0.6 0.6
0.6 0.6 0.6
0.603922 0.603922 0.603922
0.603922 0.603922 0.603922
0.603922 0.603922 0.603922
0.603922 0.603922 0.603922
0.6 0.6 0.6
0.615686 0.615686 0.615686
0.635294 0.635294 0.635294
0.654902 0.654902 0.654902
0.67451 0.67451 0.67451
0.698039 0.698039 0.698039
0.717647 0.717647 0.717647
0.741176 0.741176 0.741176
0.792157 0.792157 0.792157
0.827451 0.827451 0.827451
0.854902 0.854902 0.854902
0.678431 0.678431 0.678431
0.678431 0.678431 0.678431
0.678431 0.678431 0.678431
0.678431 0.678431 0.678431
0.678431 0.678431 0.678431
0.678431 0.678431 0.678431
0.678431 0.678431 0.678431
0.686275 0.686275 0.686275
0.698039 0.698039 0.698039
0.717647 0.717647 0.717647
0.733333 0.733333 0.733333
0.752941 0.752941 0.752941
0.772549 0.772549 0.772549
0.792157 0.792157 0.792157
0.815686 0.815686 0.815686
0.854902 0.854902 0.854902
0.886275 0.886275 0.886275
0.74902 0.74902 0.74902
0.752941 0.752941 0.752941
0.752941 0.752941 0.752941
0.752941 0.752941 0.752941
0.752941 0.752941 0.752941
0.752941 0.752941 0.752941
0.752941 0.752941 0.752941
0.752941 0.752941 0.752941
0.768627 0.768627 0.768627
0.780392 0.780392 0.780392
0.796078 0.796078 0.796078
0.811765 0.811765 0.811765
0.831373 0.831373 0.831373
0.847059 0.847059 0.847059
0.862745 0.862745 0.862745
0.878431 0.878431 0.878431
0.901961 0.901961 0.901961
0.823529 0.823529 0.823529
0.827451 0.827451 0.827451
0.827451 0.827451 0.827451
0.827451 0.827451 0.827451
0.827451 0.827451 0.827451
0.827451 0.827451 0.827451
0.827451 0.827451 0.827451
0.827451 0.827451 0.827451
0.835294 0.835294 0.835294
0.847059 0.847059 0.847059
0.858824 0.858824 0.858824
0.870588 0.870588 0.870588
0.886275 0.886275 0.886275
0.898039 0.898039 0.898039
0.909804 0.909804 0.909804
0.921569 0.921569 0.921569
0.92549 0.92549 0.92549
0.882353 0.882353 0.882353
0.886275 0.886275 0.886275
0.886275 0.886275 0.886275
0.886275 0.886275 0.886275
0.886275 0.886275 0.886275
0.886275 0.886275 0.886275
0.886275 0.886275 0.886275
0.886275 0.886275 0.886275
0.894118 0.894118 0.894118
0.901961 0.901961 0.901961
0.909804 0.909804 0.909804
0.917647 0.917647 0.917647
0.929412 0.929412 0.929412
0.937255 0.937255 0.937255
0.945098 0.945098 0.945098
0.94902 0.94902 0.94902
0.952941 0.952941 0.952941
0.109804 0.109804 0.109804
0.109804 0.109804 0.109804
0.109804 0.109804 0.109804
0.113725 0.113725 0.113725
0.117647 0.117647 0.117647
0.121569 0.121569 0.121569
0.129412 0.129412 0.129412
0.141176 0.141176 0.141176
0.152941 0.152941 0.152941
0.168627 0.168627 0.168627
0.196078 0.196078 0.196078
0.223529 0.223529 0.223529
0.258824 0.258824 0.258824
0.301961 0.301961 0.301961
0.352941 0.352941 0.352941
0.407843 0.407843 0.407843
0.462745 0.462745 0.462745
0.109804 0.109804 0.109804
0.113725 0.113725 0.113725
0.113725 0.113725 0.113725
0.117647 0.117647 0.117647
0.121569 0.121569 0.121569
0.12549 0.12549 0.12549
0.133333 0.133333 0.133333
0.145098 0.145098 0.145098
0.160784 0.160784 0.160784
0.180392 0.180392 0.180392
0.203922 0.203922 0.203922
0.235294 0.235294 0.235294
0.270588 0.270588 0.270588
0.313725 0.313725 0.313725
0.360784 0.360784 0.360784
0.415686 0.415686 0.415686
0.470588 0.470588 0.470588
0.113725 0.113725 0.113725
0.117647 0.117647 0.117647
0.121569 0.121569 0.121569
0.12549 0.12549 0.12549
0.129412 0.129412 0.129412
0.137255 0.137255 0.137255
0.145098 0.145098 0.145098
0.156863 0.156863 0.156863
0.172549 0.172549 0.172549
0.196078 0.196078 0.196078
0.219608 0.219608 0.219608
0.25098 0.25098 0.25098
0.286275 0.286275 0.286275
0.329412 0.329412 0.329412
0.376471 0.376471 0.376471
0.431373 0.431373 0.431373
0.482353 0.482353 0.482353
0.129412 0.129412 0.129412
0.129412 0.129412 0.129412
0.133333 0.133333 0.133333
0.137255 0.137255 0.137255
0.145098 0.145098 0.145098
0.156863 0.156863 0.156863
0.164706 0.164706 0.164706
0.180392 0.180392 0.180392
0.196078 0.196078 0.196078
0.219608 0.219608 0.219608
0.247059 0.247059 0.247059
0.27451 0.27451 0.27451
0.309804 0.309804 0.309804
0.352941 0.352941 0.352941
0.4 0.4 0.4
0.454902 0.454902 0.454902
0.509804 0.509804 0.509804
0.14902 0.14902 0.14902
0.14902 0.14902 0.14902
0.14902 0.14902 0.14902
0.14902 0.14902 0.14902
0.160784 0.160784 0.160784
0.180392 0.180392 0.180392
0.196078 0.196078 0.196078
0.215686 0.215686 0.215686
0.235294 0.235294 0.235294
0.254902 0.254902 0.254902
0.282353 0.282353 0.282353
0.309804 0.309804 0.309804
0.345098 0.345098 0.345098
0.388235 0.388235 0.388235
0.435294 0.435294 0.435294
0.490196 0.490196 0.490196
0.545098 0.545098 0.545098
0.172549 0.172549 0.172549
0.176471 0.176471 0.176471
0.176471 0.176471 0.176471
0.172549 0.172549 0.172549
0.188235 0.188235 0.188235
0.203922 0.203922 0.203922
0.231373 0.231373 0.231373
0.25098 0.25098 0.25098
0.278431 0.278431 0.278431
0.305882 0.305882 0.305882
0.329412 0.329412 0.329412
0.356863 0.356863 0.356863
0.392157 0.392157 0.392157
0.431373 0.431373 0.431373
0.478431 0.478431 0.478431
0.533333 0.533333 0.533333
0.584314 0.584314 0.584314
0.211765 0.211765 0.211765
0.211765 0.211765 0.211765
0.211765 0.211765 0.211765
0.211765 0.211765 0.211765
0.219608 0.219608 0.219608
0.235294 0.235294 0.235294
0.258824 0.258824 0.258824
0.298039 0.298039 0.298039
0.321569 0.321569 0.321569
0.352941 0.352941 0.352941
0.380392 0.380392 0.380392
0.415686 0.415686 0.415686
0.447059 0.447059 0.447059
0.486275 0.486275 0.486275
0.529412 0.529412 0.529412
0.580392 0.580392 0.580392
0.627451 0.627451 0.627451
0.258824 0.258824 0.258824
0.262745 0.262745 0.262745
0.262745 0.262745 0.262745
0.258824 0.258824 0.258824
0.262745 0.262745 0.262745
0.278431 0.278431 0.278431
0.301961 0.301961 0.301961
0.32549 0.32549 0.32549
0.368627 0.368627 0.368627
0.4 0.4 0.4
0.431373 0.431373 0.431373
0.462745 0.462745 0.462745
0.501961 0.501961 0.501961
0.545098 0.545098 0.545098
0.584314 0.584314 0.584314
0.631373 0.631373 0.631373
0.67451 0.67451 0.67451
0.313725 0.313725 0.313725
0.317647 0.317647 0.317647
0.317647 0.317647 0.317647
0.317647 0.317647 0.317647
0.317647 0.317647 0.317647
0.329412 0.329412 0.329412
0.34902 0.34902 0.34902
0.372549 0.372549 0.372549
0.4 0.4 0.4
0.439216 0.439216 0.439216
0.482353 0.482353 0.482353
0.517647 0.517647 0.517647
0.552941 0.552941 0.552941
0.596078 0.596078 0.596078
0.639216 0.639216 0.639216
0.678431 0.678431 0.678431
0.713725 0.713725 0.713725
0.376471 0.376471 0.376471
0.380392 0.380392 0.380392
0.380392 0.380392 0.380392
0.380392 0.380392 0.380392
0.380392 0.380392 0.380392
0.384314 0.384314 0.384314
0.403922 0.403922 0.403922
0.423529 0.423529 0.423529
0.45098 0.45098 0.45098
0.482353 0.482353 0.482353
0.513725 0.513725 0.513725
0.572549 0.572549 0.572549
0.603922 0.603922 0.603922
0.643137 0.643137 0.643137
0.678431 0.678431 0.678431
0.721569 0.721569 0.721569
0.756863 0.756863 0.756863
0.45098 0.45098 0.45098
0.45098 0.45098 0.45098
0.45098 0.45098 0.45098
0.45098 0.45098 0.45098
0.45098 0.45098 0.45098
0.45098 0.45098 0.45098
0.466667 0.466667 0.466667
0.486275 0.486275 0.486275
0.509804 0.509804 0.509804
0.537255 0.537255 0.537255
0.568627 0.568627 0.568627
0.6 0.6 0.6
0.654902 0.654902 0.654902
0.686275 0.686275 0.686275
0.717647 0.717647 0.717647
0.756863 0.756863 0.756863
0.792157 0.792157 0.792157
0.529412 0.529412 0.529412
0.529412 0.529412 0.529412
0.529412 0.529412 0.529412
0.533333 0.533333 0.533333
0.529412 0.529412 0.529412
0.529412 0.529412 0.529412
0.533333 0.533333 0.533333
0.552941 0.552941 0.552941
0.576471 0.576471 0.576471
0.6 0.6 0.6
0.623529 0.623529 0.623529
0.65098 0.65098 0.65098
0.67451 0.67451 0.67451
0.72549 0.72549 0.72549
0.756863 0.756863 0.756863
0.792157 0.792157 0.792157
0.827451 0.827451 0.827451
0.607843 0.607843 0.607843
0.611765 0.611765 0.611765
0.611765 0.611765 0.611765
0.611765 0.611765 0.611765
0.611765 0.611765 0.611765
0.611765 0.611765 0.611765
0.611765 0.611765 0.611765
0.623529 0.623529 0.623529
0.643137 0.643137 0.643137
0.662745 0.662745 0.662745
0.682353 0.682353 0.682353
0.701961 0.701961 0.701961
0.72549 0.72549 0.72549
0.745098 0.745098 0.745098
0.796078 0.796078 0.796078
0.831373 0.831373 0.831373
0.858824 0.858824 0.858824
0.686275 0.686275 0.686275
0.686275 0.686275 0.686275
0.686275 0.686275 0.686275
0.686275 0.686275 0.686275
0.686275 0.686275 0.686275
0.686275 0.686275 0.686275
0.686275 0.686275 0.686275
0.690196 0.690196 0.690196
0.705882 0.705882 0.705882
0.721569 0.721569 0.721569
0.737255 0.737255 0.737255
0.756863 0.756863 0.756863
0.776471 0.776471 0.776471
0.796078 0.796078 0.796078
0.815686 0.815686 0.815686
0.858824 0.858824 0.858824
0.886275 0.886275 0.886275
0.756863 0.756863 0.756863
0.756863 0.756863 0.756863
0.756863 0.756863 0.756863
0.756863 0.756863 0.756863
0.756863 0.756863 0.756863
0.760784 0.760784 0.760784
0.760784 0.760784 0.760784
0.760784 0.760784 0.760784
0.768627 0.768627 0.768627
0.784314 0.784314 0.784314
0.8 0.8 0.8
0.815686 0.815686 0.815686
0.831373 0.831373 0.831373
0.85098 0.85098 0.85098
0.866667 0.866667 0.866667
0.882353 0.882353 0.882353
0.905882 0.905882 0.905882
0.831373 0.831373 0.831373
0.831373 0.831373 0.831373
0.831373 0.831373 0.831373
0.827451 0.827451 0.827451
0.831373 0.831373 0.831373
0.831373 0.831373 0.831373
0.831373 0.831373 0.831373
0.831373 0.831373 0.831373
0.835294 0.835294 0.835294
0.847059 0.847059 0.847059
0.858824 0.858824 0.858824
0.87451 0.87451 0.87451
0.886275 0.886275 0.886275
0.898039 0.898039 0.898039
0.909804 0.909804 0.909804
0.921569 0.921569 0.921569
0.929412 0.929412 0.929412
0.890196 0.890196 0.890196
0.890196 0.890196 0.890196
0.886275 0.886275 0.886275
0.886275 0.886275 0.886275
0.890196 0.890196 0.890196
0.890196 0.890196 0.890196
0.890196 0.890196 0.890196
0.890196 0.890196 0.890196
0.894118 0.894118 0.894118
0.901961 0.901961 0.901961
0.909804 0.909804 0.909804
0.921569 0.921569 0.921569
0.929412 0.929412 0.929412
0.937255 0.937255 0.937255
0.945098 0.945098 0.945098
0.94902 0.94902 0.94902
0.952941 0.952941 0.952941
0.109804 0.109804 0.109804
0.113725 0.113725 0.113725
0.113725 0.113725 0.113725
0.117647 0.117647 0.117647
0.121569 0.121569 0.121569
0.129412 0.129412 0.129412
0.141176 0.141176 0.141176
0.14902 0.14902 0.14902
0.164706 0.164706 0.164706
0.188235 0.188235 0.188235
0.211765 0.211765 0.211765
0.243137 0.243137 0.243137
0.278431 0.278431 0.278431
0.321569 0.321569 0.321569
0.368627 0.368627 0.368627
0.427451 0.427451 0.427451
0.478431 0.478431 0.478431
0.117647 0.117647 0.117647
0.117647 0.117647 0.117647
0.121569 0.121569 0.121569
0.121569 0.121569 0.121569
0.12549 0.12549 0.12549
0.137255 0.137255 0.137255
0.145098 0.145098 0.145098
0.156863 0.156863 0.156863
0.172549 0.172549 0.172549
0.196078 0.196078 0.196078
0.219608 0.219608 0.219608
0.25098 0.25098 0.25098
0.286275 0.286275 0.286275
0.329412 0.329412 0.329412
0.376471 0.376471 0.376471
0.431373 0.431373 0.431373
