example-Advanced/bin/data/ofxGpuLutCube/LUT/Dramatic-9.cube
#Generated by Picture Instruments - Look Creator
TITLE "Agfa Optima 100II--"
LUT_3D_SIZE 5
0 0 0
0.211765 0 0
0.427451 0 0
0.690196 0 0
0.905882 0.0470588 0
0.101961 0.243137 0.0980392
0.227451 0.262745 0.0509804
0.501961 0.262745 0
0.737255 0.27451 0
0.92549 0.309804 0
0.207843 0.521569 0.176471
0.290196 0.521569 0.176471
0.517647 0.564706 0.0784314
0.788235 0.6 0
0.960784 0.596078 0
0.396078 0.784314 0.317647
0.443137 0.772549 0.309804
0.556863 0.764706 0.309804
0.752941 0.807843 0.2
0.984314 0.854902 0
0.682353 0.984314 0.615686
0.686275 0.980392 0.607843
0.74902 0.984314 0.627451
0.835294 0.988235 0.639216
0.937255 0.992157 0.54902
0 0.0117647 0.227451
0.184314 0 0.211765
0.411765 0 0.184314
0.670588 0 0.145098
0.901961 0 0
0.117647 0.227451 0.239216
0.243137 0.235294 0.247059
0.470588 0.215686 0.203922
0.717647 0.223529 0.14902
0.917647 0.286275 0
0.227451 0.513725 0.282353
0.317647 0.529412 0.290196
0.529412 0.556863 0.25098
0.784314 0.580392 0.14902
0.960784 0.576471 0
0.4 0.764706 0.380392
0.458824 0.772549 0.388235
0.576471 0.768627 0.392157
0.764706 0.807843 0.32549
0.988235 0.854902 0.113725
0.678431 0.984314 0.635294
0.698039 0.984314 0.639216
0.756863 0.984314 0.654902
0.843137 0.988235 0.678431
0.945098 0.996078 0.596078
0 0.00784314 0.498039
0.152941 0 0.47451
0.423529 0 0.443137
0.694118 0 0.447059
0.882353 0 0.376471
0 0.172549 0.466667
0.203922 0.176471 0.478431
0.458824 0.156863 0.470588
0.717647 0.176471 0.458824
0.909804 0 0.372549
0.215686 0.490196 0.486275
0.321569 0.509804 0.509804
0.564706 0.529412 0.533333
0.74902 0.505882 0.47451
0.941176 0.498039 0.396078
0.392157 0.756863 0.52549
0.462745 0.768627 0.541176
0.611765 0.768627 0.560784
0.772549 0.796078 0.545098
0.980392 0.823529 0.47451
0.666667 0.984314 0.694118
0.705882 0.984314 0.709804
0.768627 0.984314 0.72549
0.854902 0.988235 0.74902
0.94902 0.996078 0.694118
0 0.0588235 0.72549
0.0941176 0 0.721569
0.431373 0 0.698039
0.666667 0 0.682353
0.894118 0 0.698039
0 0.0901961 0.701961
0.184314 0.054902 0.713725
0.45098 0 0.713725
0.698039 0 0.709804
0.921569 0.188235 0.717647
0.239216 0.462745 0.705882
0.305882 0.45098 0.72549
0.478431 0.411765 0.72549
0.729412 0.443137 0.729412
0.92549 0.533333 0.733333
0.368627 0.737255 0.729412
0.435294 0.74902 0.737255
0.592157 0.74902 0.745098
0.803922 0.788235 0.784314
0.952941 0.760784 0.733333
0.6 0.988235 0.792157
0.635294 0.992157 0.796078
0.729412 0.992157 0.803922
0.866667 0.984314 0.843137
0.972549 0.992157 0.835294
0 0.223529 0.901961
0.184314 0.211765 0.921569
0.447059 0.137255 0.917647
0.67451 0 0.921569
0.886275 0 0.921569
0 0.231373 0.937255
0.219608 0.219608 0.956863
0.47451 0.14902 0.952941
0.701961 0 0.952941
0.909804 0 0.945098
0 0.305882 0.937255
0.14902 0.301961 0.964706
0.462745 0.270588 0.964706
0.701961 0.243137 0.956863
0.92549 0.235294 0.952941
0.482353 0.760784 0.956863
0.52549 0.760784 0.960784
0.635294 0.752941 0.964706
0.717647 0.670588 0.964706
0.945098 0.701961 0.960784
0.631373 0.988235 0.984314
0.654902 0.988235 0.984314
0.721569 0.988235 0.984314
0.835294 0.988235 0.984314
0.984314 0.988235 0.984314
