example-Advanced/bin/data/ofxGpuLutCube/LUT/Dramatic-50.cube
# (C) 2014 VisionColor & Patchflyer [www.vision-color.com]
# Generator: VC Patchmatch v.2.1.1 [64/53]
# All work and no play makes Jack a dull boy.
# LUT generated from: Kodak Elite Chrome 200_FPE
LUT_3D_SIZE 5
0.035889 0.039857 0.039918
0.081209 0.045411 0.037934
0.204868 0.069642 0.042908
0.351080 0.078065 0.048737
0.397436 0.082460 0.051484
0.031678 0.069032 0.058076
0.193454 0.176059 0.078706
0.369253 0.148257 0.061311
0.439124 0.128359 0.056947
0.467048 0.129274 0.058869
0.033539 0.173831 0.136477
0.038880 0.234775 0.128176
0.694530 0.521981 0.248493
0.786053 0.484886 0.218494
0.796063 0.490684 0.256184
0.043580 0.324681 0.263951
0.049805 0.389532 0.289189
0.598962 0.662882 0.322499
0.934966 0.820005 0.598993
0.931701 0.826871 0.646571
0.037324 0.233921 0.204776
0.075471 0.494362 0.396979
0.651652 0.734142 0.515114
0.933227 0.843290 0.665156
0.933837 0.843717 0.667842
0.031922 0.038911 0.058869
0.089113 0.046143 0.066285
0.226749 0.058106 0.063325
0.352697 0.059419 0.061036
0.392767 0.064637 0.063111
0.030793 0.069886 0.099001
0.119234 0.127413 0.129915
0.306127 0.096132 0.069062
0.393042 0.073548 0.054932
0.432593 0.095705 0.071046
0.037690 0.205692 0.211002
0.041169 0.271962 0.221653
0.659159 0.531136 0.285512
0.749889 0.437064 0.218677
0.799878 0.499626 0.313680
0.057008 0.399664 0.369665
0.061067 0.435828 0.377661
0.600061 0.679545 0.363180
0.935699 0.823209 0.598810
0.934691 0.825803 0.617853
0.104189 0.537316 0.477058
0.100130 0.532494 0.455726
0.666316 0.735058 0.501259
0.934691 0.831724 0.627832
0.935271 0.830686 0.624445
0.031189 0.039368 0.092500
0.062715 0.043458 0.113375
0.230320 0.062318 0.139437
0.392798 0.064149 0.149722
0.419409 0.077211 0.161624
0.034150 0.072969 0.151614
0.044984 0.079042 0.182620
0.370809 0.121798 0.236973
0.421881 0.080079 0.156771
0.469276 0.128573 0.194583
0.041047 0.213138 0.282185
0.049897 0.297292 0.372000
0.531746 0.518502 0.476768
0.624643 0.289479 0.254444
0.755566 0.464744 0.421958
0.089204 0.484810 0.486549
0.137209 0.566155 0.547814
0.425101 0.662745 0.466499
0.933623 0.839811 0.655970
0.928954 0.845640 0.715602
0.166751 0.600244 0.561120
0.197925 0.625788 0.584100
0.670756 0.761456 0.611368
0.929778 0.856901 0.720088
0.928496 0.860838 0.749950
0.031067 0.040497 0.128420
0.048432 0.040986 0.157290
0.243763 0.061769 0.244450
0.425055 0.067567 0.256321
0.460731 0.095735 0.282078
0.036164 0.072175 0.197238
0.035859 0.066499 0.213169
0.306508 0.111452 0.349432
0.493385 0.123507 0.331548
0.569604 0.207980 0.395270
0.043214 0.227024 0.347784
0.049989 0.287007 0.425040
0.245640 0.418418 0.561318
0.807187 0.571679 0.684230
0.843900 0.647532 0.729274
0.130190 0.546654 0.602106
0.259648 0.655451 0.691798
0.584466 0.757076 0.768063
0.857481 0.805142 0.790372
0.905547 0.813535 0.803983
0.226780 0.639338 0.677913
0.301457 0.674922 0.706935
0.746090 0.816983 0.811307
0.865995 0.859220 0.810910
0.920653 0.870573 0.828550
0.031769 0.040070 0.146609
0.048615 0.041108 0.179660
0.253132 0.062898 0.272374
0.438025 0.072969 0.274510
0.463600 0.096742 0.290654
0.037018 0.074708 0.221286
0.037354 0.071321 0.237888
0.271534 0.100740 0.363714
0.523644 0.148745 0.377874
0.587488 0.225925 0.433783
0.046235 0.256107 0.390845
0.053498 0.310628 0.462547
0.440040 0.539712 0.648875
0.833738 0.638682 0.729061
0.853635 0.668711 0.744442
0.140352 0.554650 0.627436
0.259251 0.641291 0.686732
0.648386 0.751339 0.772976
0.856382 0.815183 0.835904
0.906584 0.827420 0.844022
0.219120 0.632593 0.680018
0.316320 0.679774 0.711269
0.741543 0.814725 0.821500
0.861692 0.862913 0.859068
0.921874 0.886442 0.879149
