example-Advanced/bin/data/ofxGpuLutCube/LUT/Dramatic-44.cube
TITLE "Generated by 3D LUT Creator (c) Oleg Sharonov"
LUT_3D_SIZE 25
0.0612 0.0433 0.0425
0.0657 0.0487 0.0449
0.0743 0.0471 0.0432
0.0836 0.0512 0.0442
0.0954 0.0538 0.0452
0.1101 0.0552 0.0462
0.1279 0.0569 0.0471
0.1504 0.0529 0.0477
0.1744 0.0530 0.0491
0.1963 0.0555 0.0537
0.2180 0.0577 0.0576
0.2406 0.0587 0.0581
0.2722 0.0608 0.0614
0.3123 0.0648 0.0645
0.3503 0.0746 0.0675
0.3854 0.0841 0.0705
0.4234 0.0962 0.0761
0.4559 0.1095 0.0802
0.4754 0.1183 0.0841
0.4941 0.1229 0.0854
0.5129 0.1294 0.0860
0.5321 0.1390 0.0836
0.5505 0.1476 0.0813
0.5805 0.1664 0.0816
0.6040 0.1829 0.0808
0.0614 0.0531 0.0471
0.0619 0.0552 0.0498
0.0726 0.0574 0.0445
0.0820 0.0574 0.0450
0.0932 0.0611 0.0461
0.1081 0.0641 0.0473
0.1257 0.0659 0.0483
0.1461 0.0688 0.0497
0.1720 0.0676 0.0510
0.1955 0.0634 0.0531
0.2182 0.0589 0.0551
0.2420 0.0588 0.0581
0.2736 0.0669 0.0624
0.3127 0.0734 0.0657
0.3558 0.0830 0.0689
0.3910 0.0935 0.0724
0.4196 0.1051 0.0772
0.4487 0.1145 0.0796
0.4746 0.1259 0.0848
0.5023 0.1364 0.0874
0.5226 0.1455 0.0874
0.5418 0.1548 0.0850
0.5587 0.1662 0.0836
0.5721 0.1776 0.0838
0.5964 0.1972 0.0857
0.0612 0.0645 0.0513
0.0611 0.0663 0.0519
0.0737 0.0691 0.0535
0.0827 0.0696 0.0468
0.0947 0.0694 0.0474
0.1085 0.0727 0.0485
0.1249 0.0758 0.0496
0.1450 0.0785 0.0510
0.1686 0.0814 0.0527
0.1909 0.0811 0.0553
0.2105 0.0795 0.0573
0.2364 0.0784 0.0603
0.2710 0.0804 0.0642
0.3082 0.0866 0.0673
0.3478 0.0930 0.0700
0.3849 0.1028 0.0727
0.4141 0.1158 0.0784
0.4424 0.1257 0.0807
0.4721 0.1378 0.0856
0.5046 0.1514 0.0895
0.5290 0.1646 0.0899
0.5458 0.1762 0.0878
0.5598 0.1881 0.0866
0.5746 0.2003 0.0871
0.5883 0.2148 0.0888
0.0607 0.0759 0.0551
0.0605 0.0753 0.0540
0.0636 0.0803 0.0529
0.0841 0.0776 0.0479
0.0967 0.0810 0.0491
0.1116 0.0817 0.0499
0.1281 0.0841 0.0509
0.1475 0.0873 0.0524
0.1695 0.0910 0.0542
0.1864 0.0955 0.0569
0.2014 0.1009 0.0595
0.2195 0.1034 0.0620
0.2480 0.1055 0.0660
0.2887 0.1077 0.0693
0.3262 0.1141 0.0722
0.3650 0.1213 0.0747
0.4008 0.1308 0.0787
0.4334 0.1406 0.0825
0.4679 0.1546 0.0870
0.4971 0.1701 0.0919
0.5232 0.1871 0.0944
0.5452 0.2020 0.0922
0.5610 0.2145 0.0912
0.5762 0.2265 0.0911
0.5900 0.2410 0.0928
0.0605 0.0913 0.0607
0.0604 0.0913 0.0602
0.0600 0.0925 0.0578
0.0781 0.0887 0.0491
0.0943 0.0901 0.0502
0.1088 0.0999 0.0523
0.1248 0.1035 0.0536
0.1488 0.1015 0.0544
0.1724 0.1016 0.0560
0.1856 0.1079 0.0586
0.1990 0.1150 0.0613
0.2139 0.1213 0.0641
0.2320 0.1267 0.0670
0.2604 0.1335 0.0714
0.3031 0.1395 0.0749
0.3398 0.1467 0.0775
0.3731 0.1538 0.0796
0.4061 0.1624 0.0839
0.4490 0.1708 0.0871
0.4800 0.1877 0.0933
0.5097 0.2058 0.0972
0.5375 0.2253 0.0979
0.5607 0.2417 0.0960
0.5759 0.2537 0.0953
0.6025 0.2635 0.0957
0.0607 0.1091 0.0677
0.0606 0.1093 0.0669
0.0603 0.1122 0.0645
0.0599 0.1185 0.0525
0.0957 0.1049 0.0525
0.1096 0.1082 0.0537
0.1248 0.1196 0.0559
0.1401 0.1264 0.0575
0.1694 0.1261 0.0592
0.1861 0.1224 0.0607
0.2009 0.1288 0.0634
0.2150 0.1379 0.0662
0.2311 0.1458 0.0692
0.2510 0.1529 0.0729
0.2803 0.1600 0.0762
0.3117 0.1669 0.0792
0.3422 0.1757 0.0817
0.3783 0.1839 0.0840
0.4202 0.1940 0.0898
0.4604 0.2052 0.0933
0.4889 0.2221 0.0991
0.5174 0.2410 0.1024
0.5471 0.2566 0.1013
0.5862 0.2705 0.0974
0.6184 0.2810 0.0977
0.0590 0.1286 0.0761
0.0585 0.1295 0.0738
0.0564 0.1332 0.0689
0.0534 0.1381 0.0604
0.0729 0.1397 0.0558
0.1136 0.1280 0.0564
0.1296 0.1328 0.0576
0.1449 0.1408 0.0596
0.1672 0.1489 0.0620
0.1920 0.1514 0.0650
0.2033 0.1477 0.0660
0.2164 0.1546 0.0684
0.2317 0.1629 0.0714
0.2489 0.1698 0.0747
0.2705 0.1772 0.0777
0.2962 0.1851 0.0805
0.3205 0.1951 0.0833
0.3567 0.2058 0.0864
0.3969 0.2130 0.0898
0.4358 0.2236 0.0944
0.4742 0.2376 0.0995
0.5113 0.2533 0.1041
0.5516 0.2685 0.1024
0.5885 0.2819 0.0990
0.6188 0.2989 0.1004
0.0537 0.1490 0.0827
0.0525 0.1509 0.0779
0.0500 0.1553 0.0712
0.0470 0.1616 0.0622
0.0509 0.1668 0.0587
0.0866 0.1593 0.0591
0.1276 0.1494 0.0596
0.1545 0.1552 0.0620
0.1750 0.1636 0.0646
0.1976 0.1706 0.0681
0.2180 0.1745 0.0710
0.2288 0.1752 0.0725
0.2424 0.1811 0.0750
0.2587 0.1876 0.0780
0.2815 0.1955 0.0808
0.3067 0.2044 0.0837
0.3340 0.2141 0.0866
0.3657 0.2217 0.0889
0.4029 0.2291 0.0927
0.4437 0.2389 0.0968
0.4793 0.2515 0.1020
0.5171 0.2665 0.1061
0.5580 0.2799 0.1029
0.5938 0.2946 0.1007
0.6235 0.3171 0.1023
0.0479 0.1700 0.0894
0.0477 0.1714 0.0810
0.0474 0.1774 0.0725
0.0467 0.1847 0.0619
0.0557 0.1895 0.0622
0.0717 0.1891 0.0627
0.1021 0.1828 0.0629
0.1533 0.1758 0.0646
0.1813 0.1836 0.0680
0.2039 0.1888 0.0712
0.2286 0.1938 0.0746
0.2443 0.1962 0.0770
0.2577 0.2000 0.0794
0.2767 0.2068 0.0820
0.3002 0.2143 0.0846
0.3245 0.2226 0.0873
0.3526 0.2308 0.0897
0.3838 0.2375 0.0917
0.4167 0.2440 0.0964
0.4520 0.2537 0.0991
0.4861 0.2665 0.1049
0.5239 0.2796 0.1081
0.5643 0.2917 0.1035
0.5981 0.3141 0.1035
0.6312 0.3351 0.1035
0.0475 0.1903 0.1023
0.0473 0.1904 0.0939
0.0471 0.1967 0.0804
0.0462 0.2052 0.0662
0.0618 0.2102 0.0656
0.0803 0.2105 0.0663
0.1022 0.2081 0.0665
0.1357 0.2055 0.0676
0.1822 0.2035 0.0710
0.2068 0.2115 0.0748
0.2328 0.2136 0.0778
0.2579 0.2164 0.0814
0.2778 0.2204 0.0839
0.2975 0.2251 0.0859
0.3190 0.2323 0.0882
0.3441 0.2413 0.0908
0.3734 0.2479 0.0928
0.4008 0.2547 0.0958
0.4310 0.2601 0.0995
0.4629 0.2702 0.1025
0.4946 0.2822 0.1079
0.5310 0.2963 0.1103
0.5714 0.3142 0.1057
0.6067 0.3341 0.1063
0.6382 0.3555 0.1052
0.0468 0.2112 0.1134
0.0467 0.2109 0.1072
0.0466 0.2157 0.0923
0.0457 0.2247 0.0743
0.0543 0.2294 0.0683
0.0789 0.2260 0.0686
0.1031 0.2290 0.0697
0.1422 0.2338 0.0721
0.1762 0.2338 0.0750
0.2120 0.2297 0.0780
0.2321 0.2360 0.0810
0.2649 0.2371 0.0850
0.2976 0.2398 0.0879
0.3191 0.2457 0.0901
0.3409 0.2520 0.0921
0.3667 0.2589 0.0942
0.3926 0.2657 0.0959
0.4165 0.2726 0.1002
0.4481 0.2786 0.1026
0.4764 0.2882 0.1068
0.5075 0.3011 0.1110
0.5440 0.3191 0.1117
0.5830 0.3362 0.1075
0.6149 0.3562 0.1094
0.6450 0.3806 0.1108
0.0461 0.2339 0.1275
0.0461 0.2341 0.1217
0.0461 0.2353 0.1137
0.0483 0.2436 0.0920
0.0542 0.2568 0.0722
0.0757 0.2519 0.0724
0.0988 0.2439 0.0719
0.1300 0.2502 0.0739
0.1731 0.2555 0.0779
0.2071 0.2569 0.0816
0.2388 0.2557 0.0847
0.2631 0.2631 0.0886
0.3086 0.2646 0.0920
0.3407 0.2670 0.0942
0.3650 0.2726 0.0960
0.3880 0.2775 0.0975
0.4093 0.2824 0.1004
0.4340 0.2889 0.1037
0.4633 0.2994 0.1067
0.4921 0.3117 0.1121
0.5252 0.3278 0.1153
0.5615 0.3431 0.1127
0.5951 0.3600 0.1107
0.6263 0.3795 0.1125
0.6605 0.4117 0.1179
0.0501 0.2583 0.1437
0.0510 0.2596 0.1380
0.0523 0.2617 0.1320
0.0547 0.2661 0.1223
0.0614 0.2780 0.0973
0.0705 0.2915 0.0778
0.0966 0.2808 0.0775
0.1328 0.2657 0.0764
0.1722 0.2695 0.0797
0.2146 0.2727 0.0845
0.2530 0.2778 0.0895
0.2780 0.2858 0.0929
0.3127 0.2929 0.0962
0.3537 0.2924 0.0983
0.3859 0.2952 0.1000
0.4077 0.3006 0.1025
0.4292 0.3075 0.1063
0.4557 0.3148 0.1081
0.4820 0.3257 0.1126
0.5114 0.3387 0.1166
0.5438 0.3532 0.1176
0.5768 0.3683 0.1139
0.6111 0.3858 0.1141
0.6464 0.4122 0.1154
0.6775 0.4514 0.1197
0.0639 0.2962 0.1649
0.0646 0.2968 0.1602
0.0653 0.2968 0.1521
0.0666 0.2979 0.1426
0.0684 0.2998 0.1308
0.0732 0.3140 0.1009
0.1054 0.3287 0.0846
0.1455 0.3035 0.0827
0.1842 0.2910 0.0841
0.2168 0.2899 0.0873
0.2614 0.2916 0.0924
0.3074 0.3068 0.0978
0.3299 0.3154 0.1004
0.3539 0.3224 0.1026
0.3913 0.3211 0.1039
0.4204 0.3228 0.1071
0.4476 0.3311 0.1102
0.4757 0.3430 0.1140
0.5016 0.3545 0.1187
0.5306 0.3667 0.1211
0.5628 0.3795 0.1186
0.5982 0.3955 0.1161
0.6334 0.4183 0.1169
0.6655 0.4549 0.1159
0.7001 0.4845 0.1267
0.0737 0.3313 0.1867
0.0754 0.3334 0.1818
0.0770 0.3368 0.1759
0.0784 0.3387 0.1655
0.0816 0.3453 0.1483
0.0872 0.3551 0.1116
0.0994 0.3688 0.0899
0.1621 0.3528 0.0904
0.1990 0.3282 0.0906
0.2349 0.3174 0.0931
0.2852 0.3175 0.0979
0.3272 0.3265 0.1018
0.3498 0.3366 0.1045
0.3705 0.3440 0.1064
0.3925 0.3499 0.1081
0.4232 0.3524 0.1113
0.4591 0.3535 0.1138
0.4863 0.3637 0.1181
0.5140 0.3769 0.1222
0.5460 0.3909 0.1238
0.5843 0.4063 0.1194
0.6220 0.4316 0.1165
0.6541 0.4630 0.1142
0.6839 0.4914 0.1200
0.7136 0.5078 0.1388
0.0833 0.3682 0.2100
0.0850 0.3700 0.2052
0.0875 0.3740 0.2002
0.0915 0.3819 0.1882
0.0952 0.3949 0.1489
0.0977 0.4033 0.1102
0.1042 0.4070 0.0955
0.1600 0.3960 0.0963
0.2172 0.3738 0.0972
0.2485 0.3563 0.0996
0.3144 0.3496 0.1043
0.3430 0.3513 0.1063
0.3669 0.3567 0.1081
0.3880 0.3653 0.1102
0.4081 0.3720 0.1117
0.4296 0.3782 0.1155
0.4604 0.3844 0.1183
0.4974 0.3873 0.1226
0.5277 0.3988 0.1257
0.5646 0.4172 0.1240
0.6055 0.4425 0.1164
0.6379 0.4710 0.1145
0.6649 0.5036 0.1198
0.6975 0.5225 0.1297
0.7261 0.5387 0.1521
0.0874 0.4050 0.2352
0.0887 0.4063 0.2304
0.0910 0.4103 0.2235
0.0952 0.4182 0.2117
0.1004 0.4300 0.1935
0.1169 0.4489 0.1150
0.1294 0.4554 0.0928
0.1725 0.4440 0.0959
0.2231 0.4218 0.1001
0.2616 0.4006 0.1056
0.2990 0.3902 0.1089
0.3541 0.3820 0.1111
0.3807 0.3806 0.1121
0.4033 0.3850 0.1135
0.4220 0.3943 0.1164
0.4420 0.4030 0.1204
0.4689 0.4114 0.1224
0.4989 0.4224 0.1253
0.5452 0.4330 0.1268
0.5886 0.4562 0.1177
0.6227 0.4848 0.1130
0.6468 0.5180 0.1210
0.6806 0.5361 0.1279
0.7110 0.5543 0.1455
0.7339 0.5679 0.1783
0.0954 0.4407 0.2589
0.0983 0.4432 0.2547
0.1030 0.4469 0.2459
0.1099 0.4523 0.2334
0.1198 0.4647 0.2110
0.1301 0.4813 0.1800
0.1527 0.4953 0.1171
0.1777 0.4950 0.1015
0.2232 0.4817 0.0997
0.2642 0.4565 0.1019
0.2909 0.4384 0.1077
0.3359 0.4274 0.1128
0.3926 0.4186 0.1165
0.4188 0.4152 0.1178
0.4385 0.4176 0.1205
0.4589 0.4301 0.1210
0.4825 0.4441 0.1210
0.5134 0.4638 0.1236
0.5533 0.4881 0.1229
0.6043 0.5016 0.1144
0.6343 0.5316 0.1199
0.6641 0.5519 0.1300
0.6957 0.5708 0.1451
0.7241 0.5874 0.1682
0.7316 0.5777 0.2298
0.1146 0.4687 0.2785
0.1161 0.4706 0.2771
0.1192 0.4746 0.2745
0.1283 0.4790 0.2619
0.1430 0.4890 0.2366
0.1599 0.5099 0.1925
0.1696 0.5214 0.1991
0.1962 0.5471 0.1413
0.2326 0.5426 0.1091
0.2666 0.5212 0.1016
0.3029 0.4928 0.1076
0.3372 0.4820 0.1088
0.3763 0.4683 0.1119
0.4289 0.4618 0.1150
0.4577 0.4608 0.1187
0.4828 0.4649 0.1191
0.5063 0.4809 0.1210
0.5379 0.5081 0.1208
0.5758 0.5330 0.1174
0.6123 0.5583 0.1179
0.6487 0.5721 0.1305
0.6815 0.5887 0.1474
0.7118 0.6064 0.1678
0.7203 0.5963 0.2273
0.7309 0.5871 0.2831
0.1441 0.4930 0.2960
0.1458 0.4938 0.2942
0.1493 0.4959 0.2919
0.1543 0.4990 0.2899
0.1627 0.5029 0.2788
0.1758 0.5177 0.2491
0.1846 0.5286 0.2608
0.2074 0.5645 0.2224
0.2521 0.5936 0.1668
0.2944 0.5771 0.1284
0.3181 0.5552 0.1083
0.3566 0.5394 0.1083
0.3989 0.5257 0.1110
0.4394 0.5131 0.1136
0.4740 0.5073 0.1166
0.5064 0.5167 0.1182
0.5391 0.5310 0.1194
0.5713 0.5473 0.1176
0.6030 0.5738 0.1160
0.6330 0.5968 0.1284
0.6601 0.6169 0.1507
0.6976 0.6260 0.1699
0.7099 0.6162 0.2260
0.7224 0.6033 0.2821
0.7393 0.6055 0.3112
0.1723 0.5150 0.3135
0.1743 0.5159 0.3104
0.1770 0.5180 0.3082
0.1807 0.5214 0.3058
0.1851 0.5261 0.3030
0.1892 0.5315 0.3027
0.2038 0.5446 0.2996
0.2273 0.5814 0.2605
0.2658 0.6207 0.2003
0.3047 0.6292 0.1635
0.3466 0.6104 0.1418
0.3864 0.5998 0.1243
0.4186 0.5819 0.1117
0.4630 0.5743 0.1120
0.4996 0.5716 0.1135
0.5303 0.5734 0.1166
0.5661 0.5840 0.1167
0.6024 0.5946 0.1203
0.6300 0.6079 0.1277
0.6499 0.6336 0.1483
0.6751 0.6531 0.1759
0.6904 0.6529 0.2249
0.7114 0.6311 0.2790
0.7273 0.6287 0.3125
0.7439 0.6345 0.3359
0.1905 0.5397 0.3314
0.1913 0.5410 0.3278
0.1925 0.5434 0.3252
0.1944 0.5471 0.3214
0.1976 0.5510 0.3297
0.2025 0.5546 0.3395
0.2159 0.5628 0.3420
0.2425 0.5972 0.3028
0.2831 0.6374 0.2430
0.3152 0.6573 0.2040
0.3596 0.6598 0.1701
0.4040 0.6515 0.1516
0.4500 0.6325 0.1387
0.4898 0.6270 0.1363
0.5233 0.6320 0.1397
0.5549 0.6346 0.1417
0.5889 0.6332 0.1402
0.6214 0.6397 0.1441
0.6471 0.6548 0.1570
0.6665 0.6697 0.1758
0.6796 0.6768 0.2197
0.6937 0.6726 0.2735
0.7094 0.6662 0.3131
0.7327 0.6582 0.3363
0.7489 0.6615 0.3608
0.2021 0.5653 0.3482
0.2025 0.5659 0.3483
0.2058 0.5685 0.3552
0.2098 0.5716 0.3623
0.2141 0.5739 0.3683
0.2198 0.5773 0.3753
0.2289 0.5821 0.3859
0.2424 0.5945 0.3830
0.2792 0.6221 0.3406
0.3278 0.6631 0.2696
0.3733 0.6858 0.2215
0.4194 0.6944 0.1979
0.4721 0.6953 0.1921
0.5209 0.6880 0.1877
0.5573 0.6828 0.1897
0.5859 0.6848 0.1958
0.6120 0.6871 0.2014
0.6369 0.6874 0.1965
0.6580 0.6883 0.2091
0.6742 0.6898 0.2383
0.6840 0.6929 0.2743
0.6971 0.6888 0.3129
0.7132 0.6865 0.3427
0.7308 0.6895 0.3658
0.7528 0.6877 0.3878
0.2215 0.5925 0.3867
0.2237 0.5935 0.3903
0.2269 0.5950 0.3946
0.2305 0.5964 0.3982
0.2355 0.5987 0.4044
0.2421 0.6023 0.4109
0.2493 0.6083 0.4185
0.2581 0.6153 0.4263
0.2802 0.6270 0.4164
0.3259 0.6424 0.3765
0.3789 0.6647 0.3346
0.4320 0.6968 0.2963
0.4858 0.7072 0.2770
0.5349 0.7058 0.2749
0.5765 0.7025 0.2746
0.6069 0.6992 0.2728
0.6255 0.6986 0.2797
0.6424 0.7000 0.2870
0.6589 0.7022 0.2944
0.6750 0.7032 0.3081
0.6897 0.7040 0.3267
0.7007 0.7082 0.3474
0.7168 0.7124 0.3678
0.7341 0.7174 0.3909
0.7568 0.7263 0.4031
0.2433 0.6176 0.4254
0.2455 0.6178 0.4278
0.2485 0.6185 0.4299
0.2529 0.6203 0.4332
0.2587 0.6232 0.4378
0.2659 0.6278 0.4442
0.2745 0.6328 0.4511
0.2835 0.6383 0.4583
0.2940 0.6432 0.4655
0.3304 0.6504 0.4455
0.3938 0.6686 0.4023
0.4448 0.6900 0.3757
0.5031 0.7023 0.3506
0.5537 0.7134 0.3325
0.5901 0.7139 0.3363
0.6200 0.7140 0.3381
0.6420 0.7116 0.3373
0.6569 0.7129 0.3396
0.6694 0.7161 0.3450
0.6811 0.7194 0.3539
0.6955 0.7239 0.3646
0.7107 0.7309 0.3792
0.7238 0.7403 0.3929
0.7427 0.7491 0.4039
0.7657 0.7593 0.4135
0.0617 0.0446 0.0493
0.0618 0.0449 0.0512
0.0764 0.0460 0.0499
0.0876 0.0464 0.0463
0.0994 0.0465 0.0444
0.1142 0.0478 0.0453
0.1320 0.0493 0.0462
0.1535 0.0518 0.0494
0.1774 0.0553 0.0551
0.1981 0.0574 0.0612
0.2190 0.0588 0.0642
0.2428 0.0602 0.0655
0.2746 0.0615 0.0654
0.3147 0.0629 0.0655
0.3576 0.0700 0.0672
0.3994 0.0799 0.0720
0.4364 0.0944 0.0762
0.4666 0.1077 0.0817
0.4913 0.1168 0.0845
0.5068 0.1220 0.0855
0.5223 0.1260 0.0830
0.5371 0.1312 0.0807
0.5538 0.1398 0.0788
0.5823 0.1590 0.0803
0.6061 0.1723 0.0766
0.0621 0.0573 0.0512
0.0630 0.0557 0.0545
0.0723 0.0610 0.0534
0.0864 0.0530 0.0460
0.0988 0.0532 0.0453
0.1140 0.0571 0.0466
0.1319 0.0578 0.0474
0.1529 0.0603 0.0489
0.1778 0.0550 0.0498
0.1988 0.0551 0.0523
0.2209 0.0580 0.0585
0.2444 0.0598 0.0629
0.2764 0.0612 0.0632
0.3162 0.0628 0.0643
0.3555 0.0700 0.0672
0.3904 0.0827 0.0710
0.4221 0.0950 0.0759
0.4531 0.1089 0.0797
0.4853 0.1229 0.0852
0.5123 0.1327 0.0869
0.5287 0.1388 0.0844
0.5465 0.1462 0.0819
0.5631 0.1579 0.0812
0.5769 0.1699 0.0824
0.5986 0.1862 0.0838
0.0619 0.0672 0.0562
0.0616 0.0690 0.0560
0.0621 0.0734 0.0605
0.0812 0.0724 0.0553
0.0965 0.0647 0.0468
0.1120 0.0681 0.0480
0.1309 0.0710 0.0492
0.1529 0.0715 0.0505
0.1757 0.0739 0.0524
0.1970 0.0728 0.0547
0.2155 0.0696 0.0564
0.2420 0.0626 0.0587
0.2770 0.0610 0.0618
0.3114 0.0699 0.0651
0.3511 0.0797 0.0682
0.3872 0.0942 0.0720
0.4187 0.1062 0.0773
0.4473 0.1171 0.0798
0.4778 0.1296 0.0856
0.5121 0.1460 0.0889
0.5381 0.1577 0.0865
0.5564 0.1661 0.0841
0.5694 0.1775 0.0839
0.5814 0.1893 0.0851
0.5940 0.2027 0.0867
0.0613 0.0791 0.0600
0.0611 0.0810 0.0598
0.0610 0.0855 0.0613
0.0749 0.0898 0.0663
0.0951 0.0858 0.0524
0.1136 0.0797 0.0497
0.1320 0.0823 0.0508
0.1523 0.0847 0.0523
0.1752 0.0865 0.0542
0.1920 0.0903 0.0568
0.2106 0.0902 0.0589
0.2314 0.0879 0.0611
0.2596 0.0864 0.0643
0.3016 0.0882 0.0672
0.3406 0.0943 0.0699
0.3783 0.1033 0.0724
0.4106 0.1179 0.0782
0.4445 0.1313 0.0815
0.4799 0.1459 0.0875
0.5102 0.1626 0.0911
0.5355 0.1791 0.0905
0.5557 0.1920 0.0881
0.5707 0.2044 0.0879
0.5850 0.2167 0.0892
0.5979 0.2310 0.0909
0.0610 0.0924 0.0644
0.0609 0.0926 0.0634
0.0605 0.0943 0.0619
0.0602 0.1015 0.0613
0.0960 0.0957 0.0560
0.1167 0.0947 0.0519
0.1354 0.0945 0.0527
0.1562 0.0962 0.0541
0.1756 0.0993 0.0561
0.1903 0.1031 0.0585
0.2047 0.1085 0.0610
0.2218 0.1118 0.0636
0.2421 0.1148 0.0667
0.2711 0.1185 0.0699
0.3159 0.1201 0.0727
0.3542 0.1302 0.0757
0.3925 0.1408 0.0790
0.4340 0.1544 0.0845
0.4719 0.1676 0.0894
0.5003 0.1851 0.0941
0.5249 0.1998 0.0959
0.5510 0.2170 0.0937
0.5721 0.2323 0.0922
0.5876 0.2429 0.0932
0.6070 0.2536 0.0940
0.0610 0.1102 0.0706
0.0609 0.1108 0.0695
0.0608 0.1128 0.0693
0.0604 0.1151 0.0668
0.0772 0.1146 0.0581
0.1073 0.1081 0.0535
0.1295 0.1182 0.0560
0.1504 0.1215 0.0575
0.1775 0.1159 0.0588
0.1914 0.1162 0.0606
0.2053 0.1224 0.0631
0.2195 0.1321 0.0661
0.2359 0.1401 0.0692
0.2575 0.1468 0.0729
0.2857 0.1547 0.0759
0.3256 0.1606 0.0790
0.3614 0.1715 0.0818
0.4018 0.1790 0.0859
0.4461 0.1872 0.0894
0.4805 0.2010 0.0953
0.5109 0.2194 0.0992
0.5392 0.2379 0.0997
0.5721 0.2548 0.0960
0.6058 0.2675 0.0962
0.6338 0.2730 0.0911
0.0590 0.1300 0.0788
0.0586 0.1307 0.0776
0.0579 0.1332 0.0774
0.0561 0.1375 0.0746
0.0501 0.1465 0.0561
0.0964 0.1319 0.0560
0.1211 0.1300 0.0570
0.1453 0.1425 0.0598
0.1671 0.1508 0.0622
0.1960 0.1484 0.0651
0.2105 0.1418 0.0661
0.2229 0.1489 0.0685
0.2383 0.1582 0.0717
0.2563 0.1677 0.0754
0.2808 0.1759 0.0783
0.3085 0.1861 0.0814
0.3361 0.1956 0.0841
0.3756 0.2033 0.0866
0.4151 0.2107 0.0919
0.4556 0.2227 0.0951
0.4932 0.2376 0.1014
0.5387 0.2531 0.1024
0.5817 0.2679 0.0972
0.6131 0.2819 0.0981
0.6464 0.2998 0.0926
0.0537 0.1510 0.0871
0.0530 0.1531 0.0868
0.0519 0.1562 0.0859
0.0495 0.1609 0.0791
0.0473 0.1677 0.0688
0.0658 0.1745 0.0604
0.1213 0.1551 0.0600
0.1510 0.1575 0.0621
0.1714 0.1684 0.0649
0.1922 0.1768 0.0683
0.2193 0.1772 0.0715
0.2350 0.1702 0.0727
0.2510 0.1780 0.0759
0.2727 0.1879 0.0792
0.2989 0.1988 0.0825
0.3234 0.2063 0.0850
0.3534 0.2139 0.0874
0.3864 0.2195 0.0893
0.4229 0.2288 0.0948
0.4641 0.2411 0.0987
0.5061 0.2551 0.1042
0.5517 0.2687 0.1024
0.5876 0.2819 0.0991
0.6170 0.2978 0.1003
0.6479 0.3227 0.0988
0.0480 0.1731 0.0971
0.0478 0.1745 0.0966
0.0478 0.1780 0.0916
0.0475 0.1829 0.0825
0.0468 0.1934 0.0708
0.0483 0.1998 0.0635
0.0852 0.1936 0.0639
0.1478 0.1803 0.0648
0.1817 0.1852 0.0683
0.2004 0.1933 0.0715
0.2240 0.2005 0.0750
0.2499 0.2041 0.0788
0.2703 0.2030 0.0811
0.2936 0.2112 0.0838
0.3160 0.2186 0.0862
0.3424 0.2268 0.0887
0.3716 0.2329 0.0907
0.4031 0.2382 0.0939
0.4391 0.2457 0.0976
0.4768 0.2587 0.1027
0.5181 0.2735 0.1071
0.5597 0.2826 0.1030
0.5932 0.2980 0.1013
0.6231 0.3179 0.1026
0.6520 0.3474 0.1060
0.0475 0.1935 0.1082
0.0474 0.1942 0.1045
0.0471 0.1969 0.0952
0.0469 0.2054 0.0826
0.0459 0.2163 0.0702
0.0525 0.2229 0.0672
0.0719 0.2237 0.0680
0.1040 0.2164 0.0678
0.1754 0.2072 0.0708
0.2070 0.2132 0.0751
0.2315 0.2188 0.0785
0.2609 0.2245 0.0828
0.2933 0.2279 0.0860
0.3131 0.2316 0.0878
0.3355 0.2386 0.0900
0.3626 0.2451 0.0921
0.3907 0.2513 0.0939
0.4215 0.2564 0.0987
0.4573 0.2663 0.1012
0.4905 0.2785 0.1072
0.5263 0.2900 0.1097
0.5650 0.3040 0.1052
0.5998 0.3214 0.1046
0.6320 0.3379 0.1038
0.6552 0.3698 0.1125
0.0469 0.2140 0.1210
0.0467 0.2153 0.1181
0.0465 0.2173 0.1087
0.0462 0.2267 0.0925
0.0483 0.2421 0.0751
0.0661 0.2510 0.0719
0.0865 0.2506 0.0726
0.1078 0.2467 0.0725
0.1503 0.2428 0.0738
0.2035 0.2348 0.0779
0.2352 0.2430 0.0824
0.2708 0.2460 0.0869
0.3043 0.2500 0.0897
0.3346 0.2550 0.0923
0.3582 0.2589 0.0938
0.3837 0.2648 0.0955
0.4109 0.2718 0.0993
0.4442 0.2780 0.1024
0.4758 0.2875 0.1066
0.5050 0.2992 0.1106
0.5394 0.3126 0.1114
0.5762 0.3283 0.1073
0.6093 0.3458 0.1081
0.6372 0.3658 0.1089
0.6599 0.3931 0.1200
