example-Advanced/bin/data/ofxGpuLutCube/LUT/Dramatic-11.cube
#Generated by Picture Instruments - Look Creator
TITLE "Agfa Scala 200++"
LUT_3D_SIZE 5
0.105882 0.105882 0.105882
0.109804 0.109804 0.109804
0.133333 0.133333 0.133333
0.231373 0.231373 0.231373
0.443137 0.443137 0.443137
0.12549 0.12549 0.12549
0.141176 0.141176 0.141176
0.215686 0.215686 0.215686
0.32549 0.32549 0.32549
0.529412 0.529412 0.529412
0.286275 0.286275 0.286275
0.290196 0.290196 0.290196
0.380392 0.380392 0.380392
0.541176 0.541176 0.541176
0.709804 0.709804 0.709804
0.603922 0.603922 0.603922
0.596078 0.596078 0.596078
0.631373 0.631373 0.631373
0.717647 0.717647 0.717647
0.854902 0.854902 0.854902
0.886275 0.886275 0.886275
0.882353 0.882353 0.882353
0.890196 0.890196 0.890196
0.92549 0.92549 0.92549
0.952941 0.952941 0.952941
0.117647 0.117647 0.117647
0.129412 0.129412 0.129412
0.184314 0.184314 0.184314
0.301961 0.301961 0.301961
0.501961 0.501961 0.501961
0.160784 0.160784 0.160784
0.2 0.2 0.2
0.262745 0.262745 0.262745
0.380392 0.380392 0.380392
0.572549 0.572549 0.572549
0.376471 0.376471 0.376471
0.380392 0.380392 0.380392
0.443137 0.443137 0.443137
0.584314 0.584314 0.584314
0.72549 0.72549 0.72549
0.643137 0.643137 0.643137
0.647059 0.647059 0.647059
0.662745 0.662745 0.662745
0.741176 0.741176 0.741176
0.866667 0.866667 0.866667
0.898039 0.898039 0.898039
0.898039 0.898039 0.898039
0.901961 0.901961 0.901961
0.929412 0.929412 0.929412
0.952941 0.952941 0.952941
0.247059 0.247059 0.247059
0.266667 0.266667 0.266667
0.321569 0.321569 0.321569
0.458824 0.458824 0.458824
0.619608 0.619608 0.619608
0.317647 0.317647 0.317647
0.34902 0.34902 0.34902
0.396078 0.396078 0.396078
0.521569 0.521569 0.521569
0.658824 0.658824 0.658824
0.443137 0.443137 0.443137
0.486275 0.486275 0.486275
0.576471 0.576471 0.576471
0.65098 0.65098 0.65098
0.752941 0.752941 0.752941
0.721569 0.721569 0.721569
0.737255 0.737255 0.737255
0.745098 0.745098 0.745098
0.792157 0.792157 0.792157
0.890196 0.890196 0.890196
0.921569 0.921569 0.921569
0.921569 0.921569 0.921569
0.92549 0.92549 0.92549
0.937255 0.937255 0.937255
0.956863 0.956863 0.956863
0.52549 0.52549 0.52549
0.541176 0.541176 0.541176
0.584314 0.584314 0.584314
0.631373 0.631373 0.631373
0.733333 0.733333 0.733333
0.564706 0.564706 0.564706
0.580392 0.580392 0.580392
0.619608 0.619608 0.619608
0.666667 0.666667 0.666667
0.764706 0.764706 0.764706
0.639216 0.639216 0.639216
0.670588 0.670588 0.670588
0.717647 0.717647 0.717647
0.752941 0.752941 0.752941
0.839216 0.839216 0.839216
0.760784 0.760784 0.760784
0.776471 0.776471 0.776471
0.811765 0.811765 0.811765
0.870588 0.870588 0.870588
0.909804 0.909804 0.909804
0.941176 0.941176 0.941176
0.945098 0.945098 0.945098
0.94902 0.94902 0.94902
0.952941 0.952941 0.952941
0.964706 0.964706 0.964706
0.835294 0.835294 0.835294
0.847059 0.847059 0.847059
0.858824 0.858824 0.858824
0.886275 0.886275 0.886275
0.901961 0.901961 0.901961
0.854902 0.854902 0.854902
0.858824 0.858824 0.858824
0.87451 0.87451 0.87451
0.898039 0.898039 0.898039
0.913725 0.913725 0.913725
0.890196 0.890196 0.890196
0.894118 0.894118 0.894118
0.905882 0.905882 0.905882
0.917647 0.917647 0.917647
0.929412 0.929412 0.929412
0.917647 0.917647 0.917647
0.921569 0.921569 0.921569
0.929412 0.929412 0.929412
0.945098 0.945098 0.945098
0.952941 0.952941 0.952941
0.952941 0.952941 0.952941
0.956863 0.956863 0.956863
0.956863 0.956863 0.956863
0.964706 0.964706 0.964706
0.972549 0.972549 0.972549
