example-Advanced/bin/data/ofxGpuLutCube/LUT/Dramatic-9.cube
#Generated by Picture Instruments - Look Creator
TITLE "Agfa Optima 100II--"
LUT_3D_SIZE 9
0 0 0
0.101961 0 0.00392157
0.211765 0 0
0.309804 0 0
0.427451 0 0
0.556863 0 0
0.690196 0 0
0.803922 0 0
0.905882 0.0470588 0
0.0509804 0.133333 0.0431373
0.12549 0.141176 0.00784314
0.231373 0.129412 0
0.337255 0.109804 0
0.462745 0.0862745 0
0.592157 0.0352941 0
0.709804 0.0666667 0
0.815686 0.12549 0
0.913725 0.172549 0
0.101961 0.243137 0.0980392
0.141176 0.247059 0.0980392
0.227451 0.262745 0.0509804
0.368627 0.27451 0
0.501961 0.262745 0
0.631373 0.262745 0
0.737255 0.27451 0
0.831373 0.290196 0
0.92549 0.309804 0
0.14902 0.364706 0.137255
0.184314 0.380392 0.141176
0.239216 0.376471 0.141176
0.360784 0.411765 0.0784314
0.541176 0.447059 0
0.666667 0.443137 0
0.768627 0.439216 0
0.854902 0.447059 0
0.945098 0.454902 0
0.207843 0.521569 0.176471
0.235294 0.52549 0.176471
0.290196 0.521569 0.176471
0.372549 0.52549 0.164706
0.517647 0.564706 0.0784314
0.678431 0.6 0
0.788235 0.6 0
0.87451 0.596078 0
0.960784 0.596078 0
0.290196 0.658824 0.231373
0.309804 0.654902 0.231373
0.356863 0.654902 0.231373
0.423529 0.65098 0.231373
0.517647 0.662745 0.203922
0.643137 0.690196 0.117647
0.784314 0.72549 0
0.890196 0.733333 0
0.972549 0.729412 0
0.396078 0.784314 0.317647
0.407843 0.776471 0.313725
0.443137 0.772549 0.309804
0.498039 0.772549 0.309804
0.556863 0.764706 0.309804
0.654902 0.784314 0.27451
0.752941 0.807843 0.2
0.87451 0.835294 0
0.984314 0.854902 0
0.529412 0.898039 0.443137
0.529412 0.886275 0.431373
0.54902 0.878431 0.431373
0.588235 0.878431 0.431373
0.635294 0.878431 0.435294
0.690196 0.878431 0.439216
0.768627 0.894118 0.392157
0.85098 0.913725 0.321569
0.94902 0.929412 0.196078
0.682353 0.984314 0.615686
0.67451 0.980392 0.6
0.686275 0.980392 0.607843
0.713725 0.980392 0.615686
0.74902 0.984314 0.627451
0.792157 0.984314 0.639216
0.835294 0.988235 0.639216
0.882353 0.992157 0.607843
0.937255 0.992157 0.54902
0 0.00392157 0.121569
0.0941176 0 0.109804
0.207843 0 0.105882
0.301961 0 0.0901961
0.419608 0 0.0705882
0.556863 0 0
0.690196 0 0
0.803922 0 0
0.909804 0.0862745 0
0.0509804 0.12549 0.141176
0.133333 0.12549 0.145098
0.219608 0.117647 0.12549
0.32549 0.101961 0.105882
0.45098 0.0745098 0.0745098
0.588235 0.0196078 0
0.709804 0.0823529 0
0.815686 0.14902 0
0.913725 0.180392 0
0.12549 0.235294 0.156863
0.160784 0.243137 0.160784
0.235294 0.25098 0.145098
0.368627 0.262745 0.105882
0.498039 0.25098 0.0784314
0.623529 0.25098 0
0.733333 0.262745 0
0.831373 0.290196 0
0.92549 0.313725 0
0.160784 0.372549 0.180392
0.196078 0.384314 0.184314
0.254902 0.376471 0.184314
0.368627 0.407843 0.145098
0.541176 0.439216 0.0392157
0.666667 0.435294 0
0.764706 0.431373 0
0.854902 0.439216 0
0.945098 0.454902 0
0.211765 0.513725 0.207843
0.243137 0.529412 0.211765
0.298039 0.52549 0.211765
0.380392 0.52549 0.207843
0.517647 0.564706 0.145098
0.682353 0.6 0
0.788235 0.596078 0
0.878431 0.588235 0
0.960784 0.588235 0
0.290196 0.647059 0.254902
0.313725 0.654902 0.258824
0.360784 0.654902 0.258824
0.431373 0.65098 0.262745
0.521569 0.662745 0.243137
0.647059 0.690196 0.176471
0.788235 0.729412 0
0.890196 0.729412 0
0.972549 0.72549 0
0.384314 0.764706 0.32549
0.407843 0.772549 0.333333
0.447059 0.772549 0.333333
0.501961 0.772549 0.333333
0.564706 0.768627 0.333333
0.65098 0.784314 0.305882
0.756863 0.811765 0.243137
0.878431 0.835294 0.0823529
0.984314 0.854902 0
0.513725 0.878431 0.439216
0.529412 0.882353 0.447059
0.552941 0.882353 0.447059
0.592157 0.882353 0.45098
0.639216 0.882353 0.454902
0.694118 0.882353 0.458824
0.772549 0.898039 0.419608
0.854902 0.913725 0.352941
0.94902 0.929412 0.239216
0.67451 0.980392 0.619608
0.682353 0.980392 0.615686
0.690196 0.980392 0.619608
0.717647 0.984314 0.627451
0.752941 0.984314 0.635294
0.796078 0.984314 0.65098
0.839216 0.988235 0.647059
0.886275 0.996078 0.623529
0.937255 0.992157 0.564706
0 0.0117647 0.227451
0.0784314 0 0.219608
0.184314 0 0.211765
0.298039 0 0.2
0.411765 0 0.184314
0.533333 0 0.160784
0.670588 0 0.145098
0.796078 0 0.0980392
0.901961 0 0
0.0392157 0.101961 0.235294
0.117647 0.101961 0.227451
0.203922 0.0980392 0.219608
0.313725 0.0980392 0.215686
0.431373 0 0.192157
0.564706 0 0.172549
0.694118 0 0.14902
0.807843 0.0431373 0.0980392
0.909804 0.156863 0
0.117647 0.227451 0.239216
0.160784 0.231373 0.239216
0.243137 0.235294 0.247059
0.345098 0.227451 0.223529
0.470588 0.215686 0.203922
0.603922 0.215686 0.180392
0.717647 0.223529 0.14902
0.823529 0.25098 0.0941176
0.917647 0.286275 0
0.164706 0.360784 0.247059
0.203922 0.376471 0.258824
0.27451 0.380392 0.262745
0.372549 0.396078 0.243137
0.537255 0.411765 0.207843
0.654902 0.403922 0.184314
0.756863 0.403922 0.14902
0.847059 0.415686 0.0862745
0.937255 0.431373 0
0.227451 0.513725 0.282353
0.258824 0.529412 0.290196
0.317647 0.529412 0.290196
0.396078 0.521569 0.286275
0.529412 0.556863 0.25098
0.690196 0.592157 0.192157
0.784314 0.580392 0.14902
0.87451 0.576471 0.0823529
0.960784 0.576471 0
0.301961 0.647059 0.317647
0.329412 0.658824 0.32549
0.376471 0.658824 0.329412
0.443137 0.654902 0.32549
0.529412 0.658824 0.317647
0.654902 0.690196 0.278431
0.796078 0.72549 0.192157
0.898039 0.72549 0.113725
0.972549 0.717647 0
0.4 0.764706 0.380392
0.423529 0.772549 0.388235
0.458824 0.772549 0.388235
0.513725 0.772549 0.388235
0.576471 0.768627 0.392157
0.658824 0.780392 0.372549
0.764706 0.807843 0.32549
0.886275 0.839216 0.231373
0.988235 0.854902 0.113725
0.52549 0.878431 0.478431
0.541176 0.882353 0.486275
0.560784 0.882353 0.486275
0.6 0.882353 0.490196
0.647059 0.878431 0.498039
0.701961 0.882353 0.501961
0.772549 0.898039 0.47451
0.854902 0.913725 0.415686
0.956863 0.933333 0.317647
0.678431 0.984314 0.635294
0.682353 0.984314 0.635294
0.698039 0.984314 0.639216
0.72549 0.984314 0.643137
0.756863 0.984314 0.654902
0.8 0.988235 0.670588
0.843137 0.988235 0.678431
0.886275 0.996078 0.647059
0.945098 0.996078 0.596078
0 0.0117647 0.368627
0 0 0.360784
0.180392 0 0.345098
0.305882 0 0.329412
0.447059 0 0.329412
0.576471 0 0.309804
0.670588 0 0.270588
0.764706 0 0.219608
0.878431 0 0.203922
0 0.0784314 0.34902
0.0862745 0.0784314 0.34902
0.196078 0.0666667 0.341176
0.317647 0.0156863 0.333333
0.462745 0 0.337255
0.592157 0 0.317647
0.694118 0 0.278431
0.788235 0 0.247059
0.905882 0 0.211765
0.121569 0.227451 0.345098
0.160784 0.227451 0.360784
0.227451 0.211765 0.356863
0.34902 0.211765 0.352941
0.482353 0.219608 0.352941
0.596078 0.168627 0.313725
0.698039 0.14902 0.282353
0.807843 0.168627 0.25098
0.921569 0.207843 0.215686
0.152941 0.352941 0.356863
0.196078 0.368627 0.372549
0.278431 0.376471 0.376471
0.4 0.384314 0.388235
0.517647 0.368627 0.364706
0.631373 0.360784 0.333333
0.733333 0.360784 0.301961
0.835294 0.368627 0.266667
0.933333 0.388235 0.223529
0.219608 0.501961 0.368627
0.262745 0.517647 0.384314
0.329412 0.52549 0.388235
0.427451 0.529412 0.4
0.541176 0.545098 0.384314
0.682353 0.564706 0.352941
0.776471 0.552941 0.329412
0.862745 0.54902 0.290196
0.952941 0.54902 0.239216
0.309804 0.643137 0.407843
0.341176 0.654902 0.415686
0.4 0.658824 0.419608
0.466667 0.654902 0.423529
0.541176 0.65098 0.423529
0.658824 0.682353 0.396078
0.8 0.717647 0.352941
0.890196 0.705882 0.309804
0.972549 0.701961 0.262745
0.407843 0.760784 0.45098
0.435294 0.772549 0.466667
0.47451 0.772549 0.466667
0.52549 0.768627 0.466667
0.584314 0.764706 0.470588
0.662745 0.776471 0.462745
0.764706 0.803922 0.427451
0.894118 0.835294 0.360784
0.980392 0.839216 0.305882
0.537255 0.87451 0.537255
0.54902 0.882353 0.545098
0.572549 0.882353 0.541176
0.607843 0.882353 0.545098
0.654902 0.882353 0.54902
0.709804 0.878431 0.552941
0.776471 0.894118 0.541176
0.858824 0.909804 0.494118
0.960784 0.933333 0.419608
0.686275 0.980392 0.670588
0.694118 0.984314 0.670588
0.705882 0.984314 0.670588
0.729412 0.984314 0.678431
0.760784 0.984314 0.686275
0.803922 0.984314 0.698039
0.847059 0.988235 0.709804
0.890196 0.996078 0.686275
0.941176 0.996078 0.639216
0 0.00784314 0.498039
0 0 0.486275
0.152941 0 0.47451
0.298039 0 0.462745
0.423529 0 0.443137
0.568627 0 0.45098
0.694118 0 0.447059
0.784314 0 0.411765
0.882353 0 0.376471
0 0.0196078 0.470588
0 0 0.470588
0.176471 0 0.466667
0.305882 0 0.462745
0.435294 0 0.454902
0.592157 0 0.466667
0.717647 0 0.458824
0.807843 0 0.423529
0.909804 0 0.388235
0 0.172549 0.466667
0.0862745 0.176471 0.47451
0.203922 0.176471 0.478431
0.329412 0.172549 0.47451
0.458824 0.156863 0.470588
0.607843 0.176471 0.478431
0.717647 0.176471 0.458824
0.807843 0.105882 0.423529
0.909804 0 0.372549
0.14902 0.341176 0.462745
0.196078 0.356863 0.482353
0.282353 0.360784 0.494118
0.364706 0.341176 0.498039
0.505882 0.345098 0.494118
0.631373 0.368627 0.498039
0.721569 0.333333 0.454902
0.807843 0.290196 0.403922
0.917647 0.305882 0.376471
0.215686 0.490196 0.486275
0.25098 0.505882 0.501961
0.321569 0.509804 0.509804
0.427451 0.517647 0.517647
0.564706 0.529412 0.533333
0.654902 0.517647 0.509804
0.74902 0.505882 0.47451
0.843137 0.498039 0.435294
0.941176 0.498039 0.396078
0.298039 0.631373 0.501961
0.329412 0.639216 0.513725
0.388235 0.647059 0.517647
0.478431 0.65098 0.529412
0.576471 0.654902 0.545098
0.67451 0.67451 0.533333
0.8 0.694118 0.509804
0.882353 0.682353 0.482353
0.964706 0.67451 0.443137
0.392157 0.756863 0.52549
0.419608 0.764706 0.537255
0.462745 0.768627 0.541176
0.537255 0.768627 0.556863
0.611765 0.768627 0.560784
0.670588 0.764706 0.560784
0.772549 0.796078 0.545098
0.901961 0.835294 0.513725
0.980392 0.823529 0.47451
0.498039 0.878431 0.576471
0.521569 0.882353 0.584314
0.560784 0.882353 0.596078
0.619608 0.882353 0.611765
0.666667 0.882353 0.615686
0.721569 0.882353 0.615686
0.784314 0.890196 0.611765
0.862745 0.909804 0.588235
0.968627 0.933333 0.537255
0.666667 0.984314 0.694118
0.678431 0.988235 0.698039
0.705882 0.984314 0.709804
0.733333 0.984314 0.717647
0.768627 0.984314 0.72549
0.811765 0.984314 0.733333
0.854902 0.988235 0.74902
0.898039 0.992157 0.733333
0.94902 0.996078 0.694118
0 0.00392157 0.6
0 0 0.611765
0.121569 0 0.607843
0.294118 0 0.596078
0.431373 0 0.580392
0.552941 0 0.564706
0.678431 0 0.576471
0.796078 0 0.576471
0.894118 0 0.568627
0 0 0.584314
0 0 0.592157
0.168627 0 0.592157
0.305882 0 0.596078
0.439216 0 0.588235
0.572549 0 0.584314
0.701961 0 0.592157
0.819608 0 0.596078
0.917647 0 0.584314
0 0.141176 0.576471
0 0.145098 0.592157
0.180392 0.141176 0.592157
0.313725 0.121569 0.592157
0.447059 0.0784314 0.592157
0.584314 0 0.592157
0.709804 0.0980392 0.596078
0.823529 0.215686 0.6
0.917647 0.180392 0.584314
0.109804 0.309804 0.584314
0.137255 0.309804 0.6
0.207843 0.290196 0.6
0.341176 0.290196 0.603922
0.478431 0.294118 0.607843
0.607843 0.298039 0.603922
0.72549 0.341176 0.611765
0.827451 0.368627 0.6
0.917647 0.329412 0.576471
0.219608 0.482353 0.596078
0.25098 0.486275 0.603922
0.313725 0.486275 0.607843
0.423529 0.490196 0.619608
0.517647 0.47451 0.627451
0.643137 0.494118 0.627451
0.74902 0.529412 0.635294
0.827451 0.482353 0.592157
0.917647 0.443137 0.54902
0.301961 0.631373 0.623529
0.32549 0.631373 0.623529
0.380392 0.631373 0.627451
0.466667 0.639216 0.635294
0.572549 0.643137 0.643137
0.686275 0.662745 0.662745
0.768627 0.65098 0.635294
0.854902 0.635294 0.607843
0.945098 0.631373 0.576471
0.388235 0.764706 0.635294
0.4 0.760784 0.631373
0.447059 0.756863 0.635294
0.521569 0.760784 0.639216
0.607843 0.768627 0.65098
0.701961 0.772549 0.670588
0.788235 0.792157 0.666667
0.898039 0.815686 0.65098
0.972549 0.803922 0.627451
0.498039 0.890196 0.670588
0.505882 0.882353 0.662745
0.537255 0.882353 0.662745
0.592157 0.886275 0.666667
0.662745 0.886275 0.686275
0.733333 0.882353 0.698039
0.792157 0.882353 0.701961
0.878431 0.909804 0.686275
0.984314 0.933333 0.662745
0.635294 0.992157 0.733333
0.639216 0.992157 0.733333
0.662745 0.992157 0.733333
0.709804 0.992157 0.74902
0.772549 0.988235 0.776471
0.819608 0.988235 0.788235
0.862745 0.988235 0.792157
0.905882 0.992157 0.796078
0.960784 0.992157 0.764706
0 0.0588235 0.72549
0 0.0196078 0.733333
0.0941176 0 0.721569
0.290196 0 0.709804
0.431373 0 0.698039
0.556863 0 0.690196
0.666667 0 0.682353
0.776471 0 0.682353
0.894118 0 0.698039
0 0.00784314 0.713725
0 0 0.72549
0.14902 0 0.721569
0.309804 0 0.717647
0.447059 0 0.713725
0.576471 0 0.709804
0.690196 0 0.705882
0.8 0 0.705882
0.917647 0 0.717647
0 0.0901961 0.701961
0 0.0862745 0.717647
0.184314 0.054902 0.713725
0.317647 0 0.713725
0.45098 0 0.713725
0.580392 0 0.709804
0.698039 0 0.709804
0.807843 0 0.709804
0.921569 0.188235 0.717647
0 0.239216 0.694118
0 0.247059 0.713725
0.184314 0.243137 0.717647
0.32549 0.239216 0.717647
0.462745 0.231373 0.717647
0.592157 0.227451 0.717647
0.709804 0.231373 0.717647
0.819608 0.298039 0.717647
0.92549 0.396078 0.72549
0.239216 0.462745 0.705882
0.278431 0.47451 0.721569
0.305882 0.45098 0.72549
0.341176 0.407843 0.721569
0.478431 0.411765 0.72549
0.611765 0.423529 0.729412
0.729412 0.443137 0.729412
0.831373 0.498039 0.729412
0.92549 0.533333 0.733333
0.286275 0.603922 0.709804
0.313725 0.611765 0.717647
0.368627 0.611765 0.721569
0.447059 0.607843 0.721569
0.556863 0.615686 0.733333
0.643137 0.603922 0.741176
0.756863 0.627451 0.74902
0.854902 0.666667 0.752941
0.933333 0.631373 0.72549
0.368627 0.737255 0.729412
0.392157 0.745098 0.737255
0.435294 0.74902 0.737255
0.505882 0.74902 0.745098
0.592157 0.74902 0.745098
0.690196 0.760784 0.760784
0.803922 0.788235 0.784314
0.878431 0.768627 0.756863
0.952941 0.760784 0.733333
0.458824 0.862745 0.745098
0.478431 0.870588 0.74902
0.505882 0.870588 0.74902
0.564706 0.87451 0.752941
0.635294 0.87451 0.752941
0.721569 0.882353 0.764706
0.811765 0.882353 0.788235
0.886275 0.901961 0.784314
0.976471 0.917647 0.784314
0.6 0.988235 0.792157
0.611765 0.992157 0.796078
0.635294 0.992157 0.796078
0.67451 0.988235 0.803922
0.729412 0.992157 0.803922
0.8 0.988235 0.819608
0.866667 0.984314 0.843137
0.917647 0.984314 0.85098
0.972549 0.992157 0.835294
0 0.121569 0.819608
0 0.109804 0.831373
0.0901961 0.0705882 0.827451
0.290196 0 0.819608
0.431373 0 0.811765
0.556863 0 0.803922
0.670588 0 0.803922
0.780392 0 0.803922
0.87451 0 0.803922
0 0.109804 0.823529
0 0.101961 0.843137
0.133333 0.0431373 0.843137
0.309804 0 0.843137
0.45098 0 0.835294
0.580392 0 0.835294
0.698039 0 0.831373
0.803922 0 0.827451
0.898039 0 0.823529
0 0.0941176 0.819608
0 0.0823529 0.843137
0.192157 0 0.839216
0.333333 0 0.839216
0.466667 0 0.835294
0.588235 0 0.835294
0.701961 0 0.835294
0.807843 0 0.831373
0.901961 0 0.823529
0 0.188235 0.819608
0 0.192157 0.843137
0.192157 0.184314 0.843137
0.333333 0.164706 0.839216
0.466667 0.133333 0.839216
0.588235 0.0941176 0.835294
0.705882 0.0392157 0.835294
0.815686 0.0156863 0.835294
0.909804 0.2 0.827451
0.0705882 0.392157 0.823529
0.0862745 0.388235 0.839216
0.156863 0.360784 0.839216
0.313725 0.34902 0.843137
0.462745 0.341176 0.843137
0.592157 0.345098 0.843137
0.713725 0.356863 0.843137
0.823529 0.376471 0.843137
0.921569 0.45098 0.839216
0.32549 0.603922 0.827451
0.352941 0.607843 0.835294
0.403922 0.607843 0.839216
0.47451 0.596078 0.847059
0.47451 0.533333 0.839216
0.603922 0.537255 0.847059
0.729412 0.556863 0.847059
0.839216 0.580392 0.85098
0.933333 0.635294 0.85098
0.376471 0.737255 0.835294
0.4 0.741176 0.843137
0.435294 0.741176 0.839216
0.494118 0.737255 0.843137
0.568627 0.729412 0.839216
0.670588 0.733333 0.847059
0.74902 0.721569 0.854902
0.862745 0.74902 0.866667
0.952941 0.788235 0.870588
0.454902 0.862745 0.85098
0.47451 0.866667 0.858824
0.505882 0.866667 0.862745
0.552941 0.866667 0.862745
0.623529 0.866667 0.862745
0.701961 0.866667 0.862745
0.792157 0.870588 0.866667
0.901961 0.898039 0.890196
0.960784 0.886275 0.87451
0.564706 0.980392 0.878431
0.580392 0.984314 0.882353
0.607843 0.984314 0.882353
0.643137 0.984314 0.882353
0.698039 0.984314 0.882353
0.772549 0.984314 0.882353
0.843137 0.988235 0.890196
0.929412 0.988235 0.913725
0.980392 0.988235 0.909804
0 0.223529 0.901961
0 0.227451 0.92549
0.184314 0.211765 0.921569
0.32549 0.188235 0.913725
0.447059 0.137255 0.917647
0.564706 0.0470588 0.917647
0.67451 0 0.921569
0.780392 0 0.921569
0.886275 0 0.921569
0 0.231373 0.937255
0 0.231373 0.956863
0.2 0.219608 0.956863
0.341176 0.188235 0.952941
0.470588 0.145098 0.94902
0.584314 0.0588235 0.94902
0.698039 0 0.945098
0.803922 0 0.945098
0.905882 0 0.945098
0 0.231373 0.937255
0.0235294 0.231373 0.956863
0.219608 0.219608 0.956863
0.345098 0.192157 0.952941
0.47451 0.14902 0.952941
0.588235 0.0745098 0.952941
0.701961 0 0.952941
0.807843 0 0.94902
0.909804 0 0.945098
0 0.239216 0.941176
0.00784314 0.239216 0.960784
0.219608 0.231373 0.960784
0.34902 0.207843 0.960784
0.47451 0.164706 0.956863
0.592157 0.105882 0.956863
0.705882 0 0.956863
0.811765 0 0.94902
0.913725 0 0.94902
0 0.305882 0.937255
0 0.305882 0.960784
0.14902 0.301961 0.964706
0.317647 0.290196 0.964706
0.462745 0.270588 0.964706
0.588235 0.254902 0.960784
0.701961 0.243137 0.956863
0.815686 0.231373 0.952941
0.92549 0.235294 0.952941
0.423529 0.619608 0.956863
0.423529 0.611765 0.960784
0.411765 0.584314 0.964706
0.380392 0.521569 0.960784
0.443137 0.47451 0.960784
0.588235 0.47451 0.964706
0.709804 0.482353 0.960784
0.823529 0.490196 0.960784
0.933333 0.509804 0.956863
0.482353 0.760784 0.956863
0.494118 0.764706 0.960784
0.52549 0.760784 0.960784
0.572549 0.756863 0.960784
0.635294 0.752941 0.964706
0.627451 0.682353 0.964706
0.717647 0.670588 0.964706
0.839216 0.682353 0.960784
0.945098 0.701961 0.960784
0.541176 0.878431 0.964706
0.54902 0.878431 0.972549
0.572549 0.878431 0.968627
0.607843 0.878431 0.972549
0.65098 0.870588 0.968627
0.709804 0.866667 0.968627
0.792157 0.858824 0.968627
0.858824 0.835294 0.964706
0.960784 0.862745 0.968627
0.631373 0.988235 0.984314
0.639216 0.988235 0.984314
0.654902 0.988235 0.984314
0.682353 0.988235 0.984314
0.721569 0.988235 0.984314
0.772549 0.988235 0.984314
0.835294 0.988235 0.984314
0.909804 0.988235 0.980392
0.984314 0.988235 0.984314
