example-Advanced/bin/data/ofxGpuLutCube/LUT/Dramatic-44.cube
TITLE "Generated by 3D LUT Creator (c) Oleg Sharonov"
LUT_3D_SIZE 9
0.0612 0.0433 0.0425
0.0836 0.0512 0.0442
0.1279 0.0569 0.0471
0.1963 0.0555 0.0537
0.2722 0.0608 0.0614
0.3854 0.0841 0.0705
0.4754 0.1183 0.0841
0.5321 0.1390 0.0836
0.6040 0.1829 0.0808
0.0607 0.0759 0.0551
0.0841 0.0776 0.0479
0.1281 0.0841 0.0509
0.1864 0.0955 0.0569
0.2480 0.1055 0.0660
0.3650 0.1213 0.0747
0.4679 0.1546 0.0870
0.5452 0.2020 0.0922
0.5900 0.2410 0.0928
0.0590 0.1286 0.0761
0.0534 0.1381 0.0604
0.1296 0.1328 0.0576
0.1920 0.1514 0.0650
0.2317 0.1629 0.0714
0.2962 0.1851 0.0805
0.3969 0.2130 0.0898
0.5113 0.2533 0.1041
0.6188 0.2989 0.1004
0.0475 0.1903 0.1023
0.0462 0.2052 0.0662
0.1022 0.2081 0.0665
0.2068 0.2115 0.0748
0.2778 0.2204 0.0839
0.3441 0.2413 0.0908
0.4310 0.2601 0.0995
0.5310 0.2963 0.1103
0.6382 0.3555 0.1052
0.0501 0.2583 0.1437
0.0547 0.2661 0.1223
0.0966 0.2808 0.0775
0.2146 0.2727 0.0845
0.3127 0.2929 0.0962
0.4077 0.3006 0.1025
0.4820 0.3257 0.1126
0.5768 0.3683 0.1139
0.6775 0.4514 0.1197
0.0833 0.3682 0.2100
0.0915 0.3819 0.1882
0.1042 0.4070 0.0955
0.2485 0.3563 0.0996
0.3669 0.3567 0.1081
0.4296 0.3782 0.1155
0.5277 0.3988 0.1257
0.6379 0.4710 0.1145
0.7261 0.5387 0.1521
0.1146 0.4687 0.2785
0.1283 0.4790 0.2619
0.1696 0.5214 0.1991
0.2666 0.5212 0.1016
0.3763 0.4683 0.1119
0.4828 0.4649 0.1191
0.5758 0.5330 0.1174
0.6815 0.5887 0.1474
0.7309 0.5871 0.2831
0.1905 0.5397 0.3314
0.1944 0.5471 0.3214
0.2159 0.5628 0.3420
0.3152 0.6573 0.2040
0.4500 0.6325 0.1387
0.5549 0.6346 0.1417
0.6471 0.6548 0.1570
0.6937 0.6726 0.2735
0.7489 0.6615 0.3608
0.2433 0.6176 0.4254
0.2529 0.6203 0.4332
0.2745 0.6328 0.4511
0.3304 0.6504 0.4455
0.5031 0.7023 0.3506
0.6200 0.7140 0.3381
0.6694 0.7161 0.3450
0.7107 0.7309 0.3792
0.7657 0.7593 0.4135
0.0624 0.0507 0.0744
0.0840 0.0508 0.0765
0.1389 0.0544 0.0694
0.2069 0.0598 0.0740
0.2886 0.0637 0.0772
0.4165 0.0850 0.0786
0.5164 0.1100 0.0809
0.5512 0.1242 0.0764
0.6089 0.1643 0.0720
0.0629 0.0949 0.0819
0.0644 0.0989 0.1062
0.1449 0.0863 0.0665
0.2122 0.0733 0.0566
0.2929 0.0620 0.0646
0.3965 0.0815 0.0717
0.4958 0.1316 0.0866
0.5800 0.1798 0.0837
0.6104 0.2171 0.0898
0.0610 0.1404 0.1134
0.0563 0.1493 0.1010
0.1018 0.1575 0.0930
0.2191 0.1305 0.0658
0.2785 0.1459 0.0743
0.3620 0.1618 0.0804
0.4664 0.1961 0.0929
0.5846 0.2455 0.0937
0.6591 0.3121 0.1119
0.0480 0.2049 0.1376
0.0470 0.2131 0.1233
0.0475 0.2418 0.0931
0.2058 0.2207 0.0761
0.3022 0.2421 0.0885
0.4044 0.2494 0.0956
0.5067 0.2746 0.1070
0.6156 0.3140 0.1028
0.6886 0.3940 0.1566
0.0514 0.2740 0.1803
0.0609 0.2892 0.1639
0.0848 0.3477 0.0961
0.1799 0.3531 0.0913
0.3366 0.3292 0.1028
0.4587 0.3417 0.1120
0.5682 0.3727 0.1163
0.6467 0.4165 0.1268
0.7017 0.4730 0.2072
0.0774 0.3665 0.2349
0.0837 0.3767 0.2217
0.0937 0.4029 0.2027
0.1887 0.4436 0.0975
0.3405 0.4239 0.1134
0.4786 0.4437 0.1205
0.6115 0.4657 0.1152
0.6634 0.5169 0.1542
0.6991 0.5190 0.2710
0.1184 0.4746 0.2915
0.1227 0.4801 0.2883
0.1424 0.4896 0.2821
0.2150 0.5278 0.2304
0.3900 0.5312 0.1155
0.5417 0.5422 0.1188
0.6119 0.5856 0.1312
0.6727 0.5786 0.2380
0.7210 0.5756 0.3338
0.1927 0.5450 0.3407
0.1953 0.5504 0.3399
0.2151 0.5649 0.3775
0.2526 0.5929 0.4056
0.3974 0.6504 0.2644
0.5536 0.6599 0.2007
0.6477 0.6612 0.2181
0.6834 0.6500 0.3366
0.7446 0.6577 0.3968
0.2489 0.6238 0.4369
0.2610 0.6297 0.4528
0.2847 0.6453 0.4809
0.3288 0.6625 0.4991
0.4690 0.7043 0.4389
0.6148 0.7127 0.3965
0.6765 0.7130 0.3833
0.7150 0.7284 0.4030
0.7677 0.7559 0.4400
0.0615 0.0667 0.1457
0.0887 0.0696 0.1488
0.1217 0.0731 0.1503
0.1861 0.0680 0.1335
0.2503 0.0677 0.1117
0.4115 0.0899 0.1086
0.5456 0.1096 0.0826
0.5678 0.1153 0.0761
0.6191 0.1973 0.1209
0.0642 0.1442 0.1417
0.0581 0.1316 0.1761
0.0862 0.0992 0.1994
0.2188 0.1076 0.1415
0.3085 0.0673 0.0956
0.4393 0.0947 0.0925
0.5492 0.1326 0.0892
0.6098 0.1972 0.1023
0.6171 0.2524 0.1488
0.0531 0.1822 0.1633
0.0497 0.1859 0.1864
0.0540 0.2091 0.2207
0.2217 0.1811 0.1597
0.3276 0.1853 0.1415
0.4299 0.1633 0.1312
0.5213 0.2141 0.1702
0.5999 0.2751 0.1917
0.6572 0.3422 0.2254
0.0421 0.2257 0.2095
0.0419 0.2350 0.2071
0.0400 0.2457 0.2196
0.1421 0.2447 0.2055
0.3517 0.2549 0.1531
0.4643 0.2896 0.1748
0.5465 0.3103 0.2098
0.6179 0.3627 0.2394
0.6810 0.4211 0.3143
0.0443 0.2808 0.2510
0.0579 0.3093 0.2337
0.0674 0.3411 0.2341
0.1138 0.3581 0.2472
0.3485 0.3556 0.1187
0.4847 0.3902 0.1398
0.5956 0.4233 0.2054
0.6581 0.4638 0.2707
0.7004 0.4830 0.3477
0.0810 0.3869 0.2839
0.0843 0.4083 0.2740
0.0929 0.4397 0.2703
0.1817 0.4553 0.2805
0.3200 0.4992 0.1983
0.5212 0.5147 0.1353
0.6213 0.5405 0.2184
0.6671 0.5284 0.3314
0.7207 0.5401 0.3726
0.1334 0.4910 0.3223
0.1436 0.4955 0.3142
0.1597 0.5061 0.3115
0.1787 0.5183 0.3696
0.3287 0.5569 0.2715
0.5266 0.6343 0.1927
0.6330 0.6200 0.2819
0.7006 0.5831 0.3650
0.7405 0.6019 0.4019
0.2015 0.5622 0.3603
0.2071 0.5681 0.3700
0.2250 0.5807 0.4066
0.2552 0.6040 0.4506
0.3401 0.6063 0.4349
0.5749 0.6294 0.3707
0.6719 0.6657 0.3436
0.7077 0.6770 0.3884
0.7586 0.6729 0.4398
0.2659 0.6416 0.4641
0.2803 0.6474 0.4831
0.3029 0.6618 0.5100
0.3479 0.6752 0.5380
0.4482 0.7082 0.5327
0.5828 0.7297 0.4762
0.6770 0.7257 0.4375
0.7264 0.7414 0.4381
0.7752 0.7689 0.4816
0.0572 0.1167 0.2316
0.0811 0.1137 0.2260
0.1365 0.1099 0.2097
0.1862 0.1078 0.1987
0.2331 0.1059 0.1911
0.3023 0.1027 0.1789
0.4289 0.1278 0.1787
0.5488 0.1912 0.1987
0.5991 0.2597 0.2602
0.0444 0.2067 0.2133
0.0586 0.1664 0.2316
0.0889 0.1195 0.2612
0.1308 0.1244 0.2472
0.2229 0.1146 0.2068
0.3207 0.1300 0.1734
0.4863 0.1711 0.1773
0.6015 0.2499 0.2474
0.6160 0.2921 0.2864
0.0412 0.2299 0.2307
0.0428 0.2347 0.2375
0.0696 0.2288 0.2748
0.1397 0.1671 0.3232
0.3081 0.2392 0.2463
0.4101 0.2085 0.2170
0.5504 0.2469 0.2483
0.6116 0.3105 0.3019
0.6784 0.3815 0.3478
0.0413 0.2615 0.2616
0.0412 0.2676 0.2611
0.0465 0.2784 0.2802
0.0743 0.2877 0.3155
0.3054 0.2806 0.2816
0.4437 0.3173 0.3144
0.5638 0.3214 0.3233
0.6313 0.3871 0.3708
0.6960 0.4476 0.4128
0.0622 0.3195 0.3058
0.0651 0.3335 0.3012
0.0721 0.3440 0.3196
0.1038 0.3665 0.3416
0.2239 0.3610 0.3399
0.4701 0.4004 0.3404
0.5707 0.4593 0.3763
0.6580 0.4786 0.4146
0.7199 0.4956 0.4367
0.0992 0.4163 0.3468
0.0991 0.4292 0.3428
0.1110 0.4670 0.3372
0.1590 0.4908 0.3774
0.2471 0.4777 0.4092
0.4983 0.5002 0.3337
0.6227 0.5506 0.3719
0.6923 0.5522 0.4197
0.7488 0.5675 0.4443
0.1488 0.5124 0.3874
0.1689 0.5221 0.3658
0.1903 0.5374 0.3604
0.2202 0.5677 0.4278
0.3146 0.5755 0.4486
0.4981 0.5927 0.4193
0.6585 0.6248 0.3989
0.7185 0.6356 0.4377
0.7664 0.6503 0.4741
0.2206 0.5885 0.4204
0.2314 0.5964 0.4247
0.2490 0.6124 0.4496
0.2786 0.6313 0.4896
0.3566 0.6327 0.5250
0.5253 0.6631 0.4684
0.6644 0.6973 0.4456
0.7234 0.7239 0.4651
0.7932 0.7204 0.5201
0.2970 0.6686 0.5082
0.3090 0.6746 0.5235
0.3312 0.6852 0.5473
0.3747 0.7014 0.5777
0.4578 0.7356 0.5911
0.5759 0.7450 0.5718
0.6894 0.7544 0.5377
0.7533 0.7862 0.5008
0.7958 0.8106 0.5573
0.0779 0.1162 0.3311
0.0968 0.1199 0.3100
0.1291 0.1227 0.3057
0.1890 0.1279 0.2845
0.2315 0.1311 0.2689
0.3055 0.1350 0.2584
0.4262 0.2042 0.2612
0.5445 0.2690 0.2975
0.6208 0.3253 0.3899
0.0582 0.2572 0.2752
0.0843 0.1481 0.3538
0.1206 0.1169 0.3548
0.1468 0.1201 0.3486
0.1828 0.1228 0.3518
0.3018 0.1712 0.2918
0.4454 0.2358 0.2782
0.5479 0.2895 0.3206
0.6312 0.3421 0.3825
0.0458 0.2844 0.2857
0.0546 0.2810 0.2940
0.0874 0.1987 0.3890
0.1688 0.1287 0.4374
0.2322 0.1632 0.4196
0.3918 0.2386 0.3236
0.4991 0.2895 0.3172
0.5690 0.3198 0.3521
0.7094 0.4166 0.4378
0.0657 0.3184 0.3225
0.0667 0.3186 0.3266
0.0639 0.3151 0.3497
0.0994 0.3019 0.3982
0.2687 0.2833 0.4562
0.4561 0.3590 0.4028
0.5199 0.3532 0.3886
0.6662 0.4190 0.4498
0.7211 0.4574 0.4717
0.0984 0.3912 0.3617
0.1002 0.3958 0.3656
0.1055 0.4019 0.3929
0.1410 0.4068 0.4383
0.2263 0.4181 0.4693
0.4525 0.4323 0.4307
0.5892 0.4906 0.4682
0.6809 0.4850 0.4894
0.7399 0.5035 0.5132
0.1231 0.4774 0.4091
0.1267 0.4823 0.4120
0.1379 0.4973 0.4256
0.1810 0.5225 0.4623
0.2745 0.5326 0.4912
0.4552 0.5272 0.4939
0.6307 0.5569 0.4961
0.6982 0.5884 0.5226
0.7553 0.6097 0.5557
0.1801 0.5456 0.4602
0.1900 0.5517 0.4547
0.2112 0.5711 0.4681
0.2605 0.6046 0.4900
0.3413 0.6141 0.5355
0.4823 0.6179 0.5414
0.6521 0.6291 0.5059
0.7214 0.6824 0.5232
0.7851 0.6907 0.5785
0.2456 0.6191 0.5176
0.2588 0.6299 0.5151
0.2898 0.6515 0.5177
0.3287 0.6682 0.5478
0.4140 0.6901 0.5972
0.5748 0.7116 0.5747
0.6670 0.7289 0.5715
0.7357 0.7601 0.5644
0.8052 0.7755 0.6109
0.3296 0.6992 0.5864
0.3479 0.7071 0.5768
0.3751 0.7175 0.5980
0.4158 0.7416 0.6305
0.4813 0.7788 0.6496
0.6121 0.7926 0.6459
0.6878 0.8027 0.6284
0.7500 0.8271 0.6197
0.8166 0.8500 0.6512
0.0873 0.1094 0.4682
0.1230 0.1122 0.4423
0.1571 0.1147 0.4086
0.2020 0.1179 0.4202
0.2560 0.1206 0.4311
0.3867 0.1613 0.3958
0.5272 0.2411 0.3889
0.6064 0.3166 0.4295
0.6721 0.3647 0.4849
0.0742 0.2529 0.4125
0.0916 0.1406 0.4891
0.1400 0.1151 0.4830
0.2025 0.1183 0.4526
0.2434 0.1321 0.4447
0.3685 0.1805 0.4165
0.5108 0.2688 0.4060
0.5952 0.3437 0.4439
0.6707 0.3972 0.5057
0.0741 0.3296 0.3790
0.0666 0.2939 0.4133
0.1106 0.2319 0.5104
0.2349 0.1857 0.5332
0.3123 0.2101 0.5149
0.4293 0.2619 0.4761
0.5285 0.3273 0.4527
0.6122 0.3883 0.4797
0.6777 0.4258 0.5192
0.1054 0.3945 0.4106
0.1028 0.3864 0.4259
0.0913 0.3671 0.4616
0.1577 0.3306 0.4822
0.3393 0.3159 0.5638
0.4801 0.3613 0.5346
0.5865 0.4051 0.5088
0.6480 0.4399 0.5139
0.7004 0.4657 0.5253
0.1248 0.4634 0.4496
0.1266 0.4725 0.4522
0.1296 0.4755 0.4813
0.1963 0.4811 0.5166
0.3031 0.4704 0.5467
0.4994 0.4639 0.5510
0.6319 0.5168 0.5455
0.6755 0.5114 0.5439
0.7766 0.5300 0.5739
0.1583 0.5298 0.4931
0.1615 0.5359 0.4955
0.1858 0.5518 0.5140
0.2462 0.5746 0.5337
0.3360 0.5805 0.5671
0.4905 0.5910 0.5974
0.6503 0.6002 0.5847
0.7196 0.6378 0.6011
0.7883 0.6402 0.6330
0.2177 0.5899 0.5504
0.2292 0.6014 0.5478
0.2572 0.6195 0.5573
0.3141 0.6391 0.5720
0.3855 0.6588 0.6099
0.5181 0.6855 0.6349
0.6659 0.6825 0.6396
0.7400 0.7056 0.6370
0.7941 0.7394 0.6787
0.2938 0.6654 0.6052
0.3128 0.6713 0.6013
0.3405 0.6832 0.6072
0.3797 0.7044 0.6258
0.4469 0.7433 0.6695
0.5869 0.7625 0.6812
0.6774 0.7705 0.6821
0.7435 0.7802 0.6718
0.8061 0.8244 0.6960
0.3795 0.7334 0.6660
0.3948 0.7405 0.6685
0.4218 0.7567 0.6824
0.4574 0.7918 0.7049
0.5141 0.8228 0.7310
0.6222 0.8426 0.7357
0.7066 0.8495 0.7303
0.7595 0.8587 0.7382
0.8388 0.8742 0.7392
0.0962 0.1281 0.6012
0.1454 0.1297 0.5838
0.2087 0.1272 0.5382
0.2758 0.1324 0.5239
0.3764 0.1779 0.5439
0.5314 0.2442 0.5244
0.6254 0.3153 0.5275
0.6811 0.3676 0.5476
0.7235 0.4025 0.5727
0.0748 0.2765 0.5431
0.1263 0.2106 0.6054
0.1841 0.1591 0.6191
0.2824 0.1784 0.5647
0.3815 0.2239 0.5715
0.5210 0.2829 0.5449
0.6256 0.3464 0.5375
0.6799 0.3965 0.5547
0.7245 0.4307 0.5812
0.0988 0.3787 0.5133
0.0866 0.3320 0.5343
0.1658 0.3012 0.5789
0.2936 0.2638 0.6267
0.3985 0.3005 0.6149
0.5241 0.3327 0.5722
0.6236 0.3857 0.5545
0.6763 0.4248 0.5624
0.7237 0.4610 0.5934
0.1278 0.4627 0.5257
0.1291 0.4499 0.5461
0.1756 0.4399 0.5663
0.2665 0.4072 0.5827
0.4114 0.3765 0.6564
0.5778 0.4003 0.6236
0.6500 0.4405 0.5894
0.6928 0.4700 0.5911
0.7368 0.4973 0.6220
0.1490 0.5242 0.5573
0.1646 0.5335 0.5603
0.2062 0.5443 0.5756
0.2851 0.5462 0.5949
0.4005 0.5217 0.6318
0.5864 0.4903 0.6748
0.6806 0.5118 0.6417
0.7214 0.5432 0.6410
0.7626 0.5783 0.6637
0.2078 0.5873 0.5966
0.2245 0.5938 0.5987
0.2603 0.6087 0.6061
0.3284 0.6220 0.6140
0.4074 0.6376 0.6497
0.5562 0.6414 0.6838
0.6901 0.6285 0.6753
0.7410 0.6618 0.6961
0.7915 0.6835 0.7010
0.2809 0.6473 0.6423
0.2996 0.6542 0.6375
0.3321 0.6654 0.6419
0.3824 0.6853 0.6562
0.4485 0.7168 0.7000
0.5684 0.7355 0.7268
0.6692 0.7456 0.7417
0.7533 0.7535 0.7424
0.8120 0.7898 0.7616
0.3574 0.7081 0.6915
0.3772 0.7162 0.6859
0.4036 0.7316 0.6962
0.4361 0.7562 0.7273
0.4907 0.7923 0.7605
0.5783 0.8182 0.7824
0.6533 0.8344 0.8097
0.7390 0.8359 0.8203
0.8306 0.8495 0.7994
0.4288 0.7841 0.7597
0.4409 0.7922 0.7647
0.4622 0.8122 0.7787
0.4946 0.8355 0.7993
0.5390 0.8597 0.8245
0.6086 0.8769 0.8462
0.6846 0.8894 0.8568
0.7586 0.8948 0.8567
0.8535 0.9001 0.8516
0.1769 0.2471 0.7257
0.2269 0.2084 0.7248
0.3186 0.2164 0.6707
0.4226 0.2533 0.6771
0.5431 0.3057 0.6818
0.6368 0.3494 0.6584
0.6852 0.3723 0.6493
0.7254 0.3972 0.6505
0.7723 0.4335 0.6740
0.1315 0.3694 0.6296
0.2150 0.3177 0.6817
0.3005 0.2798 0.7112
0.4070 0.2991 0.7139
0.5401 0.3373 0.6981
0.6397 0.3647 0.6665
0.6928 0.3862 0.6677
0.7357 0.4117 0.6779
0.7844 0.4591 0.7053
0.1678 0.4682 0.6418
0.2031 0.4324 0.6433
0.2864 0.3835 0.6763
0.3847 0.3535 0.7231
0.5140 0.3712 0.7261
0.6301 0.3829 0.7024
0.6956 0.4096 0.6844
0.7420 0.4368 0.6915
0.7931 0.4944 0.7168
0.1958 0.5464 0.6348
0.2308 0.5381 0.6392
0.2984 0.5151 0.6561
0.3895 0.4609 0.7217
0.4986 0.4151 0.7973
0.6304 0.4150 0.7660
0.7028 0.4402 0.7127
0.7478 0.4750 0.7145
0.8003 0.5324 0.7370
0.2451 0.5974 0.6573
0.2703 0.5994 0.6555
0.3174 0.6017 0.6616
0.3884 0.5991 0.6827
0.4924 0.5684 0.7643
0.6220 0.4910 0.8548
0.7238 0.5276 0.7766
0.7658 0.5787 0.7457
0.8112 0.6302 0.7527
0.3061 0.6482 0.6889
0.3235 0.6510 0.6871
0.3595 0.6613 0.6899
0.4111 0.6793 0.7093
0.4839 0.6970 0.7502
0.6066 0.6985 0.7716
0.7129 0.6699 0.7906
0.7890 0.6872 0.7808
0.8393 0.7178 0.8068
0.3664 0.7036 0.7295
0.3828 0.7117 0.7278
0.4054 0.7250 0.7404
0.4386 0.7482 0.7660
0.4999 0.7808 0.7977
0.5878 0.8040 0.8225
0.6749 0.8041 0.8377
0.7678 0.7882 0.8480
0.8446 0.8114 0.8690
0.4257 0.7744 0.7894
0.4352 0.7813 0.7925
0.4543 0.7970 0.8050
0.4871 0.8212 0.8270
0.5406 0.8487 0.8520
0.5963 0.8730 0.8771
0.6676 0.8858 0.8946
0.7483 0.8867 0.9107
0.8552 0.8884 0.9084
0.4772 0.8457 0.8642
0.4899 0.8501 0.8670
0.5183 0.8635 0.8748
0.5557 0.8776 0.8883
0.6061 0.8921 0.9029
0.6570 0.9065 0.9169
0.7139 0.9183 0.9318
0.7798 0.9257 0.9450
0.8702 0.9330 0.9473
0.2486 0.3160 0.7729
0.3053 0.2732 0.7760
0.4117 0.2830 0.7681
0.5092 0.3144 0.7689
0.5944 0.3490 0.7463
0.6612 0.3722 0.7188
0.7111 0.3853 0.7155
0.7538 0.4119 0.7196
0.8074 0.4464 0.7640
0.2208 0.4151 0.7209
0.2876 0.3709 0.7345
0.3788 0.3305 0.7664
0.4850 0.3385 0.7815
0.5914 0.3701 0.7488
0.6632 0.3859 0.7406
0.7225 0.3989 0.7427
0.7655 0.4259 0.7636
0.8209 0.4753 0.7836
0.2443 0.5095 0.7098
0.2891 0.4675 0.7250
0.3630 0.4148 0.7647
0.4485 0.3905 0.8003
0.5697 0.3960 0.7989
0.6611 0.4034 0.7701
0.7316 0.4158 0.7673
0.7795 0.4460 0.7968
0.8379 0.5062 0.8085
0.2685 0.5914 0.6833
0.3015 0.5803 0.6869
0.3664 0.5483 0.7188
0.4398 0.4787 0.8251
0.5461 0.4471 0.8723
0.6510 0.4328 0.8511
0.7369 0.4489 0.8171
0.7886 0.4967 0.8060
0.8492 0.5543 0.8172
0.3120 0.6362 0.7047
0.3319 0.6372 0.7035
0.3748 0.6421 0.7125
0.4352 0.6352 0.7503
0.5376 0.6015 0.8334
0.6399 0.5309 0.9187
0.7349 0.5449 0.8650
0.7994 0.5934 0.8139
0.8519 0.6429 0.8216
0.3613 0.6837 0.7378
0.3765 0.6909 0.7376
0.4047 0.7020 0.7476
0.4459 0.7180 0.7773
0.5292 0.7357 0.8083
0.6272 0.7358 0.8255
0.7279 0.7038 0.8472
0.8158 0.7193 0.8327
0.8720 0.7476 0.8562
0.4108 0.7472 0.7885
0.4224 0.7531 0.7903
0.4402 0.7669 0.8043
0.4748 0.7926 0.8242
0.5365 0.8183 0.8508
0.6017 0.8382 0.8801
0.6919 0.8363 0.8883
0.8036 0.8125 0.8905
0.8860 0.8138 0.9034
0.4551 0.8159 0.8513
0.4660 0.8212 0.8538
0.4881 0.8349 0.8640
0.5211 0.8582 0.8824
0.5778 0.8772 0.8975
0.6359 0.8929 0.9121
0.6970 0.9044 0.9267
0.7803 0.9031 0.9346
0.8777 0.9001 0.9443
0.5405 0.8799 0.9018
0.5560 0.8825 0.9033
0.5829 0.8892 0.9092
0.6183 0.8991 0.9177
0.6572 0.9103 0.9281
0.7041 0.9208 0.9373
0.7543 0.9300 0.9483
0.8196 0.9348 0.9567
0.8870 0.9451 0.9684
