example-Advanced/bin/data/ofxGpuLutCube/LUT/Dramatic-48.cube
#Generated by Picture Instruments - Look Creator
TITLE "Kodak Ektachrome 64++"
LUT_3D_SIZE 5
0.105882 0.109804 0.117647
0.172549 0.117647 0.113725
0.321569 0.129412 0.105882
0.568627 0.141176 0.0627451
0.823529 0.172549 0.00392157
0.117647 0.211765 0.141176
0.196078 0.215686 0.129412
0.392157 0.235294 0.0980392
0.627451 0.254902 0.0235294
0.854902 0.294118 0
0.109804 0.458824 0.192157
0.219608 0.458824 0.180392
0.415686 0.458824 0.141176
0.698039 0.494118 0.0313725
0.92549 0.501961 0
0.207843 0.72549 0.309804
0.266667 0.713725 0.270588
0.458824 0.701961 0.270588
0.682353 0.701961 0.196078
0.929412 0.737255 0.0705882
0.509804 0.960784 0.560784
0.521569 0.952941 0.541176
0.635294 0.952941 0.552941
0.780392 0.952941 0.560784
0.929412 0.964706 0.529412
0.133333 0.121569 0.227451
0.188235 0.12549 0.2
0.333333 0.0941176 0.164706
0.568627 0.101961 0.145098
0.823529 0.145098 0.0235294
0.129412 0.223529 0.239216
0.215686 0.231373 0.235294
0.4 0.227451 0.203922
0.631373 0.235294 0.160784
0.858824 0.270588 0.0392157
0.160784 0.478431 0.309804
0.243137 0.486275 0.286275
0.447059 0.478431 0.25098
0.717647 0.490196 0.203922
0.921569 0.490196 0.117647
0.262745 0.717647 0.4
0.32549 0.729412 0.384314
0.486275 0.717647 0.360784
0.705882 0.717647 0.309804
0.937255 0.741176 0.25098
0.54902 0.952941 0.619608
0.552941 0.94902 0.592157
0.647059 0.956863 0.596078
0.784314 0.956863 0.603922
0.941176 0.972549 0.588235
0.133333 0.0980392 0.458824
0.247059 0.0901961 0.458824
0.419608 0.0823529 0.423529
0.639216 0.0392157 0.396078
0.815686 0 0.270588
0.0941176 0.211765 0.470588
0.243137 0.219608 0.482353
0.462745 0.243137 0.462745
0.662745 0.223529 0.411765
0.839216 0.160784 0.305882
0.152941 0.478431 0.517647
0.290196 0.505882 0.533333
0.541176 0.521569 0.537255
0.721569 0.490196 0.47451
0.898039 0.454902 0.368627
0.282353 0.733333 0.572549
0.356863 0.729412 0.568627
0.564706 0.741176 0.580392
0.745098 0.737255 0.545098
0.94902 0.741176 0.509804
0.45098 0.956863 0.666667
0.533333 0.960784 0.686275
0.682353 0.956863 0.705882
0.807843 0.964706 0.713725
0.941176 0.972549 0.686275
0.219608 0.027451 0.709804
0.321569 0.0117647 0.72549
0.513725 0.00392157 0.717647
0.717647 0.0666667 0.705882
0.886275 0.329412 0.690196
0.2 0.196078 0.721569
0.305882 0.196078 0.737255
0.521569 0.207843 0.737255
0.737255 0.278431 0.72549
0.890196 0.403922 0.698039
0.101961 0.431373 0.745098
0.258824 0.435294 0.74902
0.537255 0.47451 0.752941
0.768627 0.545098 0.760784
0.901961 0.552941 0.721569
0.329412 0.713725 0.780392
0.411765 0.72549 0.788235
0.592157 0.737255 0.788235
0.823529 0.784314 0.815686
0.92549 0.72549 0.733333
0.470588 0.976471 0.843137
0.505882 0.968627 0.831373
0.631373 0.968627 0.823529
0.815686 0.960784 0.827451
0.956863 0.972549 0.827451
0.380392 0.0666667 0.921569
0.443137 0.054902 0.933333
0.580392 0.0352941 0.933333
0.788235 0.282353 0.941176
0.941176 0.407843 0.929412
0.384314 0.227451 0.941176
0.454902 0.235294 0.956863
0.6 0.25098 0.956863
0.792157 0.380392 0.94902
0.941176 0.470588 0.933333
0.376471 0.45098 0.945098
0.45098 0.466667 0.964706
0.596078 0.47451 0.952941
0.8 0.545098 0.952941
0.952941 0.623529 0.945098
0.427451 0.694118 0.968627
0.47451 0.694118 0.972549
0.592157 0.690196 0.964706
0.815686 0.741176 0.976471
0.960784 0.8 0.956863
0.627451 0.952941 0.988235
0.647059 0.94902 0.988235
0.717647 0.956863 0.988235
0.847059 0.972549 0.988235
0.984314 0.984314 0.988235
