example-Advanced/bin/data/ofxGpuLutCube/LUT/Dramatic-45.cube
TITLE "Generated by 3D LUT Creator (c) Oleg Sharonov"
LUT_3D_SIZE 5
0.0612 0.0433 0.0425
0.1871 0.0653 0.0524
0.4398 0.0945 0.0763
0.6411 0.1881 0.0620
0.7631 0.3023 0.0786
0.0479 0.1804 0.1005
0.1875 0.1925 0.0700
0.3733 0.2424 0.0921
0.6105 0.3096 0.1024
0.8249 0.4106 0.1249
0.0848 0.3811 0.2214
0.2123 0.4084 0.1004
0.4934 0.4293 0.1239
0.6930 0.4784 0.0997
0.8231 0.5389 0.2244
0.2038 0.5718 0.3463
0.2394 0.6160 0.3154
0.5614 0.6258 0.1310
0.7458 0.6653 0.1565
0.8417 0.6700 0.3528
0.3253 0.7266 0.5285
0.3742 0.7390 0.5490
0.6398 0.8002 0.4335
0.7465 0.7909 0.3920
0.8548 0.8282 0.4937
0.0551 0.1097 0.2010
0.1437 0.1036 0.1978
0.3936 0.0945 0.1484
0.6804 0.1277 0.0530
0.7337 0.3203 0.2267
0.0399 0.2353 0.2274
0.0604 0.2625 0.2805
0.4882 0.2716 0.2190
0.6479 0.3227 0.2694
0.7852 0.4261 0.3314
0.0918 0.4013 0.3330
0.1250 0.4837 0.3033
0.5328 0.5418 0.1278
0.7213 0.5163 0.3081
0.8233 0.5458 0.4104
0.2155 0.5970 0.3849
0.2296 0.6123 0.4006
0.4576 0.6976 0.3555
0.7257 0.6976 0.3802
0.8441 0.6892 0.4602
0.3459 0.7446 0.5715
0.4098 0.7695 0.6130
0.5980 0.8330 0.6141
0.7498 0.8091 0.4817
0.8606 0.8371 0.5701
0.0874 0.1094 0.4702
0.1909 0.1173 0.4161
0.4007 0.1453 0.3664
0.6072 0.2861 0.3621
0.7405 0.3955 0.4999
0.0939 0.3705 0.3861
0.1158 0.2516 0.5072
0.4423 0.2650 0.4991
0.6365 0.3710 0.4416
0.8186 0.4700 0.4927
0.1507 0.5175 0.4708
0.1709 0.5443 0.4937
0.4058 0.5572 0.5907
0.7172 0.5803 0.5449
0.8596 0.6029 0.6051
0.2388 0.6388 0.5666
0.2883 0.6758 0.5647
0.5008 0.7458 0.6383
0.7350 0.7573 0.5660
0.8881 0.7689 0.6602
0.4093 0.7898 0.6858
0.4646 0.8168 0.7107
0.5911 0.8626 0.7313
0.7488 0.8675 0.6861
0.8941 0.8856 0.7121
0.1268 0.1905 0.7578
0.2876 0.1574 0.6806
0.5956 0.2629 0.6430
0.7174 0.3745 0.6301
0.8142 0.4516 0.6737
0.1421 0.4998 0.6500
0.2675 0.3739 0.7293
0.5866 0.3644 0.7294
0.7130 0.4264 0.6426
0.8126 0.5184 0.6970
0.2226 0.6150 0.6736
0.2881 0.6486 0.6875
0.5283 0.5970 0.7764
0.7539 0.6021 0.7173
0.8548 0.6611 0.7165
0.3522 0.7370 0.7514
0.4061 0.7623 0.7538
0.5223 0.8234 0.8165
0.7104 0.8258 0.8404
0.8912 0.8369 0.8240
0.4862 0.8573 0.8650
0.5290 0.8758 0.8754
0.6175 0.9018 0.9014
0.7510 0.9192 0.8993
0.9117 0.9291 0.8696
0.3533 0.3829 0.9015
0.6149 0.3200 0.9027
0.6961 0.3853 0.8663
0.7938 0.4316 0.8508
0.8830 0.5706 0.8654
0.3386 0.6182 0.8449
0.5092 0.5041 0.9311
0.6921 0.4414 0.9025
0.8245 0.4735 0.9013
0.8930 0.6978 0.8552
0.3904 0.7440 0.8212
0.4508 0.7636 0.8473
0.6577 0.7242 0.8950
0.8364 0.6559 0.8886
0.9037 0.7570 0.8786
0.4788 0.8501 0.8943
0.5214 0.8682 0.9047
0.6301 0.8948 0.9248
0.7612 0.8827 0.9320
0.9217 0.8622 0.9423
0.6544 0.9181 0.9440
0.6820 0.9234 0.9473
0.7351 0.9333 0.9529
0.8099 0.9423 0.9640
0.9180 0.9518 0.9771
