example-Advanced/bin/data/ofxGpuLutCube/LUT/Dramatic-50.cube
# (C) 2014 VisionColor & Patchflyer [www.vision-color.com]
# Generator: VC Patchmatch v.2.1.1 [64/53]
# All work and no play makes Jack a dull boy.
# LUT generated from: Kodak Elite Chrome 200_FPE
LUT_3D_SIZE 17
0.035889 0.039857 0.039918
0.036896 0.040223 0.039979
0.043488 0.042298 0.040589
0.062104 0.042329 0.037110
0.081209 0.045411 0.037934
0.105074 0.048524 0.039033
0.138460 0.055268 0.040314
0.174411 0.065522 0.041901
0.204868 0.069642 0.042908
0.241062 0.074098 0.043885
0.277958 0.077882 0.045441
0.314488 0.078950 0.047456
0.351080 0.078065 0.048737
0.382239 0.080140 0.050202
0.395300 0.082124 0.051301
0.397314 0.082460 0.051453
0.397436 0.082460 0.051484
0.036103 0.040986 0.040620
0.038056 0.042329 0.041260
0.045747 0.045075 0.042084
0.067720 0.045197 0.037934
0.089265 0.049653 0.038972
0.119814 0.057130 0.040314
0.149355 0.062654 0.041291
0.175998 0.066224 0.041871
0.211002 0.070405 0.043122
0.249577 0.076783 0.044526
0.284245 0.079530 0.045930
0.317113 0.079683 0.047669
0.353674 0.079347 0.048920
0.383337 0.080964 0.050263
0.396979 0.082979 0.051423
0.399145 0.083253 0.051606
0.399084 0.083192 0.051606
0.036774 0.048096 0.044312
0.038880 0.049897 0.045380
0.063539 0.067018 0.049012
0.092958 0.073335 0.043610
0.124514 0.073976 0.044129
0.149142 0.074556 0.043915
0.169711 0.072969 0.042969
0.190585 0.072450 0.043122
0.226444 0.074098 0.044007
0.263340 0.081209 0.045594
0.293065 0.081941 0.046571
0.324163 0.081575 0.048127
0.358312 0.081636 0.049256
0.387152 0.082826 0.050538
0.400580 0.084657 0.051667
0.402899 0.084901 0.051881
0.402747 0.084779 0.051881
0.032715 0.058259 0.044556
0.033478 0.063203 0.044739
0.061830 0.082033 0.052735
0.122744 0.115145 0.060578
0.157595 0.117159 0.058503
0.200015 0.114626 0.055238
0.229038 0.107759 0.052308
0.257206 0.102113 0.050324
0.292927 0.100252 0.050324
0.328618 0.103517 0.050996
0.337346 0.098634 0.050507
0.362799 0.098421 0.051331
0.387945 0.096895 0.051667
0.412970 0.098909 0.052735
0.424353 0.100526 0.053834
0.426093 0.100374 0.054017
0.425238 0.099641 0.053956
0.031678 0.069032 0.058076
0.032044 0.080537 0.063111
0.042451 0.099611 0.062318
0.097047 0.133242 0.067933
0.193454 0.176059 0.078706
0.247272 0.175967 0.076478
0.300771 0.171084 0.073671
0.340383 0.158145 0.066804
0.369253 0.148257 0.061311
0.410040 0.150088 0.060731
0.401556 0.134218 0.057588
0.420203 0.130709 0.057130
0.439124 0.128359 0.056947
0.456703 0.127626 0.057404
0.467414 0.131014 0.059052
0.468116 0.130190 0.059052
0.467048 0.129274 0.058869
0.030365 0.083558 0.068666
0.030671 0.100649 0.078096
0.037324 0.125521 0.079683
0.062409 0.150698 0.082948
0.133303 0.192905 0.089570
0.291524 0.257511 0.104036
0.372610 0.255955 0.097078
0.432181 0.243961 0.089784
0.451408 0.211917 0.078096
0.458473 0.189929 0.072450
0.475990 0.190494 0.071473
0.483833 0.175753 0.066804
0.494362 0.166506 0.064302
0.504784 0.163790 0.065461
0.507012 0.162661 0.067170
0.506157 0.161471 0.067475
0.505028 0.160403 0.067170
0.030182 0.095186 0.079011
0.031861 0.123629 0.094270
0.034394 0.156497 0.097383
0.041077 0.172030 0.090211
0.081941 0.202029 0.090669
0.198291 0.260609 0.102632
0.421836 0.343923 0.127993
0.511360 0.336919 0.126192
0.540688 0.306035 0.113558
0.546639 0.273243 0.098940
0.561669 0.270710 0.100221
0.564981 0.250874 0.091402
0.560739 0.225513 0.080873
0.565316 0.221973 0.083345
0.564920 0.220203 0.086366
0.563272 0.219043 0.087098
0.561685 0.217395 0.086397
0.032349 0.144747 0.111360
0.032715 0.154269 0.114748
0.033692 0.181186 0.111788
0.036194 0.192966 0.106569
0.046021 0.210147 0.098299
0.121798 0.264530 0.103914
0.360403 0.371725 0.138003
0.564431 0.432303 0.174533
0.617838 0.410269 0.171328
0.642435 0.388693 0.157488
0.656870 0.378317 0.150652
0.665446 0.359213 0.140002
0.669078 0.343099 0.133165
0.673045 0.335866 0.132555
0.679179 0.345235 0.147204
0.677043 0.343191 0.147753
0.675853 0.341756 0.146929
0.033539 0.173831 0.136477
0.033631 0.176974 0.137697
0.033967 0.187167 0.139590
0.035157 0.210361 0.139071
0.038880 0.234775 0.128176
0.060487 0.259190 0.111269
0.228992 0.355459 0.134279
0.548837 0.490166 0.209766
0.694530 0.521981 0.248493
0.743862 0.520363 0.248463
0.751720 0.499199 0.227314
0.774029 0.492973 0.223774
0.786053 0.484886 0.218494
0.793072 0.486534 0.233204
0.795392 0.490105 0.252918
0.796460 0.491295 0.256733
0.796063 0.490684 0.256184
0.035157 0.207187 0.164706
0.035279 0.209903 0.165530
0.035584 0.216678 0.166629
0.036378 0.237400 0.170718
0.040345 0.274998 0.172396
0.050446 0.301915 0.151537
0.103044 0.326558 0.134340
0.477745 0.509163 0.207477
0.745464 0.617365 0.314000
0.795697 0.614115 0.317693
0.839979 0.624338 0.327779
0.861555 0.620676 0.329335
0.869841 0.615641 0.337026
0.871580 0.613077 0.362448
0.878080 0.623148 0.392660
0.879484 0.625772 0.398276
0.879637 0.626047 0.398611
0.037110 0.243565 0.194980
0.037263 0.246159 0.196323
0.037568 0.250858 0.198032
0.038697 0.268162 0.203250
0.041932 0.310063 0.210788
0.048157 0.335332 0.180270
0.082231 0.369085 0.150515
0.299504 0.473899 0.174609
0.663111 0.617380 0.286305
0.828199 0.686427 0.368200
0.886198 0.710796 0.408133
0.912779 0.721721 0.432883
0.916686 0.713115 0.448905
0.919524 0.716747 0.490318
0.918486 0.724468 0.517494
0.918334 0.725841 0.522072
0.918395 0.726268 0.522713
0.040375 0.287510 0.232792
0.040375 0.287755 0.232303
0.040620 0.291417 0.234195
0.041627 0.306035 0.240604
0.044739 0.344884 0.244297
0.050324 0.378973 0.224552
0.068070 0.402716 0.179629
0.241169 0.492302 0.190707
0.615625 0.638437 0.292897
0.839094 0.738933 0.405325
0.906401 0.775631 0.464805
0.932006 0.787228 0.507347
0.932403 0.783047 0.547860
0.928222 0.783108 0.582834
0.926360 0.784695 0.596765
0.926055 0.785214 0.599603
0.926116 0.785733 0.600275
0.043580 0.324681 0.263951
0.044160 0.331212 0.268406
0.044251 0.332860 0.268528
0.045472 0.347112 0.273472
0.049805 0.389532 0.289189
0.055604 0.425177 0.274388
0.076570 0.449744 0.226612
0.236347 0.522530 0.214710
0.598962 0.662882 0.322499
0.825940 0.768780 0.448539
0.906035 0.812253 0.513008
0.928771 0.819425 0.552514
0.934966 0.820005 0.598993
0.931731 0.822507 0.635584
0.931640 0.825864 0.644739
0.931670 0.826627 0.646326
0.931701 0.826871 0.646571
0.036408 0.228977 0.188327
0.046937 0.355169 0.289860
0.049317 0.377295 0.304784
0.051484 0.397162 0.315435
0.057801 0.440040 0.339971
0.071504 0.481056 0.341253
0.107774 0.499336 0.278019
0.306767 0.579446 0.287068
0.630152 0.705211 0.421622
0.805768 0.785657 0.536355
0.890959 0.824582 0.579339
0.922698 0.839200 0.613825
0.932342 0.838926 0.642542
0.933684 0.839933 0.660304
0.933684 0.841276 0.663661
0.933745 0.841794 0.664302
0.933776 0.841856 0.664454
0.034699 0.191287 0.163851
0.042878 0.315435 0.258976
0.054139 0.417334 0.336645
0.057496 0.436927 0.350835
0.069245 0.479286 0.380926
0.096651 0.516533 0.379828
0.158373 0.541283 0.331090
0.381201 0.627573 0.379095
0.646555 0.727916 0.495018
0.806714 0.794491 0.576547
0.895506 0.831601 0.604639
0.924559 0.842954 0.638483
0.932860 0.843015 0.663722
0.933776 0.843687 0.667597
0.933837 0.843717 0.667842
0.933837 0.843717 0.667842
0.933837 0.843717 0.667842
0.035706 0.210727 0.180209
0.046571 0.350561 0.288884
0.058137 0.439582 0.354192
0.060822 0.452277 0.363622
0.075044 0.493385 0.395789
0.104219 0.523278 0.386572
0.180652 0.556756 0.350805
0.398077 0.639658 0.404074
0.649088 0.732921 0.512947
0.807111 0.796414 0.585077
0.896971 0.833036 0.609308
0.925353 0.842924 0.640803
0.933196 0.843259 0.665064
0.933837 0.843717 0.667811
0.933837 0.843717 0.667842
0.933837 0.843717 0.667842
0.933837 0.843717 0.667842
0.037324 0.233921 0.204776
0.048005 0.363012 0.298283
0.058747 0.442542 0.356664
0.061707 0.454353 0.365332
0.075471 0.494362 0.396979
0.105013 0.524010 0.387243
0.183368 0.558373 0.352331
0.402777 0.641672 0.406638
0.651652 0.734142 0.515114
0.809003 0.797238 0.586084
0.897795 0.833402 0.609766
0.925536 0.842893 0.641321
0.933227 0.843290 0.665156
0.933837 0.843717 0.667842
0.933837 0.843717 0.667842
0.933837 0.843717 0.667842
0.933837 0.843717 0.667842
0.036103 0.040223 0.040497
0.037110 0.040406 0.040589
0.044526 0.042725 0.041566
0.064393 0.041810 0.037324
0.084749 0.044526 0.038148
0.106691 0.046418 0.039002
0.131289 0.050233 0.039765
0.162966 0.058137 0.040803
0.198642 0.063478 0.041810
0.235142 0.068269 0.042969
0.273533 0.073152 0.044739
0.309239 0.074495 0.046906
0.347997 0.074983 0.048402
0.379309 0.077882 0.049958
0.393866 0.080385 0.051179
0.396643 0.081056 0.051392
0.396887 0.081300 0.051423
0.036164 0.041779 0.041749
0.037812 0.042573 0.042267
0.045747 0.044984 0.043000
0.066804 0.043641 0.037812
0.088106 0.047486 0.038819
0.118593 0.054200 0.040070
0.147036 0.058778 0.040925
0.176577 0.062257 0.041382
0.214115 0.066773 0.042603
0.251072 0.072541 0.044038
0.281041 0.076295 0.045411
0.314031 0.077150 0.047364
0.350500 0.077180 0.048646
0.381170 0.079194 0.050080
0.395544 0.081544 0.051301
0.398108 0.082063 0.051514
0.398108 0.082216 0.051514
0.036683 0.048798 0.046235
0.038880 0.050141 0.047089
0.063142 0.066987 0.051301
0.086915 0.068635 0.047089
0.117586 0.067964 0.045106
0.144381 0.069520 0.043946
0.166171 0.068849 0.042969
0.194369 0.070222 0.043091
0.227909 0.070741 0.043519
0.268925 0.078035 0.045411
0.290349 0.078523 0.046204
0.321355 0.079103 0.047822
0.355627 0.079713 0.049012
0.385321 0.081270 0.050385
0.399451 0.083406 0.051575
0.402075 0.083864 0.051820
0.401923 0.083925 0.051789
0.032319 0.058747 0.046876
0.032929 0.061524 0.047761
0.053773 0.075532 0.057496
0.108034 0.103243 0.065217
0.144472 0.104738 0.058503
0.188083 0.104128 0.054414
0.221866 0.099672 0.051423
0.248417 0.095033 0.049470
0.278523 0.092287 0.048890
0.315831 0.094972 0.049561
0.335210 0.093874 0.049928
0.359411 0.094697 0.050813
0.384955 0.093935 0.051270
0.410895 0.096620 0.052613
0.423041 0.098787 0.053773
0.425116 0.098940 0.053986
0.424323 0.098421 0.053895
0.030915 0.070314 0.067231
0.031403 0.077089 0.068147
0.040558 0.096437 0.067842
0.089235 0.124239 0.071351
0.186099 0.165988 0.080781
0.238880 0.164767 0.078523
0.292714 0.161807 0.074342
0.334218 0.151278 0.066651
0.363958 0.143252 0.060945
0.398779 0.141451 0.059754
0.398230 0.127504 0.056916
0.416205 0.126864 0.056580
0.436194 0.125734 0.056611
0.455024 0.125795 0.057221
0.466255 0.129641 0.058930
0.467231 0.129061 0.058961
0.466346 0.128389 0.058778
0.030030 0.085451 0.073671
0.030274 0.096071 0.080018
0.035767 0.120577 0.084382
0.056428 0.143923 0.086061
0.130037 0.187167 0.093782
0.287922 0.250095 0.106996
0.366110 0.246494 0.099306
0.425803 0.237308 0.090700
0.448600 0.210727 0.080537
0.456489 0.187762 0.073060
0.470832 0.182223 0.070253
0.480934 0.172000 0.066194
0.492592 0.164920 0.064210
0.503990 0.162905 0.065492
0.506493 0.162051 0.067262
0.505669 0.161013 0.067659
0.504753 0.160159 0.067384
0.030518 0.101015 0.087495
0.031617 0.118471 0.098878
0.033326 0.150240 0.103975
0.039338 0.168460 0.097719
0.074189 0.194888 0.095583
0.191760 0.254231 0.107851
0.416495 0.339345 0.131594
0.508705 0.337118 0.129885
0.541665 0.311528 0.117830
0.547402 0.274464 0.101411
0.555337 0.259968 0.096895
0.562325 0.247639 0.090974
0.560067 0.224811 0.080934
0.564370 0.220905 0.083131
0.564797 0.220172 0.086763
0.563424 0.219318 0.087587
0.562173 0.218006 0.087007
0.032502 0.147158 0.118837
0.032715 0.152712 0.119417
0.033600 0.177584 0.116854
0.035126 0.190890 0.113069
0.044434 0.210208 0.105135
0.115480 0.261326 0.107149
0.349599 0.369162 0.139559
0.564187 0.439658 0.181796
0.621897 0.420890 0.179629
0.644663 0.393088 0.162127
0.656931 0.374380 0.150317
0.664714 0.357565 0.139635
0.669047 0.343099 0.133532
0.673533 0.336446 0.133196
0.680125 0.346548 0.148638
0.678386 0.344991 0.149432
0.677470 0.343893 0.148760
0.033875 0.177890 0.144869
0.033509 0.171542 0.137087
0.033845 0.181918 0.139071
0.035065 0.209293 0.145480
0.038270 0.237034 0.136110
0.057069 0.263539 0.118166
0.219135 0.357076 0.138643
0.534524 0.487877 0.209369
0.690806 0.526711 0.254871
0.745418 0.524483 0.252918
0.756512 0.500923 0.230488
0.774639 0.493156 0.224811
0.787030 0.486290 0.219959
0.794324 0.488426 0.235554
0.797498 0.493095 0.256336
0.798871 0.494743 0.260548
0.798718 0.494530 0.260334
0.035492 0.211795 0.172946
0.035523 0.213352 0.172396
0.035096 0.203220 0.163546
0.035279 0.211124 0.163394
0.039429 0.268132 0.179812
0.049287 0.305699 0.162692
0.111940 0.342702 0.142641
0.456260 0.502632 0.204120
0.730907 0.611017 0.308293
0.807172 0.623423 0.326406
0.844129 0.628275 0.332052
0.862928 0.623087 0.331868
0.870817 0.617594 0.339467
0.873472 0.616556 0.366537
0.880156 0.626871 0.397116
0.881987 0.630381 0.403708
0.882383 0.631144 0.404501
0.037873 0.250401 0.206882
0.037903 0.251896 0.206943
0.038117 0.255680 0.208133
0.036591 0.234165 0.186069
0.039368 0.277378 0.202914
0.048035 0.342168 0.193271
0.083894 0.383948 0.156497
0.349020 0.499962 0.192157
0.683070 0.631144 0.300191
0.836286 0.692866 0.374701
0.889799 0.714305 0.412009
0.913512 0.723583 0.434745
0.917571 0.715434 0.452049
0.920226 0.719707 0.494102
0.918822 0.727062 0.521065
0.918700 0.728649 0.525948
0.918791 0.729320 0.526955
0.040925 0.292546 0.241337
0.040955 0.293248 0.240665
0.041108 0.295842 0.241550
0.041962 0.308843 0.245945
0.045014 0.346075 0.249302
0.050355 0.381994 0.231235
0.070146 0.410925 0.184848
0.255360 0.500587 0.194781
0.630488 0.647440 0.301015
0.838026 0.739391 0.405173
0.906432 0.776883 0.465278
0.932280 0.788846 0.508934
0.932616 0.784573 0.549722
0.928344 0.785458 0.586557
0.926635 0.787442 0.600549
0.926452 0.788388 0.603510
0.926513 0.789120 0.604486
0.045441 0.339605 0.281926
0.045441 0.341100 0.280613
0.045319 0.341070 0.278935
0.046174 0.351904 0.280034
0.050050 0.390875 0.293889
0.055634 0.426520 0.279728
0.074861 0.450019 0.230030
0.227924 0.519844 0.213672
0.593835 0.661112 0.320882
0.823194 0.767926 0.447684
0.905486 0.812558 0.513741
0.928527 0.819974 0.553185
0.935241 0.821683 0.600610
0.932006 0.824826 0.638697
0.932006 0.828275 0.647395
0.932036 0.829160 0.649104
0.932097 0.829526 0.649470
0.048981 0.365545 0.312383
0.048981 0.370886 0.305760
0.050782 0.388312 0.316136
0.052216 0.402441 0.321447
0.058289 0.441688 0.343114
0.071595 0.481941 0.344488
0.106371 0.499214 0.281041
0.297551 0.576211 0.284840
0.623377 0.702434 0.418173
0.804211 0.784955 0.535348
0.890257 0.824338 0.579400
0.922484 0.839811 0.615259
0.932189 0.840085 0.648127
0.933928 0.841733 0.662470
0.933776 0.842252 0.665217
0.933806 0.842680 0.665980
0.933806 0.842771 0.666102
0.045899 0.331334 0.292821
0.045777 0.338476 0.287388
0.055787 0.427070 0.346197
0.058412 0.440833 0.354864
0.069978 0.480751 0.383764
0.096254 0.516503 0.381720
0.154467 0.539300 0.330999
0.372015 0.624338 0.376654
0.641184 0.725750 0.492210
0.804334 0.793545 0.575570
0.894774 0.831174 0.603815
0.924376 0.842954 0.637873
0.932830 0.843015 0.663722
0.933776 0.843687 0.667567
0.933837 0.843717 0.667842
0.933837 0.843717 0.667842
0.933837 0.843717 0.667842
0.049714 0.367712 0.322026
0.048707 0.364233 0.309239
0.059266 0.444038 0.359655
0.061921 0.454841 0.366491
0.075441 0.494026 0.397864
0.103700 0.523217 0.388434
0.175311 0.553918 0.349584
0.388952 0.636179 0.400107
0.643473 0.730541 0.509590
0.804639 0.795346 0.583917
0.896086 0.832639 0.608637
0.925139 0.842924 0.640162
0.933165 0.843259 0.664973
0.933837 0.843717 0.667811
0.933837 0.843717 0.667842
0.933837 0.843717 0.667842
0.933837 0.843717 0.667842
0.052003 0.388159 0.337469
0.050294 0.378088 0.320287
0.060090 0.447517 0.362982
0.062867 0.457191 0.368536
0.075898 0.495125 0.399176
0.104524 0.523949 0.389136
0.177905 0.555474 0.351110
0.392493 0.637797 0.402426
0.645945 0.731731 0.511666
0.806409 0.796139 0.584833
0.896910 0.832975 0.609064
0.925322 0.842893 0.640589
0.933196 0.843259 0.665064
0.933837 0.843717 0.667842
0.933837 0.843717 0.667842
0.933837 0.843717 0.667842
0.933837 0.843717 0.667842
0.036469 0.041535 0.044892
0.037812 0.041749 0.044953
0.044709 0.042817 0.044739
0.065370 0.041840 0.040955
0.087282 0.044526 0.044526
0.111482 0.047089 0.047120
0.132601 0.049561 0.048524
0.158175 0.052583 0.046082
0.189578 0.055512 0.040406
0.226352 0.060090 0.041749
0.265904 0.064729 0.043854
0.304234 0.067689 0.046235
0.343420 0.069917 0.047883
0.376501 0.074067 0.049714
0.390906 0.076783 0.051026
0.394171 0.077760 0.051331
0.394812 0.078309 0.051362
0.036469 0.043610 0.046906
0.039002 0.045075 0.048066
0.045838 0.045624 0.047303
0.067750 0.042817 0.042664
0.091218 0.045747 0.045411
0.119478 0.049592 0.045960
0.142061 0.052155 0.045014
0.166506 0.053376 0.042573
0.202670 0.057649 0.041199
0.242130 0.062135 0.042817
0.273564 0.067659 0.044526
0.308812 0.069856 0.046632
0.346014 0.071870 0.048127
0.378210 0.075166 0.049836
0.392432 0.077729 0.051148
0.395514 0.078584 0.051423
0.395911 0.078981 0.051423
0.035706 0.049683 0.051484
0.038056 0.052247 0.053559
0.053468 0.061372 0.059480
0.076539 0.062562 0.057069
0.108431 0.060151 0.049073
0.135714 0.060426 0.046204
0.158389 0.059754 0.043915
0.190494 0.062013 0.043091
0.223209 0.063172 0.043336
0.270512 0.069490 0.045075
0.286259 0.071412 0.045594
0.317540 0.073732 0.047272
0.352850 0.075654 0.048646
0.382849 0.077913 0.050172
0.396643 0.080018 0.051514
0.399512 0.080720 0.051759
0.399756 0.081056 0.051759
0.031067 0.060731 0.063386
0.031739 0.063966 0.064271
0.048310 0.073518 0.068818
0.095399 0.095827 0.075013
0.133455 0.095674 0.062196
0.174685 0.093050 0.058625
0.209476 0.088319 0.054047
0.240604 0.085756 0.050141
0.274510 0.086946 0.049073
0.314122 0.089143 0.049165
0.328710 0.087068 0.049042
0.353521 0.088899 0.050050
0.380255 0.088319 0.050599
0.406043 0.090730 0.052216
0.420233 0.094209 0.053712
0.422644 0.094728 0.053956
0.422034 0.094423 0.053864
0.030335 0.071046 0.075349
0.030488 0.077638 0.078828
0.037293 0.091981 0.079377
0.067872 0.110750 0.083650
0.163943 0.150668 0.093202
0.218311 0.147829 0.084596
0.277485 0.147616 0.076295
0.321462 0.138674 0.066529
0.348791 0.128328 0.060853
0.375097 0.124605 0.058534
0.393744 0.119112 0.056397
0.409308 0.118715 0.055390
0.431220 0.120119 0.055940
0.451820 0.121706 0.056886
0.463966 0.126345 0.058747
0.465187 0.126009 0.058808
0.464546 0.125551 0.058686
0.029938 0.086854 0.083162
0.030549 0.095247 0.090913
0.033692 0.116670 0.099611
0.048951 0.139101 0.099733
0.114076 0.174899 0.102449
0.270832 0.235538 0.117189
0.349996 0.229587 0.106722
0.410330 0.222324 0.096345
0.437339 0.201389 0.083619
0.449592 0.182574 0.074159
0.464485 0.172549 0.069032
0.475441 0.162020 0.064607
0.487739 0.159915 0.063813
0.501427 0.160067 0.065614
0.504540 0.159701 0.067475
0.503532 0.158999 0.068177
0.502922 0.158389 0.067964
0.031373 0.106813 0.104616
0.032197 0.122560 0.113283
0.033417 0.146273 0.117159
0.036347 0.163943 0.116487
0.059541 0.186954 0.111696
0.171420 0.241978 0.120760
0.400565 0.328969 0.142794
0.498772 0.330709 0.135378
0.535348 0.308293 0.121431
0.545785 0.276417 0.106416
0.547616 0.249409 0.095613
0.553140 0.235431 0.088991
0.557443 0.221790 0.080873
0.560800 0.216846 0.082368
0.562814 0.218402 0.087251
0.561807 0.217914 0.088197
0.560952 0.217029 0.087770
0.033265 0.149813 0.134524
0.033570 0.159274 0.138705
0.033936 0.181857 0.137179
0.034546 0.192081 0.131441
0.040986 0.210849 0.121523
0.097322 0.250797 0.112459
0.318837 0.357687 0.141085
0.557076 0.443229 0.189883
0.619730 0.426291 0.188388
0.642405 0.396872 0.169726
0.653910 0.368612 0.151171
0.660716 0.349111 0.136584
0.666941 0.340475 0.133135
0.672465 0.335470 0.133867
0.679667 0.346548 0.150286
0.678386 0.345480 0.151324
0.677958 0.344991 0.150988
0.034607 0.186984 0.164279
0.034516 0.178286 0.159609
0.034394 0.187198 0.156619
0.035309 0.214511 0.160555
0.037903 0.239689 0.150027
0.054658 0.271855 0.137118
0.201312 0.353841 0.145754
0.509499 0.481804 0.210651
0.682750 0.530587 0.263478
0.741543 0.527443 0.259266
0.760601 0.503273 0.236408
0.773846 0.488426 0.223896
0.786908 0.486137 0.221027
0.794446 0.489006 0.237934
0.799603 0.495933 0.260548
0.801343 0.498100 0.265248
0.801495 0.498344 0.265461
0.036805 0.225010 0.198886
0.036744 0.225650 0.196567
0.036927 0.228611 0.197910
0.037446 0.239536 0.196963
0.039185 0.269444 0.202274
0.046784 0.309514 0.183536
0.104005 0.354757 0.155001
0.399588 0.482536 0.195331
0.703441 0.599756 0.299336
0.816205 0.632609 0.336263
0.851850 0.634653 0.340017
0.864393 0.625467 0.335012
0.871321 0.618753 0.341970
0.875303 0.619852 0.371572
0.882231 0.630655 0.402487
0.884672 0.635355 0.410269
0.885283 0.636515 0.411551
0.039704 0.264012 0.230991
0.039582 0.264408 0.229099
0.039582 0.266300 0.228061
0.037232 0.232639 0.203189
0.037079 0.232013 0.194430
0.047639 0.346807 0.233814
0.073533 0.384833 0.172793
0.330892 0.500221 0.196246
0.699031 0.644587 0.314809
0.849653 0.703136 0.386313
0.895781 0.719356 0.418372
0.914336 0.725551 0.437064
0.918486 0.717800 0.455741
0.920531 0.721813 0.497063
0.919127 0.729290 0.524147
0.919036 0.731060 0.529335
0.919158 0.732006 0.530617
0.043183 0.309453 0.269535
0.042817 0.308019 0.265110
0.042695 0.308446 0.262486
0.043305 0.318853 0.263645
0.046235 0.352819 0.266941
0.050874 0.388983 0.244327
0.082414 0.435889 0.202182
0.311788 0.529152 0.208881
0.685023 0.675105 0.325978
0.837171 0.740459 0.405692
0.906828 0.778714 0.466438
0.932647 0.790616 0.510674
0.932738 0.785672 0.551003
0.928466 0.787289 0.589273
0.926909 0.789761 0.603479
0.926757 0.790921 0.606622
0.926848 0.791897 0.607904
0.048676 0.359686 0.314031
0.048280 0.358953 0.308507
0.047944 0.357702 0.303716
0.048341 0.365698 0.300755
0.051148 0.397070 0.309422
0.056550 0.431891 0.293065
0.073976 0.452399 0.236637
0.220691 0.518288 0.213245
0.590829 0.660655 0.321157
0.821393 0.767987 0.449454
0.905089 0.813107 0.514763
0.928283 0.820554 0.554223
0.935363 0.822416 0.601282
0.932158 0.825864 0.639857
0.932189 0.829465 0.648463
0.932250 0.830503 0.650294
0.932342 0.830961 0.650721
0.055268 0.408545 0.353918
0.054170 0.408759 0.345861
0.053803 0.408972 0.342138
0.054627 0.418952 0.342962
0.059907 0.446265 0.354070
0.072908 0.485481 0.351965
0.106432 0.500511 0.285405
0.294347 0.575875 0.286397
0.619684 0.701488 0.418021
0.803479 0.784802 0.535470
0.890288 0.824308 0.579156
0.922515 0.839933 0.615595
0.932128 0.840360 0.649531
0.933989 0.842405 0.663417
0.933806 0.842710 0.666010
0.933867 0.843107 0.666377
0.933959 0.843107 0.665675
0.064332 0.455177 0.392493
0.063020 0.453407 0.382879
0.061494 0.449805 0.373388
0.062959 0.457984 0.375189
0.072999 0.487129 0.395758
0.097169 0.517632 0.385016
0.151080 0.537530 0.330480
0.365209 0.621836 0.374456
0.637308 0.724132 0.489921
0.802655 0.792752 0.574411
0.894743 0.831052 0.603113
0.924376 0.842863 0.637415
0.932860 0.843046 0.663722
0.933776 0.843656 0.667567
0.933837 0.843717 0.667842
0.933837 0.843687 0.667689
0.933898 0.843595 0.667018
0.073060 0.487098 0.420020
0.068544 0.473732 0.400336
0.065431 0.464576 0.385779
0.067567 0.471412 0.387671
0.077577 0.500206 0.409827
0.104799 0.524834 0.392462
0.171618 0.551904 0.348943
0.382452 0.633555 0.396719
0.639460 0.728740 0.506722
0.802777 0.794461 0.582574
0.895964 0.832456 0.607965
0.925109 0.842832 0.639551
0.933165 0.843229 0.664820
0.933837 0.843717 0.667811
0.933837 0.843717 0.667842
0.933837 0.843717 0.667842
0.933867 0.843656 0.667353
0.076387 0.497292 0.430182
0.070588 0.480110 0.406897
0.066133 0.466773 0.388190
0.068208 0.473396 0.389776
0.077913 0.501457 0.411322
0.105409 0.525505 0.393072
0.174060 0.553429 0.350622
0.385595 0.635019 0.398795
0.641596 0.729747 0.508492
0.804486 0.795193 0.583459
0.896727 0.832792 0.608392
0.925261 0.842832 0.639979
0.933165 0.843259 0.664973
0.933837 0.843717 0.667842
0.933837 0.843717 0.667842
0.933837 0.843717 0.667842
0.933837 0.843687 0.667659
0.036805 0.042664 0.048707
0.038453 0.042603 0.049683
0.046693 0.042481 0.051453
0.066407 0.042969 0.056092
0.089235 0.045380 0.055940
0.113466 0.047974 0.056916
0.138582 0.051087 0.057069
0.171023 0.054200 0.056245
0.208530 0.055543 0.050446
0.229496 0.055818 0.048005
0.263981 0.056977 0.047547
0.301030 0.057252 0.047974
0.335241 0.056641 0.048341
0.363470 0.058808 0.049104
