example-Advanced/bin/data/ofxGpuLutCube/LUT/Dramatic-9.cube
#Generated by Picture Instruments - Look Creator
TITLE "Agfa Optima 100II--"
LUT_3D_SIZE 17
0 0 0
0.0470588 0 0
0.101961 0 0.00392157
0.156863 0 0
0.211765 0 0
0.258824 0 0
0.309804 0 0
0.368627 0 0
0.427451 0 0
0.490196 0 0
0.556863 0 0
0.627451 0 0
0.690196 0 0
0.74902 0 0
0.803922 0 0
0.85098 0 0
0.905882 0.0470588 0
0.0196078 0.0588235 0.0196078
0.0745098 0.0666667 0.0117647
0.121569 0.0745098 0
0.172549 0.0745098 0
0.219608 0.054902 0
0.266667 0.027451 0
0.321569 0 0
0.384314 0 0
0.447059 0 0
0.513725 0 0
0.580392 0 0
0.643137 0 0
0.701961 0 0
0.760784 0 0
0.807843 0 0
0.858824 0.0705882 0
0.909804 0.113725 0
0.0509804 0.133333 0.0431373
0.0823529 0.133333 0.0392157
0.12549 0.141176 0.00784314
0.188235 0.137255 0
0.231373 0.129412 0
0.282353 0.121569 0
0.337255 0.109804 0
0.396078 0.101961 0
0.462745 0.0862745 0
0.52549 0.0627451 0
0.592157 0.0352941 0
0.654902 0.0352941 0
0.709804 0.0666667 0
0.764706 0.0980392 0
0.815686 0.12549 0
0.858824 0.152941 0
0.913725 0.172549 0
0.0745098 0.192157 0.0705882
0.0980392 0.192157 0.0745098
0.12549 0.188235 0.0705882
0.176471 0.2 0.0196078
0.239216 0.203922 0
0.294118 0.196078 0
0.352941 0.188235 0
0.419608 0.180392 0
0.478431 0.176471 0
0.54902 0.176471 0
0.611765 0.176471 0
0.670588 0.176471 0
0.72549 0.184314 0
0.772549 0.196078 0
0.823529 0.211765 0
0.866667 0.223529 0
0.917647 0.239216 0
0.101961 0.243137 0.0980392
0.117647 0.247059 0.0980392
0.141176 0.247059 0.0980392
0.172549 0.247059 0.0901961
0.227451 0.262745 0.0509804
0.301961 0.27451 0
0.368627 0.27451 0
0.435294 0.266667 0
0.501961 0.262745 0
0.572549 0.262745 0
0.631373 0.262745 0
0.686275 0.266667 0
0.737255 0.27451 0
0.784314 0.282353 0
0.831373 0.290196 0
0.87451 0.298039 0
0.92549 0.309804 0
0.12549 0.298039 0.117647
0.141176 0.309804 0.121569
0.160784 0.309804 0.121569
0.188235 0.305882 0.121569
0.227451 0.317647 0.105882
0.290196 0.333333 0.0666667
0.372549 0.352941 0
0.454902 0.356863 0
0.52549 0.356863 0
0.588235 0.352941 0
0.65098 0.352941 0
0.705882 0.352941 0
0.752941 0.356863 0
0.8 0.364706 0
0.843137 0.368627 0
0.886275 0.372549 0
0.933333 0.384314 0
0.14902 0.364706 0.137255
0.164706 0.376471 0.141176
0.184314 0.380392 0.141176
0.207843 0.376471 0.141176
0.239216 0.376471 0.141176
0.290196 0.392157 0.121569
0.360784 0.411765 0.0784314
0.447059 0.431373 0
0.541176 0.447059 0
0.607843 0.447059 0
0.666667 0.443137 0
0.717647 0.439216 0
0.768627 0.439216 0
0.815686 0.443137 0
0.854902 0.447059 0
0.898039 0.45098 0
0.945098 0.454902 0
0.176471 0.443137 0.156863
0.192157 0.45098 0.160784
0.207843 0.45098 0.156863
0.231373 0.45098 0.156863
0.266667 0.45098 0.160784
0.301961 0.45098 0.152941
0.368627 0.470588 0.129412
0.443137 0.490196 0.0784314
0.529412 0.513725 0
0.619608 0.529412 0
0.678431 0.529412 0
0.729412 0.52549 0
0.776471 0.521569 0
0.823529 0.521569 0
0.866667 0.521569 0
0.909804 0.52549 0
0.952941 0.52549 0
0.207843 0.521569 0.176471
0.219608 0.52549 0.176471
0.235294 0.52549 0.176471
0.258824 0.52549 0.180392
0.290196 0.521569 0.176471
0.32549 0.521569 0.176471
0.372549 0.52549 0.164706
0.439216 0.545098 0.133333
0.517647 0.564706 0.0784314
0.6 0.584314 0
0.678431 0.6 0
0.741176 0.603922 0
0.788235 0.6 0
0.831373 0.596078 0
0.87451 0.596078 0
0.917647 0.592157 0
0.960784 0.596078 0
0.243137 0.592157 0.2
0.254902 0.592157 0.2
0.266667 0.596078 0.2
0.290196 0.592157 0.2
0.321569 0.592157 0.2
0.352941 0.588235 0.2
0.392157 0.584314 0.2
0.447059 0.6 0.180392
0.513725 0.611765 0.14902
0.584314 0.631373 0.0901961
0.658824 0.647059 0
0.733333 0.666667 0
0.8 0.67451 0
0.839216 0.670588 0
0.886275 0.662745 0
0.92549 0.658824 0
0.964706 0.662745 0
0.290196 0.658824 0.231373
0.298039 0.658824 0.231373
0.309804 0.654902 0.231373
0.329412 0.654902 0.231373
0.356863 0.654902 0.231373
0.388235 0.654902 0.231373
0.423529 0.65098 0.231373
0.462745 0.65098 0.223529
0.517647 0.662745 0.203922
0.580392 0.678431 0.168627
0.643137 0.690196 0.117647
0.717647 0.709804 0
0.784314 0.72549 0
0.85098 0.741176 0
0.890196 0.733333 0
0.933333 0.729412 0
0.972549 0.729412 0
0.341176 0.72549 0.270588
0.345098 0.721569 0.270588
0.356863 0.721569 0.270588
0.372549 0.717647 0.270588
0.4 0.717647 0.270588
0.427451 0.713725 0.270588
0.458824 0.709804 0.266667
0.494118 0.709804 0.266667
0.537255 0.709804 0.258824
0.588235 0.721569 0.235294
0.643137 0.737255 0.203922
0.698039 0.752941 0.156863
0.764706 0.764706 0.054902
0.831373 0.784314 0
0.898039 0.8 0
0.941176 0.792157 0
0.976471 0.792157 0
0.396078 0.784314 0.317647
0.4 0.780392 0.313725
0.407843 0.776471 0.313725
0.423529 0.776471 0.309804
0.443137 0.772549 0.309804
0.466667 0.772549 0.309804
0.498039 0.772549 0.309804
0.529412 0.768627 0.313725
0.556863 0.764706 0.309804
0.6 0.772549 0.298039
0.654902 0.784314 0.27451
0.701961 0.796078 0.243137
0.752941 0.807843 0.2
0.807843 0.819608 0.129412
0.87451 0.835294 0
0.945098 0.854902 0
0.984314 0.854902 0
0.458824 0.843137 0.372549
0.458824 0.831373 0.368627
0.466667 0.831373 0.364706
0.478431 0.831373 0.364706
0.490196 0.831373 0.364706
0.513725 0.827451 0.364706
0.537255 0.823529 0.364706
0.564706 0.823529 0.364706
0.592157 0.823529 0.364706
0.623529 0.823529 0.368627
0.666667 0.827451 0.34902
0.709804 0.839216 0.32549
0.752941 0.85098 0.294118
0.803922 0.862745 0.25098
0.854902 0.870588 0.192157
0.913725 0.882353 0.0666667
0.972549 0.905882 0.00392157
0.529412 0.898039 0.443137
0.521569 0.886275 0.435294
0.529412 0.886275 0.431373
0.533333 0.882353 0.431373
0.54902 0.878431 0.431373
0.568627 0.882353 0.431373
0.588235 0.878431 0.431373
0.611765 0.878431 0.431373
0.635294 0.878431 0.435294
0.658824 0.878431 0.439216
0.690196 0.878431 0.439216
0.72549 0.886275 0.419608
0.768627 0.894118 0.392157
0.807843 0.905882 0.364706
0.85098 0.913725 0.321569
0.898039 0.917647 0.266667
0.94902 0.929412 0.196078
0.603922 0.945098 0.52549
0.592157 0.933333 0.513725
0.596078 0.933333 0.509804
0.6 0.933333 0.509804
0.611765 0.933333 0.509804
0.627451 0.929412 0.513725
0.643137 0.929412 0.513725
0.662745 0.933333 0.517647
0.686275 0.933333 0.521569
0.709804 0.933333 0.529412
0.733333 0.933333 0.537255
0.756863 0.933333 0.529412
0.788235 0.941176 0.513725
0.819608 0.94902 0.490196
0.858824 0.956863 0.458824
0.894118 0.960784 0.419608
0.929412 0.964706 0.372549
0.682353 0.984314 0.615686
0.67451 0.984314 0.603922
0.67451 0.980392 0.6
0.682353 0.980392 0.603922
0.686275 0.980392 0.607843
0.701961 0.984314 0.611765
0.713725 0.980392 0.615686
0.729412 0.980392 0.619608
0.74902 0.984314 0.627451
0.768627 0.984314 0.631373
0.792157 0.984314 0.639216
0.815686 0.984314 0.647059
0.835294 0.988235 0.639216
0.858824 0.992157 0.623529
0.882353 0.992157 0.607843
0.909804 0.992157 0.584314
0.937255 0.992157 0.54902
0 0.00392157 0.0705882
0.0431373 0 0.054902
0.0980392 0.00392157 0.0666667
0.160784 0 0.0509804
0.207843 0 0.0470588
0.258824 0 0.0313725
0.309804 0 0.0117647
0.368627 0 0
0.427451 0 0
0.494118 0 0
0.560784 0 0
0.631373 0 0
0.694118 0 0
0.752941 0 0
0.803922 0 0
0.854902 0 0
0.909804 0.0745098 0
0.0156863 0.0588235 0.0745098
0.0666667 0.0588235 0.0784314
0.121569 0.0588235 0.0705882
0.168627 0.0470588 0.0666667
0.215686 0.0352941 0.0470588
0.266667 0.0156863 0.0352941
0.321569 0 0.0156863
0.384314 0 0
0.447059 0 0
0.513725 0 0
0.584314 0 0
0.647059 0 0
0.705882 0 0
0.760784 0 0
0.807843 0 0
0.854902 0.0862745 0
0.913725 0.12549 0
0.054902 0.129412 0.0862745
0.0901961 0.129412 0.0941176
0.129412 0.129412 0.0823529
0.184314 0.129412 0.0666667
0.227451 0.117647 0.054902
0.27451 0.109804 0.0431373
0.333333 0.101961 0.0156863
0.396078 0.0941176 0
0.458824 0.0823529 0
0.52549 0.0705882 0
0.596078 0.0666667 0
0.658824 0.0823529 0
0.713725 0.0941176 0
0.764706 0.113725 0
0.815686 0.137255 0
0.858824 0.156863 0
0.913725 0.180392 0
0.0901961 0.188235 0.105882
0.109804 0.188235 0.109804
0.133333 0.184314 0.109804
0.176471 0.192157 0.0941176
0.235294 0.196078 0.0627451
0.290196 0.188235 0.0392157
0.352941 0.184314 0.0117647
0.415686 0.176471 0
0.478431 0.172549 0
0.545098 0.168627 0
0.611765 0.172549 0
0.670588 0.180392 0
0.72549 0.192157 0
0.776471 0.203922 0
0.823529 0.215686 0
0.866667 0.227451 0
0.917647 0.243137 0
0.113725 0.239216 0.121569
0.129412 0.247059 0.12549
0.14902 0.243137 0.129412
0.180392 0.243137 0.121569
0.231373 0.258824 0.0980392
0.301961 0.270588 0.054902
0.372549 0.270588 0
0.435294 0.262745 0
0.501961 0.258824 0
0.568627 0.258824 0
0.631373 0.258824 0
0.686275 0.262745 0
0.737255 0.270588 0
0.784314 0.282353 0
0.831373 0.290196 0
0.87451 0.301961 0
0.92549 0.313725 0
0.133333 0.301961 0.137255
0.14902 0.309804 0.141176
0.168627 0.313725 0.145098
0.196078 0.309804 0.145098
0.231373 0.317647 0.133333
0.298039 0.333333 0.105882
0.376471 0.34902 0.0431373
0.454902 0.356863 0
0.52549 0.352941 0
0.588235 0.34902 0
0.65098 0.34902 0
0.701961 0.352941 0
0.74902 0.352941 0
0.796078 0.360784 0
0.843137 0.368627 0
0.886275 0.376471 0
0.933333 0.384314 0
0.152941 0.372549 0.152941
0.172549 0.380392 0.160784
0.188235 0.384314 0.160784
0.215686 0.380392 0.160784
0.247059 0.376471 0.156863
0.294118 0.392157 0.141176
0.364706 0.411765 0.109804
0.45098 0.431373 0.0156863
0.545098 0.443137 0
0.607843 0.443137 0
0.666667 0.443137 0
0.717647 0.435294 0
0.768627 0.439216 0
0.811765 0.439216 0
0.854902 0.443137 0
0.898039 0.45098 0
0.945098 0.454902 0
0.176471 0.439216 0.168627
0.196078 0.454902 0.172549
0.211765 0.454902 0.176471
0.239216 0.454902 0.176471
0.270588 0.45098 0.172549
0.305882 0.454902 0.168627
0.364706 0.47451 0.145098
0.447059 0.494118 0.109804
0.529412 0.513725 0
0.619608 0.529412 0
0.678431 0.52549 0
0.729412 0.52549 0
0.780392 0.517647 0
0.823529 0.517647 0
0.866667 0.521569 0
0.909804 0.521569 0
0.952941 0.52549 0
0.207843 0.513725 0.188235
0.219608 0.52549 0.192157
0.239216 0.529412 0.196078
0.262745 0.52549 0.192157
0.294118 0.52549 0.192157
0.329412 0.52549 0.192157
0.376471 0.529412 0.180392
0.443137 0.545098 0.152941
0.52549 0.564706 0.109804
0.603922 0.584314 0
0.682353 0.6 0
0.741176 0.603922 0
0.788235 0.6 0
0.835294 0.596078 0
0.87451 0.592157 0
0.917647 0.588235 0
0.960784 0.596078 0
0.239216 0.580392 0.207843
0.254902 0.592157 0.211765
0.270588 0.592157 0.211765
0.294118 0.596078 0.211765
0.321569 0.592157 0.211765
0.356863 0.592157 0.211765
0.396078 0.588235 0.211765
0.45098 0.596078 0.196078
0.517647 0.611765 0.164706
0.588235 0.631373 0.117647
0.658824 0.647059 0
0.737255 0.666667 0
0.8 0.67451 0
0.839216 0.666667 0
0.886275 0.662745 0
0.92549 0.658824 0
0.964706 0.658824 0
0.282353 0.647059 0.235294
0.298039 0.654902 0.239216
0.309804 0.658824 0.243137
0.329412 0.654902 0.243137
0.356863 0.654902 0.243137
0.392157 0.654902 0.243137
0.427451 0.65098 0.243137
0.466667 0.65098 0.239216
0.517647 0.662745 0.219608
0.580392 0.678431 0.184314
0.647059 0.690196 0.145098
0.713725 0.709804 0.027451
0.788235 0.729412 0
0.854902 0.737255 0
0.894118 0.733333 0
0.933333 0.729412 0
0.972549 0.729412 0
0.333333 0.705882 0.270588
0.345098 0.717647 0.27451
0.356863 0.717647 0.278431
0.372549 0.713725 0.278431
0.4 0.717647 0.278431
0.427451 0.713725 0.278431
0.462745 0.713725 0.278431
0.498039 0.709804 0.278431
0.537255 0.709804 0.270588
0.592157 0.72549 0.25098
0.647059 0.737255 0.215686
0.701961 0.74902 0.172549
0.768627 0.764706 0.0980392
0.831373 0.784314 0
0.898039 0.8 0
0.941176 0.792157 0
0.976471 0.792157 0
0.384314 0.764706 0.313725
0.392157 0.772549 0.317647
0.407843 0.772549 0.321569
0.423529 0.776471 0.317647
0.443137 0.772549 0.317647
0.466667 0.772549 0.321569
0.498039 0.768627 0.321569
0.529412 0.768627 0.321569
0.560784 0.768627 0.321569
0.603922 0.772549 0.309804
0.647059 0.784314 0.286275
0.701961 0.796078 0.258824
0.756863 0.807843 0.215686
0.811765 0.819608 0.152941
0.87451 0.835294 0
0.945098 0.854902 0
0.984314 0.854902 0
0.439216 0.819608 0.364706
0.454902 0.831373 0.368627
0.462745 0.827451 0.368627
0.478431 0.831373 0.372549
0.494118 0.827451 0.368627
0.513725 0.827451 0.372549
0.537255 0.827451 0.372549
0.564706 0.823529 0.372549
0.596078 0.823529 0.376471
0.627451 0.819608 0.376471
0.666667 0.831373 0.360784
0.713725 0.843137 0.333333
0.756863 0.85098 0.305882
0.803922 0.862745 0.266667
0.858824 0.870588 0.211765
0.917647 0.886275 0.109804
0.976471 0.905882 0.00392157
0.509804 0.878431 0.427451
0.517647 0.882353 0.435294
0.52549 0.882353 0.435294
0.533333 0.878431 0.435294
0.54902 0.882353 0.439216
0.568627 0.882353 0.439216
0.588235 0.882353 0.439216
0.611765 0.878431 0.439216
0.635294 0.878431 0.443137
0.662745 0.878431 0.447059
0.694118 0.882353 0.447059
0.729412 0.890196 0.427451
0.764706 0.901961 0.403922
0.811765 0.901961 0.372549
0.85098 0.913725 0.329412
0.898039 0.921569 0.27451
0.94902 0.929412 0.211765
0.584314 0.929412 0.509804
0.592157 0.933333 0.513725
0.596078 0.933333 0.513725
0.6 0.933333 0.513725
0.611765 0.933333 0.513725
0.627451 0.933333 0.517647
0.647059 0.933333 0.521569
0.662745 0.929412 0.52549
0.686275 0.933333 0.52549
0.709804 0.933333 0.533333
0.733333 0.933333 0.541176
0.760784 0.937255 0.533333
0.792157 0.945098 0.521569
0.819608 0.94902 0.498039
0.858824 0.952941 0.466667
0.898039 0.960784 0.431373
0.929412 0.964706 0.384314
0.670588 0.980392 0.607843
0.67451 0.984314 0.611765
0.678431 0.984314 0.611765
0.682353 0.980392 0.611765
0.690196 0.980392 0.611765
0.701961 0.980392 0.615686
0.713725 0.980392 0.619608
0.729412 0.984314 0.623529
0.74902 0.984314 0.631373
0.768627 0.980392 0.639216
0.792157 0.984314 0.647059
0.815686 0.984314 0.65098
0.835294 0.988235 0.643137
0.858824 0.992157 0.631373
0.882353 0.992157 0.611765
0.909804 0.996078 0.592157
0.937255 0.992157 0.556863
0 0.00392157 0.121569
0.0588235 0 0.117647
0.0941176 0 0.109804
0.152941 0 0.113725
0.207843 0 0.105882
0.25098 0 0.101961
0.301961 0 0.0901961
0.360784 0 0.0862745
0.419608 0 0.0705882
0.486275 0 0.0392157
0.556863 0 0
0.627451 0 0
0.690196 0 0
0.752941 0 0
0.803922 0 0
0.854902 0.00784314 0
0.909804 0.0862745 0
0.00784314 0.0588235 0.12549
0.0627451 0.0509804 0.129412
0.113725 0.0470588 0.121569
0.164706 0.0470588 0.121569
0.211765 0.027451 0.109804
0.258824 0.0235294 0.109804
0.313725 0 0.101961
0.372549 0 0.0862745
0.439216 0 0.0745098
0.505882 0 0.0392157
0.576471 0 0
0.643137 0 0
0.701961 0 0
0.760784 0 0
0.811765 0.0666667 0
0.858824 0.105882 0
0.909804 0.129412 0
0.0509804 0.12549 0.141176
0.0901961 0.121569 0.145098
0.133333 0.12549 0.145098
0.176471 0.117647 0.129412
0.219608 0.117647 0.12549
0.266667 0.109804 0.113725
0.32549 0.101961 0.105882
0.388235 0.0901961 0.0941176
0.45098 0.0745098 0.0745098
0.521569 0.0431373 0.0392157
0.588235 0.0196078 0
0.65098 0.0431373 0
0.709804 0.0823529 0
0.764706 0.117647 0
0.815686 0.14902 0
0.862745 0.164706 0
0.913725 0.180392 0
0.0941176 0.180392 0.145098
0.117647 0.184314 0.145098
0.145098 0.184314 0.14902
0.180392 0.188235 0.137255
0.235294 0.188235 0.12549
0.286275 0.180392 0.121569
0.345098 0.176471 0.109804
0.407843 0.168627 0.0941176
0.470588 0.164706 0.0784314
0.537255 0.160784 0.0352941
0.603922 0.160784 0
0.662745 0.168627 0
0.721569 0.176471 0
0.772549 0.196078 0
0.823529 0.219608 0
0.870588 0.231373 0
0.917647 0.243137 0
0.12549 0.235294 0.156863
0.141176 0.247059 0.160784
0.160784 0.243137 0.160784
0.188235 0.239216 0.160784
0.235294 0.25098 0.145098
0.305882 0.266667 0.121569
0.368627 0.262745 0.105882
0.431373 0.254902 0.0941176
0.498039 0.25098 0.0784314
0.560784 0.25098 0.027451
0.623529 0.25098 0
0.682353 0.254902 0
0.733333 0.262745 0
0.784314 0.27451 0
0.831373 0.290196 0
0.878431 0.301961 0
0.92549 0.313725 0
0.145098 0.301961 0.168627
0.156863 0.313725 0.176471
0.176471 0.309804 0.172549
0.203922 0.309804 0.172549
0.239216 0.309804 0.164706
0.298039 0.329412 0.145098
0.380392 0.345098 0.113725
0.454902 0.34902 0.0901961
0.521569 0.345098 0.0588235
0.588235 0.345098 0
0.647059 0.341176 0
0.698039 0.341176 0
0.74902 0.34902 0
0.796078 0.352941 0
0.839216 0.360784 0
0.886275 0.372549 0
0.933333 0.384314 0
0.160784 0.372549 0.180392
0.176471 0.384314 0.184314
0.196078 0.384314 0.184314
0.219608 0.384314 0.184314
0.254902 0.376471 0.184314
0.298039 0.388235 0.168627
0.368627 0.407843 0.145098
0.454902 0.427451 0.105882
0.541176 0.439216 0.0392157
0.607843 0.439216 0
0.666667 0.435294 0
0.713725 0.431373 0
0.764706 0.431373 0
0.811765 0.435294 0
0.854902 0.439216 0
0.898039 0.443137 0
0.945098 0.454902 0
0.180392 0.443137 0.192157
0.2 0.458824 0.196078
0.215686 0.454902 0.196078
0.243137 0.454902 0.196078
0.27451 0.454902 0.196078
0.313725 0.45098 0.196078
0.368627 0.470588 0.176471
0.45098 0.490196 0.145098
0.533333 0.509804 0.0941176
0.623529 0.52549 0
0.678431 0.521569 0
0.729412 0.517647 0
0.776471 0.513725 0
0.823529 0.513725 0
0.866667 0.517647 0
0.909804 0.517647 0
0.952941 0.521569 0
0.211765 0.513725 0.207843
0.223529 0.52549 0.211765
0.243137 0.529412 0.211765
0.266667 0.529412 0.211765
0.298039 0.52549 0.211765
0.337255 0.52549 0.211765
0.380392 0.52549 0.207843
0.447059 0.545098 0.180392
0.517647 0.564706 0.145098
0.603922 0.584314 0.0862745
0.682353 0.6 0
0.741176 0.6 0
0.788235 0.596078 0
0.831373 0.592157 0
0.878431 0.588235 0
0.917647 0.588235 0
0.960784 0.588235 0
0.247059 0.580392 0.227451
0.258824 0.596078 0.231373
0.27451 0.596078 0.235294
0.298039 0.596078 0.235294
0.329412 0.592157 0.235294
0.360784 0.592157 0.231373
0.4 0.588235 0.231373
0.45098 0.596078 0.219608
0.513725 0.615686 0.192157
0.588235 0.631373 0.152941
0.662745 0.647059 0.0901961
0.737255 0.666667 0
0.8 0.67451 0
0.843137 0.666667 0
0.886275 0.662745 0
0.92549 0.654902 0
0.964706 0.658824 0
0.290196 0.647059 0.254902
0.301961 0.654902 0.258824
0.313725 0.654902 0.258824
0.333333 0.658824 0.258824
0.360784 0.654902 0.258824
0.392157 0.65098 0.258824
0.431373 0.65098 0.262745
0.470588 0.65098 0.262745
0.521569 0.662745 0.243137
0.584314 0.67451 0.215686
0.647059 0.690196 0.176471
0.713725 0.709804 0.113725
0.788235 0.729412 0
0.854902 0.737255 0
0.890196 0.729412 0
0.933333 0.72549 0
0.972549 0.72549 0
0.333333 0.709804 0.290196
0.34902 0.717647 0.294118
0.356863 0.717647 0.294118
0.376471 0.717647 0.294118
0.403922 0.717647 0.294118
0.431373 0.713725 0.294118
0.466667 0.713725 0.298039
0.501961 0.709804 0.294118
0.541176 0.709804 0.290196
0.588235 0.72549 0.270588
0.65098 0.737255 0.243137
0.705882 0.74902 0.207843
0.764706 0.764706 0.14902
0.835294 0.784314 0
0.901961 0.796078 0
0.941176 0.792157 0
0.976471 0.792157 0
0.384314 0.764706 0.32549
0.396078 0.772549 0.329412
0.407843 0.772549 0.333333
0.423529 0.772549 0.333333
0.447059 0.772549 0.333333
0.470588 0.772549 0.337255
0.501961 0.772549 0.333333
0.533333 0.768627 0.333333
0.564706 0.768627 0.333333
0.603922 0.772549 0.32549
0.65098 0.784314 0.305882
0.705882 0.796078 0.278431
0.756863 0.811765 0.243137
0.811765 0.819608 0.188235
0.878431 0.835294 0.0823529
0.945098 0.854902 0
0.984314 0.854902 0
0.447059 0.819608 0.376471
0.458824 0.827451 0.380392
0.466667 0.831373 0.380392
0.478431 0.827451 0.384314
0.498039 0.827451 0.384314
0.517647 0.827451 0.384314
0.541176 0.823529 0.384314
0.568627 0.827451 0.384314
0.596078 0.823529 0.388235
0.631373 0.823529 0.392157
0.670588 0.831373 0.376471
0.709804 0.843137 0.352941
0.760784 0.85098 0.321569
0.807843 0.862745 0.286275
0.85098 0.870588 0.231373
0.917647 0.886275 0.152941
0.980392 0.905882 0.00784314
0.513725 0.878431 0.439216
0.521569 0.882353 0.443137
0.529412 0.882353 0.447059
0.537255 0.882353 0.447059
0.552941 0.882353 0.447059
0.568627 0.882353 0.45098
0.592157 0.882353 0.45098
0.615686 0.882353 0.454902
0.639216 0.882353 0.454902
0.670588 0.878431 0.458824
0.694118 0.882353 0.458824
0.733333 0.890196 0.443137
0.772549 0.898039 0.419608
0.803922 0.905882 0.388235
0.854902 0.913725 0.352941
0.898039 0.921569 0.298039
0.94902 0.929412 0.239216
0.588235 0.929412 0.517647
0.592157 0.933333 0.521569
0.596078 0.933333 0.52549
0.603922 0.933333 0.52549
0.615686 0.933333 0.52549
0.631373 0.933333 0.52549
0.647059 0.933333 0.529412
0.666667 0.933333 0.537255
0.690196 0.933333 0.537255
0.713725 0.933333 0.541176
0.737255 0.933333 0.545098
0.760784 0.933333 0.54902
0.792157 0.945098 0.529412
0.823529 0.952941 0.509804
0.858824 0.956863 0.482353
0.898039 0.960784 0.443137
0.933333 0.964706 0.396078
0.67451 0.980392 0.619608
0.678431 0.984314 0.615686
0.682353 0.980392 0.615686
0.686275 0.984314 0.619608
0.690196 0.980392 0.619608
0.701961 0.980392 0.619608
0.717647 0.984314 0.627451
0.733333 0.984314 0.631373
0.752941 0.984314 0.635294
0.772549 0.984314 0.643137
0.796078 0.984314 0.65098
0.819608 0.984314 0.662745
0.839216 0.988235 0.647059
0.858824 0.992157 0.639216
0.886275 0.996078 0.623529
0.909804 0.992157 0.596078
0.937255 0.992157 0.564706
0 0.00392157 0.172549
0.027451 0 0.168627
0.0980392 0 0.164706
0.141176 0 0.164706
0.2 0 0.160784
0.25098 0 0.152941
0.298039 0 0.145098
0.352941 0 0.137255
0.411765 0 0.129412
0.47451 0 0.121569
0.54902 0 0.105882
0.619608 0 0.0862745
0.686275 0 0.0509804
0.745098 0 0
0.803922 0 0
0.854902 0 0
0.913725 0.0901961 0
0 0.0392157 0.180392
0.0509804 0.0352941 0.180392
0.105882 0.0313725 0.176471
0.156863 0.0196078 0.172549
0.207843 0.027451 0.168627
0.254902 0.0196078 0.160784
0.305882 0 0.152941
0.364706 0 0.145098
0.427451 0 0.133333
0.498039 0 0.12549
0.568627 0 0.109804
0.635294 0 0.0901961
0.698039 0 0.054902
0.756863 0 0
0.807843 0 0
0.858824 0.0980392 0
