example-Advanced/bin/data/ofxGpuLutCube/LUT/Dramatic-45.cube
TITLE "Generated by 3D LUT Creator (c) Oleg Sharonov"
LUT_3D_SIZE 9
0.0612 0.0433 0.0425
0.1013 0.0564 0.0459
0.1871 0.0653 0.0524
0.2973 0.0626 0.0678
0.4398 0.0945 0.0763
0.5711 0.1372 0.0774
0.6411 0.1881 0.0620
0.6863 0.2376 0.0651
0.7631 0.3023 0.0786
0.0607 0.0951 0.0635
0.1022 0.0987 0.0519
0.1799 0.1085 0.0580
0.2403 0.1364 0.0694
0.3828 0.1525 0.0797
0.5666 0.1953 0.0867
0.6586 0.2498 0.0766
0.7142 0.2944 0.0742
0.7738 0.3352 0.0880
0.0479 0.1804 0.1005
0.0465 0.1989 0.0684
0.1875 0.1925 0.0700
0.2804 0.2141 0.0832
0.3733 0.2424 0.0921
0.4860 0.2663 0.1049
0.6105 0.3096 0.1024
0.7367 0.3469 0.0811
0.8249 0.4106 0.1249
0.0552 0.2725 0.1491
0.0720 0.3107 0.0806
0.1712 0.3060 0.0847
0.3281 0.3088 0.0993
0.4413 0.3187 0.1082
0.5475 0.3466 0.1159
0.6371 0.3839 0.1108
0.7608 0.4169 0.0880
0.8190 0.4856 0.1578
0.0848 0.3811 0.2214
0.0950 0.3998 0.1859
0.2123 0.4084 0.1004
0.3732 0.4020 0.1148
0.4934 0.4293 0.1239
0.6135 0.4471 0.1158
0.6930 0.4784 0.0997
0.7839 0.5009 0.0984
0.8231 0.5389 0.2244
0.1424 0.4915 0.2940
0.1590 0.4997 0.2646
0.2093 0.5403 0.0963
0.4249 0.5132 0.1125
0.5453 0.5280 0.1197
0.6220 0.5648 0.1103
0.7322 0.5494 0.0961
0.8042 0.5971 0.1428
0.8386 0.5927 0.2791
0.2038 0.5718 0.3463
0.2038 0.5986 0.3112
0.2394 0.6160 0.3154
0.3627 0.6408 0.1343
0.5614 0.6258 0.1310
0.6673 0.6208 0.1258
0.7458 0.6653 0.1565
0.7840 0.6617 0.2815
0.8417 0.6700 0.3528
0.2313 0.6593 0.4041
0.2514 0.6578 0.4254
0.2979 0.6730 0.4364
0.4402 0.7407 0.3433
0.5977 0.7468 0.3002
0.6796 0.7322 0.2721
0.7252 0.7326 0.3052
0.7784 0.7354 0.3633
0.8579 0.7451 0.4078
0.3253 0.7266 0.5285
0.3410 0.7277 0.5329
0.3742 0.7390 0.5490
0.4861 0.7893 0.5137
0.6398 0.8002 0.4335
0.7005 0.7910 0.4087
0.7465 0.7909 0.3920
0.7962 0.8078 0.4038
0.8548 0.8282 0.4937
0.0629 0.0600 0.1026
0.1018 0.0564 0.1027
0.2002 0.0611 0.0843
0.3157 0.0678 0.0976
0.4688 0.1027 0.0985
0.5927 0.1143 0.0651
0.6605 0.1741 0.0560
0.6866 0.1896 0.0554
0.7524 0.3093 0.1170
0.0635 0.1253 0.1149
0.0628 0.1337 0.1588
0.2028 0.1217 0.0897
0.2873 0.1239 0.0810
0.4524 0.0934 0.0780
0.5783 0.1489 0.0789
0.6623 0.2186 0.0651
0.7231 0.2804 0.0712
0.7622 0.3334 0.1315
0.0488 0.1974 0.1594
0.0480 0.2093 0.1444
0.1823 0.2065 0.1255
0.3365 0.1970 0.0893
0.4496 0.2226 0.0969
0.5668 0.2457 0.0955
0.6696 0.2925 0.0828
0.7729 0.3512 0.0984
0.8156 0.4144 0.2283
0.0492 0.2778 0.2005
0.0659 0.3046 0.1817
0.1156 0.3577 0.1461
0.3334 0.3306 0.1028
0.4893 0.3524 0.1171
0.6082 0.3762 0.1127
0.7179 0.3884 0.0900
0.8070 0.4420 0.1417
0.8139 0.4779 0.2879
0.0808 0.3932 0.2632
0.0879 0.4169 0.2455
0.1651 0.4893 0.1394
0.3022 0.4905 0.1076
0.5155 0.4880 0.1217
0.6581 0.5033 0.1103
0.7652 0.5052 0.0992
0.7917 0.5212 0.2037
0.8084 0.5252 0.3175
0.1464 0.4970 0.3118
0.1517 0.4993 0.3035
0.1750 0.5135 0.2798
0.2850 0.5880 0.1113
0.5410 0.5972 0.1203
0.6809 0.5994 0.1164
0.7730 0.6013 0.1345
0.7742 0.5797 0.2797
0.8101 0.5761 0.3534
0.2074 0.5764 0.3611
0.2061 0.5840 0.3560
0.2274 0.5973 0.3793
0.3130 0.6644 0.2944
0.5875 0.6681 0.1636
0.7075 0.6557 0.1500
0.7208 0.6901 0.2637
0.7662 0.6435 0.3439
0.8325 0.6684 0.3912
0.2378 0.6603 0.4251
0.2609 0.6614 0.4436
0.2994 0.6762 0.4788
0.3788 0.7037 0.4926
0.5631 0.7490 0.3807
0.6655 0.7267 0.3454
0.7160 0.7263 0.3502
0.7720 0.7354 0.3974
0.8496 0.7411 0.4586
0.3295 0.7307 0.5425
0.3495 0.7374 0.5547
0.3861 0.7544 0.5821
0.4845 0.8028 0.5624
0.6165 0.8210 0.5139
0.7014 0.8025 0.4498
0.7435 0.7967 0.4278
0.7879 0.8121 0.4454
0.8573 0.8290 0.5267
0.0551 0.1097 0.2010
0.0925 0.1006 0.2009
0.1437 0.1036 0.1978
0.2594 0.0878 0.1598
0.3936 0.0945 0.1484
0.6105 0.1277 0.0884
0.6804 0.1277 0.0530
0.6872 0.2119 0.0866
0.7337 0.3203 0.2267
0.0479 0.1911 0.1932
0.0581 0.1810 0.2269
0.1362 0.1539 0.2494
0.2974 0.1870 0.1967
0.4900 0.1243 0.1536
0.6061 0.1605 0.1139
0.6810 0.2386 0.1011
0.7324 0.3100 0.1589
0.7405 0.3450 0.2498
0.0399 0.2353 0.2274
0.0420 0.2424 0.2433
0.0604 0.2625 0.2805
0.3217 0.2455 0.2327
0.4882 0.2716 0.2190
0.5828 0.2517 0.2235
0.6479 0.3227 0.2694
0.7258 0.3734 0.2867
0.7852 0.4261 0.3314
0.0505 0.2952 0.2787
0.0595 0.3157 0.2759
0.0678 0.3366 0.2865
0.2897 0.3267 0.2822
0.5217 0.3757 0.2385
0.6041 0.4216 0.2856
0.6830 0.4256 0.3066
0.7597 0.4554 0.3285
0.8088 0.4869 0.3842
0.0918 0.4013 0.3330
0.0955 0.4458 0.3050
0.1250 0.4837 0.3033
0.2235 0.4794 0.3414
0.5328 0.5418 0.1278
0.6589 0.5526 0.2096
0.7213 0.5163 0.3081
0.7722 0.5214 0.3522
0.8233 0.5458 0.4104
0.1632 0.5163 0.3565
0.1793 0.5247 0.3432
0.1934 0.5449 0.3438
0.2760 0.5906 0.3650
0.4977 0.6644 0.2576
0.6739 0.6783 0.2201
0.7353 0.5984 0.3408
0.7816 0.5993 0.3931
0.8363 0.6181 0.4276
0.2155 0.5970 0.3849
0.2141 0.6042 0.3785
0.2296 0.6123 0.4006
0.2812 0.6360 0.4668
0.4576 0.6976 0.3555
0.6656 0.7049 0.3435
0.7257 0.6976 0.3802
0.7918 0.6732 0.4204
0.8441 0.6892 0.4602
0.2553 0.6736 0.4618
0.2777 0.6757 0.4797
0.3150 0.6910 0.5123
0.3714 0.7097 0.5561
0.5155 0.7447 0.4975
0.6879 0.7418 0.4282
0.7350 0.7596 0.4051
0.7813 0.7583 0.4418
0.8550 0.7548 0.5080
0.3459 0.7446 0.5715
0.3673 0.7520 0.5843
0.4098 0.7695 0.6130
0.4859 0.8124 0.6236
0.5980 0.8330 0.6141
0.6830 0.8279 0.5428
0.7498 0.8091 0.4817
0.7922 0.8208 0.4960
0.8606 0.8371 0.5701
0.0760 0.1195 0.3153
0.0984 0.1196 0.2976
0.1580 0.1251 0.3011
0.2321 0.1309 0.2724
0.3548 0.1441 0.2394
0.5196 0.1885 0.2255
0.5957 0.2396 0.2513
0.6603 0.2763 0.2766
0.7260 0.3423 0.3427
0.0458 0.2637 0.2663
0.0813 0.1605 0.3314
0.1344 0.1175 0.3596
0.1856 0.1213 0.3637
0.3872 0.1935 0.2375
0.5075 0.2257 0.2363
0.6527 0.2756 0.2763
0.7103 0.3286 0.3120
0.7358 0.3723 0.3588
0.0486 0.2927 0.2934
0.0519 0.2922 0.3011
0.0898 0.2480 0.4002
0.2725 0.2649 0.3877
0.4725 0.3231 0.3584
0.6036 0.2952 0.3098
0.6713 0.3375 0.3449
0.7425 0.4053 0.3896
0.7948 0.4461 0.4191
0.0837 0.3554 0.3447
0.0889 0.3731 0.3455
0.0963 0.3757 0.3908
0.1715 0.3759 0.4301
0.4737 0.4006 0.3880
0.6160 0.4504 0.4052
0.6937 0.4272 0.4245
0.7462 0.4688 0.4579
0.8138 0.5077 0.4724
0.1179 0.4570 0.3995
0.1224 0.4767 0.3880
0.1413 0.5023 0.4017
0.2121 0.5130 0.4352
0.4649 0.4972 0.4392
0.6472 0.5288 0.4248
0.7065 0.5431 0.4566
0.7701 0.5370 0.4758
0.8464 0.5751 0.5060
0.1823 0.5438 0.4378
0.1956 0.5507 0.4238
0.2155 0.5793 0.4082
0.2680 0.6177 0.4795
0.4012 0.6131 0.4889
0.6684 0.6398 0.3984
0.7296 0.6400 0.4522
0.7915 0.6431 0.4906
0.8630 0.6563 0.5301
0.2277 0.6160 0.4612
0.2287 0.6329 0.4332
0.2622 0.6483 0.4636
0.3264 0.6736 0.5359
0.5036 0.7050 0.5137
0.6544 0.7204 0.4905
0.7340 0.7369 0.4629
0.8064 0.7208 0.5145
0.8768 0.7278 0.5641
0.2878 0.6925 0.5161
0.3090 0.7005 0.5276
0.3411 0.7155 0.5551
0.3836 0.7351 0.5936
0.5236 0.7671 0.5961
0.6518 0.7823 0.5330
0.7443 0.7920 0.5065
0.8001 0.8051 0.5377
0.8837 0.7916 0.6017
0.3727 0.7676 0.6166
0.4010 0.7734 0.6297
0.4355 0.7926 0.6551
0.4944 0.8266 0.6779
0.5979 0.8466 0.6743
0.6712 0.8493 0.6433
0.7635 0.8343 0.5917
0.8289 0.8458 0.5711
0.8772 0.8586 0.6334
0.0874 0.1094 0.4702
0.1296 0.1126 0.4315
0.1909 0.1173 0.4161
0.2587 0.1205 0.4156
0.4007 0.1453 0.3664
0.5249 0.2131 0.3514
0.6072 0.2861 0.3621
0.6730 0.3366 0.4447
0.7405 0.3955 0.4999
0.0649 0.3016 0.3661
0.0919 0.1380 0.5021
0.1673 0.1171 0.4815
0.2433 0.1205 0.4627
0.3709 0.1658 0.4250
0.5291 0.2500 0.3756
0.6150 0.3214 0.3956
0.6810 0.3629 0.4489
0.7559 0.4133 0.4579
0.0939 0.3705 0.3861
0.0843 0.3505 0.4105
0.1158 0.2516 0.5072
0.2949 0.2214 0.5440
0.4423 0.2650 0.4991
0.5730 0.3357 0.4270
0.6365 0.3710 0.4416
0.7472 0.4244 0.4705
0.8186 0.4700 0.4927
0.1196 0.4391 0.4291
0.1225 0.4548 0.4315
0.1236 0.4476 0.4885
0.2283 0.4036 0.5250
0.4830 0.4270 0.5142
0.6288 0.4817 0.5140
0.7069 0.4466 0.5008
0.7744 0.4817 0.5122
0.8418 0.5456 0.5444
0.1507 0.5175 0.4708
0.1583 0.5279 0.4708
0.1709 0.5443 0.4937
0.2443 0.5704 0.5388
0.4058 0.5572 0.5907
0.6442 0.5582 0.5292
0.7172 0.5803 0.5449
0.7904 0.5507 0.5617
0.8596 0.6029 0.6051
0.2072 0.5754 0.5129
0.2108 0.5821 0.5129
0.2275 0.6041 0.5260
0.2936 0.6470 0.5543
0.4175 0.6478 0.5839
0.6527 0.6369 0.5747
0.7349 0.6619 0.5692
0.7893 0.6850 0.6074
0.8736 0.6928 0.6407
0.2388 0.6388 0.5666
0.2534 0.6509 0.5611
0.2883 0.6758 0.5647
0.3721 0.7093 0.5954
0.5008 0.7458 0.6383
0.6442 0.7382 0.6148
0.7350 0.7573 0.5660
0.8029 0.7655 0.6169
0.8881 0.7689 0.6602
0.3205 0.7151 0.6295
0.3439 0.7276 0.6190
0.3838 0.7503 0.6190
0.4331 0.7791 0.6670
0.5629 0.8142 0.6765
0.6759 0.8186 0.6580
0.7395 0.8228 0.6449
0.8065 0.8412 0.6365
0.8943 0.8328 0.6839
0.4093 0.7898 0.6858
0.4322 0.8003 0.6836
0.4646 0.8168 0.7107
0.5093 0.8444 0.7349
0.5911 0.8626 0.7313
0.6841 0.8691 0.7238
0.7488 0.8675 0.6861
0.8355 0.8707 0.6768
0.8941 0.8856 0.7121
0.0971 0.1300 0.6134
0.1530 0.1289 0.5742
0.2232 0.1256 0.5206
0.3091 0.1296 0.5250
0.4767 0.1773 0.5086
0.5946 0.2458 0.4833
0.6656 0.3250 0.4985
0.7165 0.3862 0.5439
0.7723 0.4211 0.5762
0.0708 0.3089 0.5259
0.1085 0.1789 0.6391
0.1807 0.1391 0.6276
0.3097 0.1562 0.5600
0.4408 0.2073 0.5416
0.5864 0.2856 0.5037
0.6607 0.3579 0.5157
0.7119 0.4102 0.5516
0.7711 0.4463 0.5804
0.1226 0.4399 0.5111
0.1015 0.3850 0.5524
0.1722 0.3026 0.6280
0.3433 0.2780 0.6565
0.5241 0.3142 0.6207
0.6296 0.3701 0.5635
0.6747 0.4143 0.5467
0.7178 0.4465 0.5692
0.7826 0.4828 0.5824
0.1429 0.5132 0.5279
0.1427 0.5145 0.5429
0.1586 0.5144 0.5908
0.2960 0.4245 0.6197
0.5118 0.3922 0.7004
0.6571 0.4435 0.6045
0.7031 0.4741 0.5783
0.7428 0.4979 0.5772
0.8509 0.5636 0.6081
0.1850 0.5654 0.5650
0.1921 0.5708 0.5679
0.2119 0.5919 0.5935
0.2974 0.6063 0.6315
0.4762 0.5856 0.6769
0.6745 0.5824 0.6238
0.7322 0.6296 0.6397
0.8063 0.5893 0.6330
0.8804 0.6367 0.6693
0.2224 0.6148 0.6066
0.2344 0.6249 0.6127
0.2668 0.6518 0.6272
0.3512 0.6766 0.6424
0.4676 0.7018 0.6945
0.6520 0.6980 0.6909
0.7411 0.6991 0.6606
0.8032 0.7215 0.6879
0.8939 0.7074 0.7131
0.2830 0.6821 0.6625
0.3039 0.6947 0.6575
0.3386 0.7155 0.6659
0.4068 0.7417 0.6854
0.4925 0.7834 0.7348
0.6450 0.7733 0.7152
0.7365 0.7697 0.7090
0.8100 0.7894 0.7166
0.8778 0.8081 0.7494
0.3700 0.7540 0.7128
0.3908 0.7633 0.7068
0.4188 0.7807 0.7155
0.4554 0.8113 0.7429
0.5509 0.8477 0.7715
0.6533 0.8604 0.7702
0.7338 0.8497 0.7512
0.8125 0.8571 0.7171
0.8926 0.8621 0.7607
0.4428 0.8196 0.7734
0.4592 0.8251 0.7763
0.4855 0.8450 0.7884
0.5323 0.8669 0.8079
0.5969 0.8827 0.8226
0.6874 0.8927 0.8093
0.7722 0.8917 0.7847
0.8315 0.8946 0.7843
0.9036 0.9118 0.7872
0.1268 0.1905 0.7578
0.1745 0.1566 0.7415
0.2876 0.1574 0.6806
0.4321 0.2051 0.6829
0.5956 0.2629 0.6430
0.6681 0.3263 0.6318
0.7174 0.3745 0.6301
0.7632 0.4079 0.6384
0.8142 0.4516 0.6737
0.0933 0.3667 0.6730
0.1776 0.2797 0.7465
0.2885 0.2313 0.7567
0.4289 0.2524 0.7265
0.5806 0.3068 0.6865
0.6715 0.3587 0.6461
0.7164 0.3930 0.6347
0.7622 0.4327 0.6423
0.8092 0.4857 0.6882
0.1421 0.4998 0.6500
0.1652 0.4330 0.7192
0.2675 0.3739 0.7293
0.4228 0.3312 0.7897
0.5866 0.3644 0.7294
0.6708 0.3869 0.6634
0.7130 0.4264 0.6426
0.7579 0.4654 0.6527
0.8126 0.5184 0.6970
0.1737 0.5688 0.6460
0.1876 0.5717 0.6624
0.2650 0.5531 0.7025
0.4065 0.4413 0.8127
0.5765 0.4204 0.8175
0.7030 0.4292 0.7378
0.7367 0.4799 0.6901
0.7739 0.5258 0.6816
0.8295 0.5675 0.7100
0.2226 0.6150 0.6736
0.2365 0.6291 0.6733
0.2881 0.6486 0.6875
0.3806 0.6535 0.7086
0.5283 0.5970 0.7764
0.6876 0.5531 0.7945
0.7539 0.6021 0.7173
0.7945 0.6242 0.7178
0.8548 0.6611 0.7165
0.2774 0.6752 0.7050
0.2962 0.6863 0.7061
0.3416 0.7020 0.7127
0.4085 0.7269 0.7323
0.5008 0.7491 0.7808
0.6534 0.7360 0.7791
0.7606 0.7214 0.7560
0.8123 0.7650 0.7736
0.8998 0.7426 0.7709
0.3522 0.7370 0.7514
0.3755 0.7441 0.7458
0.4061 0.7623 0.7538
0.4452 0.7902 0.7822
0.5223 0.8234 0.8165
0.6246 0.8354 0.8291
0.7104 0.8258 0.8404
0.8124 0.8246 0.7949
0.8912 0.8369 0.8240
0.4203 0.8006 0.7967
0.4371 0.8076 0.7950
0.4569 0.8237 0.8105
0.4915 0.8479 0.8353
0.5586 0.8723 0.8595
0.6260 0.8862 0.8789
0.7032 0.8849 0.8737
0.8102 0.8786 0.8493
0.9035 0.8832 0.8557
0.4862 0.8573 0.8650
0.4999 0.8631 0.8670
0.5290 0.8758 0.8754
0.5681 0.8896 0.8887
0.6175 0.9018 0.9014
0.6779 0.9123 0.9079
0.7510 0.9192 0.8993
0.8281 0.9168 0.8877
0.9117 0.9291 0.8696
0.2444 0.2999 0.8511
0.3491 0.2478 0.8162
0.5016 0.2670 0.8313
0.5840 0.3019 0.8441
0.6524 0.3498 0.7945
0.7145 0.3823 0.7491
0.7585 0.4008 0.7459
0.8096 0.4322 0.7615
0.8605 0.4721 0.7954
0.2310 0.4313 0.8445
0.3073 0.3689 0.8349
0.4613 0.3104 0.8546
0.5760 0.3282 0.8650
0.6477 0.3727 0.7978
0.7183 0.3944 0.7643
0.7675 0.4164 0.7748
0.8195 0.4526 0.7951
0.8723 0.5074 0.8129
0.2295 0.5504 0.8021
0.3046 0.4860 0.8499
0.4099 0.4370 0.8559
0.5555 0.3886 0.8833
0.6358 0.4031 0.8320
0.7135 0.4154 0.7989
0.7709 0.4355 0.8004
0.8256 0.4889 0.7959
0.8769 0.5447 0.8156
0.2587 0.6450 0.7452
0.3006 0.6385 0.7555
0.3880 0.6031 0.7939
0.4984 0.5138 0.9149
0.6284 0.4747 0.9203
0.7176 0.4486 0.8846
0.7814 0.4744 0.8258
0.8296 0.5355 0.8020
0.8779 0.5989 0.8156
0.3104 0.6895 0.7636
0.3367 0.6948 0.7603
0.3895 0.7046 0.7702
0.4650 0.6970 0.8162
0.5978 0.6649 0.8765
0.7169 0.5936 0.8990
0.7991 0.6083 0.8419
0.8427 0.6519 0.8161
0.8836 0.6943 0.8295
0.3691 0.7363 0.7908
0.3876 0.7451 0.7907
0.4197 0.7637 0.8021
0.4613 0.7865 0.8315
0.5453 0.8062 0.8648
0.6625 0.7724 0.8603
0.7835 0.7418 0.8562
0.8526 0.7536 0.8493
0.9012 0.7693 0.8655
0.4209 0.7954 0.8292
0.4361 0.8053 0.8310
0.4525 0.8195 0.8486
0.4901 0.8432 0.8704
0.5592 0.8700 0.8923
0.6329 0.8813 0.9076
0.7346 0.8615 0.9031
0.8387 0.8379 0.8936
0.9059 0.8651 0.8978
0.4817 0.8543 0.8818
0.4956 0.8596 0.8830
0.5223 0.8712 0.8901
0.5669 0.8859 0.9030
0.6227 0.8987 0.9142
0.6759 0.9088 0.9237
0.7380 0.9125 0.9308
0.8169 0.9068 0.9351
0.9088 0.9115 0.9185
0.5762 0.8981 0.9180
0.5937 0.9006 0.9187
0.6201 0.9063 0.9225
0.6501 0.9137 0.9286
0.6868 0.9218 0.9357
0.7283 0.9285 0.9420
0.7713 0.9347 0.9521
0.8467 0.9325 0.9448
0.9148 0.9450 0.9488
0.3533 0.3829 0.9015
0.5112 0.3120 0.8979
0.6149 0.3200 0.9027
0.6528 0.3461 0.8934
0.6961 0.3853 0.8663
0.7380 0.4166 0.8451
0.7938 0.4316 0.8508
0.8497 0.4565 0.8631
0.8830 0.5706 0.8654
0.3511 0.5037 0.9112
0.4297 0.4430 0.8934
0.5770 0.3674 0.9189
0.6482 0.3681 0.9083
0.6961 0.4095 0.8663
0.7485 0.4359 0.8669
0.8106 0.4484 0.8852
0.8636 0.4820 0.8903
0.8870 0.6361 0.8540
0.3386 0.6182 0.8449
0.4186 0.5706 0.8772
0.5092 0.5041 0.9311
0.6279 0.4553 0.9280
0.6921 0.4414 0.9025
0.7565 0.4555 0.8873
0.8245 0.4735 0.9013
0.8786 0.5167 0.9026
0.8930 0.6978 0.8552
0.3557 0.6953 0.8048
0.3984 0.6910 0.8141
0.4792 0.6620 0.8621
0.5948 0.6102 0.9192
0.6877 0.5280 0.9523
0.7560 0.5101 0.9317
0.8281 0.5269 0.9114
0.8843 0.5791 0.8893
0.8981 0.7324 0.8632
0.3904 0.7440 0.8212
0.4123 0.7528 0.8243
0.4508 0.7636 0.8473
0.5470 0.7578 0.8741
0.6577 0.7242 0.8950
0.7496 0.6517 0.9267
0.8364 0.6559 0.8886
0.8806 0.6870 0.8706
0.9037 0.7570 0.8786
0.4336 0.7960 0.8546
0.4468 0.8049 0.8600
0.4733 0.8193 0.8747
0.5332 0.8368 0.8923
0.6149 0.8461 0.9119
0.7034 0.8140 0.9130
0.8191 0.7747 0.8981
0.8909 0.7729 0.8961
0.9144 0.8118 0.9124
0.4788 0.8501 0.8943
0.4943 0.8561 0.8968
0.5214 0.8682 0.9047
0.5743 0.8825 0.9132
0.6301 0.8948 0.9248
0.6859 0.9012 0.9327
0.7612 0.8827 0.9320
0.8780 0.8444 0.9275
0.9217 0.8622 0.9423
0.5602 0.8902 0.9231
0.5791 0.8932 0.9225
0.6086 0.8999 0.9261
0.6419 0.9083 0.9332
0.6796 0.9168 0.9395
0.7229 0.9234 0.9444
0.7705 0.9261 0.9526
0.8514 0.9210 0.9506
0.9239 0.9201 0.9608
0.6544 0.9181 0.9440
0.6651 0.9197 0.9449
0.6820 0.9234 0.9473
0.7060 0.9281 0.9494
0.7351 0.9333 0.9529
0.7687 0.9391 0.9574
0.8099 0.9423 0.9640
0.8690 0.9441 0.9656
0.9180 0.9518 0.9771
