example-Advanced/bin/data/ofxGpuLutCube/LUT/Dramatic-11.cube
#Generated by Picture Instruments - Look Creator
TITLE "Agfa Scala 200++"
LUT_3D_SIZE 9
0.105882 0.105882 0.105882
0.105882 0.105882 0.105882
0.109804 0.109804 0.109804
0.117647 0.117647 0.117647
0.133333 0.133333 0.133333
0.168627 0.168627 0.168627
0.231373 0.231373 0.231373
0.329412 0.329412 0.329412
0.443137 0.443137 0.443137
0.109804 0.109804 0.109804
0.113725 0.113725 0.113725
0.121569 0.121569 0.121569
0.129412 0.129412 0.129412
0.152941 0.152941 0.152941
0.196078 0.196078 0.196078
0.262745 0.262745 0.262745
0.356863 0.356863 0.356863
0.466667 0.466667 0.466667
0.12549 0.12549 0.12549
0.129412 0.129412 0.129412
0.141176 0.141176 0.141176
0.176471 0.176471 0.176471
0.215686 0.215686 0.215686
0.258824 0.258824 0.258824
0.32549 0.32549 0.32549
0.419608 0.419608 0.419608
0.529412 0.529412 0.529412
0.180392 0.180392 0.180392
0.180392 0.180392 0.180392
0.196078 0.196078 0.196078
0.235294 0.235294 0.235294
0.301961 0.301961 0.301961
0.360784 0.360784 0.360784
0.431373 0.431373 0.431373
0.517647 0.517647 0.517647
0.619608 0.619608 0.619608
0.286275 0.286275 0.286275
0.290196 0.290196 0.290196
0.290196 0.290196 0.290196
0.32549 0.32549 0.32549
0.380392 0.380392 0.380392
0.466667 0.466667 0.466667
0.541176 0.541176 0.541176
0.631373 0.631373 0.631373
0.709804 0.709804 0.709804
0.431373 0.431373 0.431373
0.431373 0.431373 0.431373
0.427451 0.427451 0.427451
0.447059 0.447059 0.447059
0.494118 0.494118 0.494118
0.552941 0.552941 0.552941
0.643137 0.643137 0.643137
0.713725 0.713725 0.713725
0.788235 0.788235 0.788235
0.603922 0.603922 0.603922
0.6 0.6 0.6
0.596078 0.596078 0.596078
0.596078 0.596078 0.596078
0.631373 0.631373 0.631373
0.67451 0.67451 0.67451
0.717647 0.717647 0.717647
0.788235 0.788235 0.788235
0.854902 0.854902 0.854902
0.756863 0.756863 0.756863
0.752941 0.752941 0.752941
0.74902 0.74902 0.74902
0.74902 0.74902 0.74902
0.764706 0.764706 0.764706
0.796078 0.796078 0.796078
0.827451 0.827451 0.827451
0.862745 0.862745 0.862745
0.901961 0.901961 0.901961
0.886275 0.886275 0.886275
0.882353 0.882353 0.882353
0.882353 0.882353 0.882353
0.882353 0.882353 0.882353
0.890196 0.890196 0.890196
0.909804 0.909804 0.909804
0.92549 0.92549 0.92549
0.941176 0.941176 0.941176
0.952941 0.952941 0.952941
0.109804 0.109804 0.109804
0.109804 0.109804 0.109804
0.117647 0.117647 0.117647
0.129412 0.129412 0.129412
0.152941 0.152941 0.152941
0.196078 0.196078 0.196078
0.258824 0.258824 0.258824
0.352941 0.352941 0.352941
0.462745 0.462745 0.462745
0.113725 0.113725 0.113725
0.121569 0.121569 0.121569
0.129412 0.129412 0.129412
0.145098 0.145098 0.145098
0.172549 0.172549 0.172549
0.219608 0.219608 0.219608
0.286275 0.286275 0.286275
0.376471 0.376471 0.376471
0.482353 0.482353 0.482353
0.14902 0.14902 0.14902
0.14902 0.14902 0.14902
0.160784 0.160784 0.160784
0.196078 0.196078 0.196078
0.235294 0.235294 0.235294
0.282353 0.282353 0.282353
0.345098 0.345098 0.345098
0.435294 0.435294 0.435294
0.545098 0.545098 0.545098
0.211765 0.211765 0.211765
0.211765 0.211765 0.211765
0.219608 0.219608 0.219608
0.258824 0.258824 0.258824
0.321569 0.321569 0.321569
0.380392 0.380392 0.380392
0.447059 0.447059 0.447059
0.529412 0.529412 0.529412
0.627451 0.627451 0.627451
0.313725 0.313725 0.313725
0.317647 0.317647 0.317647
0.317647 0.317647 0.317647
0.34902 0.34902 0.34902
0.4 0.4 0.4
0.482353 0.482353 0.482353
0.552941 0.552941 0.552941
0.639216 0.639216 0.639216
0.713725 0.713725 0.713725
0.45098 0.45098 0.45098
0.45098 0.45098 0.45098
0.45098 0.45098 0.45098
0.466667 0.466667 0.466667
0.509804 0.509804 0.509804
0.568627 0.568627 0.568627
0.654902 0.654902 0.654902
0.717647 0.717647 0.717647
0.792157 0.792157 0.792157
0.607843 0.607843 0.607843
0.611765 0.611765 0.611765
0.611765 0.611765 0.611765
0.611765 0.611765 0.611765
0.643137 0.643137 0.643137
0.682353 0.682353 0.682353
0.72549 0.72549 0.72549
0.796078 0.796078 0.796078
0.858824 0.858824 0.858824
0.756863 0.756863 0.756863
0.756863 0.756863 0.756863
0.756863 0.756863 0.756863
0.760784 0.760784 0.760784
0.768627 0.768627 0.768627
0.8 0.8 0.8
0.831373 0.831373 0.831373
0.866667 0.866667 0.866667
0.905882 0.905882 0.905882
0.890196 0.890196 0.890196
0.886275 0.886275 0.886275
0.890196 0.890196 0.890196
0.890196 0.890196 0.890196
0.894118 0.894118 0.894118
0.909804 0.909804 0.909804
0.929412 0.929412 0.929412
0.945098 0.945098 0.945098
0.952941 0.952941 0.952941
0.117647 0.117647 0.117647
0.121569 0.121569 0.121569
0.129412 0.129412 0.129412
0.152941 0.152941 0.152941
0.184314 0.184314 0.184314
0.231373 0.231373 0.231373
0.301961 0.301961 0.301961
0.388235 0.388235 0.388235
0.501961 0.501961 0.501961
0.133333 0.133333 0.133333
0.141176 0.141176 0.141176
0.14902 0.14902 0.14902
0.176471 0.176471 0.176471
0.207843 0.207843 0.207843
0.254902 0.254902 0.254902
0.321569 0.321569 0.321569
0.411765 0.411765 0.411765
0.521569 0.521569 0.521569
0.160784 0.160784 0.160784
0.172549 0.172549 0.172549
0.2 0.2 0.2
0.227451 0.227451 0.227451
0.262745 0.262745 0.262745
0.313725 0.313725 0.313725
0.380392 0.380392 0.380392
0.466667 0.466667 0.466667
0.572549 0.572549 0.572549
0.258824 0.258824 0.258824
0.270588 0.270588 0.270588
0.27451 0.27451 0.27451
0.305882 0.305882 0.305882
0.360784 0.360784 0.360784
0.415686 0.415686 0.415686
0.47451 0.47451 0.47451
0.556863 0.556863 0.556863
0.647059 0.647059 0.647059
0.376471 0.376471 0.376471
0.380392 0.380392 0.380392
0.380392 0.380392 0.380392
0.392157 0.392157 0.392157
0.443137 0.443137 0.443137
0.513725 0.513725 0.513725
0.584314 0.584314 0.584314
0.658824 0.658824 0.658824
0.72549 0.72549 0.72549
0.501961 0.501961 0.501961
0.505882 0.505882 0.505882
0.505882 0.505882 0.505882
0.501961 0.501961 0.501961
0.545098 0.545098 0.545098
0.596078 0.596078 0.596078
0.67451 0.67451 0.67451
0.737255 0.737255 0.737255
0.803922 0.803922 0.803922
0.643137 0.643137 0.643137
0.647059 0.647059 0.647059
0.647059 0.647059 0.647059
0.647059 0.647059 0.647059
0.662745 0.662745 0.662745
0.701961 0.701961 0.701961
0.741176 0.741176 0.741176
0.811765 0.811765 0.811765
0.866667 0.866667 0.866667
0.776471 0.776471 0.776471
0.776471 0.776471 0.776471
0.776471 0.776471 0.776471
0.776471 0.776471 0.776471
0.784314 0.784314 0.784314
0.811765 0.811765 0.811765
0.843137 0.843137 0.843137
0.87451 0.87451 0.87451
0.909804 0.909804 0.909804
0.898039 0.898039 0.898039
0.894118 0.894118 0.894118
0.898039 0.898039 0.898039
0.898039 0.898039 0.898039
0.901961 0.901961 0.901961
0.913725 0.913725 0.913725
0.929412 0.929412 0.929412
0.945098 0.945098 0.945098
0.952941 0.952941 0.952941
0.160784 0.160784 0.160784
0.168627 0.168627 0.168627
0.184314 0.184314 0.184314
0.203922 0.203922 0.203922
0.243137 0.243137 0.243137
0.317647 0.317647 0.317647
0.376471 0.376471 0.376471
0.454902 0.454902 0.454902
0.541176 0.541176 0.541176
0.188235 0.188235 0.188235
0.196078 0.196078 0.196078
0.207843 0.207843 0.207843
0.227451 0.227451 0.227451
0.266667 0.266667 0.266667
0.333333 0.333333 0.333333
0.392157 0.392157 0.392157
0.47451 0.47451 0.47451
0.560784 0.560784 0.560784
0.215686 0.215686 0.215686
0.235294 0.235294 0.235294
0.266667 0.266667 0.266667
0.286275 0.286275 0.286275
0.333333 0.333333 0.333333
0.380392 0.380392 0.380392
0.439216 0.439216 0.439216
0.513725 0.513725 0.513725
0.603922 0.603922 0.603922
0.278431 0.278431 0.278431
0.298039 0.298039 0.298039
0.329412 0.329412 0.329412
0.384314 0.384314 0.384314
0.415686 0.415686 0.415686
0.462745 0.462745 0.462745
0.517647 0.517647 0.517647
0.588235 0.588235 0.588235
0.666667 0.666667 0.666667
0.423529 0.423529 0.423529
0.435294 0.435294 0.435294
0.462745 0.462745 0.462745
0.47451 0.47451 0.47451
0.505882 0.505882 0.505882
0.564706 0.564706 0.564706
0.619608 0.619608 0.619608
0.678431 0.678431 0.678431
0.741176 0.741176 0.741176
0.568627 0.568627 0.568627
0.580392 0.580392 0.580392
0.584314 0.584314 0.584314
0.580392 0.580392 0.580392
0.596078 0.596078 0.596078
0.639216 0.639216 0.639216
0.698039 0.698039 0.698039
0.752941 0.752941 0.752941
0.819608 0.819608 0.819608
0.690196 0.690196 0.690196
0.694118 0.694118 0.694118
0.694118 0.694118 0.694118
0.690196 0.690196 0.690196
0.694118 0.694118 0.694118
0.72549 0.72549 0.72549
0.760784 0.760784 0.760784
0.823529 0.823529 0.823529
0.87451 0.87451 0.87451
0.803922 0.803922 0.803922
0.803922 0.803922 0.803922
0.803922 0.803922 0.803922
0.803922 0.803922 0.803922
0.807843 0.807843 0.807843
0.823529 0.823529 0.823529
0.854902 0.854902 0.854902
0.882353 0.882353 0.882353
0.917647 0.917647 0.917647
0.909804 0.909804 0.909804
0.905882 0.905882 0.905882
0.909804 0.909804 0.909804
0.909804 0.909804 0.909804
0.913725 0.913725 0.913725
0.917647 0.917647 0.917647
0.933333 0.933333 0.933333
0.94902 0.94902 0.94902
0.956863 0.956863 0.956863
0.247059 0.247059 0.247059
0.25098 0.25098 0.25098
0.266667 0.266667 0.266667
0.298039 0.298039 0.298039
0.321569 0.321569 0.321569
0.356863 0.356863 0.356863
0.458824 0.458824 0.458824
0.541176 0.541176 0.541176
0.619608 0.619608 0.619608
0.270588 0.270588 0.270588
0.27451 0.27451 0.27451
0.290196 0.290196 0.290196
0.313725 0.313725 0.313725
0.341176 0.341176 0.341176
0.376471 0.376471 0.376471
0.478431 0.478431 0.478431
0.556863 0.556863 0.556863
0.635294 0.635294 0.635294
0.317647 0.317647 0.317647
0.337255 0.337255 0.337255
0.34902 0.34902 0.34902
0.372549 0.372549 0.372549
0.396078 0.396078 0.396078
0.439216 0.439216 0.439216
0.521569 0.521569 0.521569
0.588235 0.588235 0.588235
0.658824 0.658824 0.658824
0.360784 0.360784 0.360784
0.376471 0.376471 0.376471
0.407843 0.407843 0.407843
0.458824 0.458824 0.458824
0.478431 0.478431 0.478431
0.52549 0.52549 0.52549
0.580392 0.580392 0.580392
0.635294 0.635294 0.635294
0.690196 0.690196 0.690196
0.443137 0.443137 0.443137
0.458824 0.458824 0.458824
0.486275 0.486275 0.486275
0.52549 0.52549 0.52549
0.576471 0.576471 0.576471
0.611765 0.611765 0.611765
0.65098 0.65098 0.65098
0.698039 0.698039 0.698039
0.752941 0.752941 0.752941
0.6 0.6 0.6
0.607843 0.607843 0.607843
0.623529 0.623529 0.623529
0.647059 0.647059 0.647059
0.658824 0.658824 0.658824
0.682353 0.682353 0.682353
0.729412 0.729412 0.729412
0.780392 0.780392 0.780392
0.827451 0.827451 0.827451
0.721569 0.721569 0.721569
0.729412 0.729412 0.729412
0.737255 0.737255 0.737255
0.745098 0.745098 0.745098
0.745098 0.745098 0.745098
0.756863 0.756863 0.756863
0.792157 0.792157 0.792157
0.843137 0.843137 0.843137
0.890196 0.890196 0.890196
0.839216 0.839216 0.839216
0.839216 0.839216 0.839216
0.839216 0.839216 0.839216
0.839216 0.839216 0.839216
0.839216 0.839216 0.839216
0.843137 0.843137 0.843137
0.870588 0.870588 0.870588
0.894118 0.894118 0.894118
0.929412 0.929412 0.929412
0.921569 0.921569 0.921569
0.921569 0.921569 0.921569
0.921569 0.921569 0.921569
0.921569 0.921569 0.921569
0.92549 0.92549 0.92549
0.92549 0.92549 0.92549
0.937255 0.937255 0.937255
0.94902 0.94902 0.94902
0.956863 0.956863 0.956863
0.34902 0.34902 0.34902
0.368627 0.368627 0.368627
0.388235 0.388235 0.388235
0.415686 0.415686 0.415686
0.447059 0.447059 0.447059
0.470588 0.470588 0.470588
0.498039 0.498039 0.498039
0.607843 0.607843 0.607843
0.698039 0.698039 0.698039
0.364706 0.364706 0.364706
0.380392 0.380392 0.380392
0.4 0.4 0.4
0.423529 0.423529 0.423529
0.458824 0.458824 0.458824
0.482353 0.482353 0.482353
0.509804 0.509804 0.509804
0.623529 0.623529 0.623529
0.709804 0.709804 0.709804
0.423529 0.423529 0.423529
0.431373 0.431373 0.431373
0.447059 0.447059 0.447059
0.470588 0.470588 0.470588
0.498039 0.498039 0.498039
0.52549 0.52549 0.52549
0.556863 0.556863 0.556863
0.654902 0.654902 0.654902
0.72549 0.72549 0.72549
0.470588 0.470588 0.470588
0.486275 0.486275 0.486275
0.521569 0.521569 0.521569
0.545098 0.545098 0.545098
0.568627 0.568627 0.568627
0.592157 0.592157 0.592157
0.627451 0.627451 0.627451
0.701961 0.701961 0.701961
0.74902 0.74902 0.74902
0.537255 0.537255 0.537255
0.545098 0.545098 0.545098
0.568627 0.568627 0.568627
0.6 0.6 0.6
0.643137 0.643137 0.643137
0.662745 0.662745 0.662745
0.698039 0.698039 0.698039
0.741176 0.741176 0.741176
0.780392 0.780392 0.780392
0.623529 0.623529 0.623529
0.627451 0.627451 0.627451
0.643137 0.643137 0.643137
0.666667 0.666667 0.666667
0.698039 0.698039 0.698039
0.737255 0.737255 0.737255
0.764706 0.764706 0.764706
0.8 0.8 0.8
0.839216 0.839216 0.839216
0.752941 0.752941 0.752941
0.752941 0.752941 0.752941
0.760784 0.760784 0.760784
0.772549 0.772549 0.772549
0.796078 0.796078 0.796078
0.803922 0.803922 0.803922
0.827451 0.827451 0.827451
0.866667 0.866667 0.866667
0.901961 0.901961 0.901961
0.858824 0.858824 0.858824
0.858824 0.858824 0.858824
0.866667 0.866667 0.866667
0.87451 0.87451 0.87451
0.882353 0.882353 0.882353
0.882353 0.882353 0.882353
0.890196 0.890196 0.890196
0.909804 0.909804 0.909804
0.937255 0.937255 0.937255
0.933333 0.933333 0.933333
0.933333 0.933333 0.933333
0.937255 0.937255 0.937255
0.937255 0.937255 0.937255
0.937255 0.937255 0.937255
0.941176 0.941176 0.941176
0.945098 0.945098 0.945098
0.956863 0.956863 0.956863
0.960784 0.960784 0.960784
0.52549 0.52549 0.52549
0.533333 0.533333 0.533333
0.541176 0.541176 0.541176
0.556863 0.556863 0.556863
0.584314 0.584314 0.584314
0.615686 0.615686 0.615686
0.631373 0.631373 0.631373
0.639216 0.639216 0.639216
0.733333 0.733333 0.733333
0.529412 0.529412 0.529412
0.537255 0.537255 0.537255
0.545098 0.545098 0.545098
0.564706 0.564706 0.564706
0.588235 0.588235 0.588235
0.619608 0.619608 0.619608
0.639216 0.639216 0.639216
0.65098 0.65098 0.65098
0.745098 0.745098 0.745098
0.564706 0.564706 0.564706
0.572549 0.572549 0.572549
0.580392 0.580392 0.580392
0.596078 0.596078 0.596078
0.619608 0.619608 0.619608
0.647059 0.647059 0.647059
0.666667 0.666667 0.666667
0.682353 0.682353 0.682353
0.764706 0.764706 0.764706
0.615686 0.615686 0.615686
0.627451 0.627451 0.627451
0.639216 0.639216 0.639216
0.65098 0.65098 0.65098
0.666667 0.666667 0.666667
0.690196 0.690196 0.690196
0.701961 0.701961 0.701961
0.721569 0.721569 0.721569
0.796078 0.796078 0.796078
0.639216 0.639216 0.639216
0.65098 0.65098 0.65098
0.670588 0.670588 0.670588
0.698039 0.698039 0.698039
0.717647 0.717647 0.717647
0.737255 0.737255 0.737255
0.752941 0.752941 0.752941
0.776471 0.776471 0.776471
0.839216 0.839216 0.839216
0.701961 0.701961 0.701961
0.705882 0.705882 0.705882
0.717647 0.717647 0.717647
0.733333 0.733333 0.733333
0.756863 0.756863 0.756863
0.792157 0.792157 0.792157
0.807843 0.807843 0.807843
0.839216 0.839216 0.839216
0.870588 0.870588 0.870588
0.760784 0.760784 0.760784
0.764706 0.764706 0.764706
0.776471 0.776471 0.776471
0.788235 0.788235 0.788235
0.811765 0.811765 0.811765
0.835294 0.835294 0.835294
0.870588 0.870588 0.870588
0.890196 0.890196 0.890196
0.909804 0.909804 0.909804
0.87451 0.87451 0.87451
0.87451 0.87451 0.87451
0.878431 0.878431 0.878431
0.886275 0.886275 0.886275
0.898039 0.898039 0.898039
0.909804 0.909804 0.909804
0.917647 0.917647 0.917647
0.929412 0.929412 0.929412
0.945098 0.945098 0.945098
0.941176 0.941176 0.941176
0.941176 0.941176 0.941176
0.945098 0.945098 0.945098
0.945098 0.945098 0.945098
0.94902 0.94902 0.94902
0.952941 0.952941 0.952941
0.952941 0.952941 0.952941
0.960784 0.960784 0.960784
0.964706 0.964706 0.964706
0.690196 0.690196 0.690196
0.694118 0.694118 0.694118
0.701961 0.701961 0.701961
0.709804 0.709804 0.709804
0.72549 0.72549 0.72549
0.745098 0.745098 0.745098
0.764706 0.764706 0.764706
0.776471 0.776471 0.776471
0.780392 0.780392 0.780392
0.690196 0.690196 0.690196
0.694118 0.694118 0.694118
0.701961 0.701961 0.701961
0.713725 0.713725 0.713725
0.729412 0.729412 0.729412
0.74902 0.74902 0.74902
0.772549 0.772549 0.772549
0.784314 0.784314 0.784314
0.788235 0.788235 0.788235
0.709804 0.709804 0.709804
0.713725 0.713725 0.713725
0.721569 0.721569 0.721569
0.733333 0.733333 0.733333
0.745098 0.745098 0.745098
0.764706 0.764706 0.764706
0.788235 0.788235 0.788235
0.8 0.8 0.8
0.8 0.8 0.8
0.745098 0.745098 0.745098
0.74902 0.74902 0.74902
0.752941 0.752941 0.752941
0.764706 0.764706 0.764706
0.776471 0.776471 0.776471
0.792157 0.792157 0.792157
0.811765 0.811765 0.811765
0.823529 0.823529 0.823529
0.823529 0.823529 0.823529
0.768627 0.768627 0.768627
0.776471 0.776471 0.776471
0.788235 0.788235 0.788235
0.8 0.8 0.8
0.811765 0.811765 0.811765
0.823529 0.823529 0.823529
0.839216 0.839216 0.839216
0.85098 0.85098 0.85098
0.858824 0.858824 0.858824
0.792157 0.792157 0.792157
0.796078 0.796078 0.796078
0.803922 0.803922 0.803922
0.819608 0.819608 0.819608
0.843137 0.843137 0.843137
0.858824 0.858824 0.858824
0.87451 0.87451 0.87451
0.886275 0.886275 0.886275
0.898039 0.898039 0.898039
0.839216 0.839216 0.839216
0.843137 0.843137 0.843137
0.847059 0.847059 0.847059
0.858824 0.858824 0.858824
0.870588 0.870588 0.870588
0.886275 0.886275 0.886275
0.909804 0.909804 0.909804
0.917647 0.917647 0.917647
0.933333 0.933333 0.933333
0.886275 0.886275 0.886275
0.886275 0.886275 0.886275
0.890196 0.890196 0.890196
0.898039 0.898039 0.898039
0.905882 0.905882 0.905882
0.917647 0.917647 0.917647
0.933333 0.933333 0.933333
0.94902 0.94902 0.94902
0.952941 0.952941 0.952941
0.945098 0.945098 0.945098
0.94902 0.94902 0.94902
0.94902 0.94902 0.94902
0.952941 0.952941 0.952941
0.952941 0.952941 0.952941
0.956863 0.956863 0.956863
0.964706 0.964706 0.964706
0.964706 0.964706 0.964706
0.968627 0.968627 0.968627
0.835294 0.835294 0.835294
0.843137 0.843137 0.843137
0.847059 0.847059 0.847059
0.85098 0.85098 0.85098
0.858824 0.858824 0.858824
0.870588 0.870588 0.870588
0.886275 0.886275 0.886275
0.901961 0.901961 0.901961
0.901961 0.901961 0.901961
0.843137 0.843137 0.843137
0.847059 0.847059 0.847059
0.85098 0.85098 0.85098
0.854902 0.854902 0.854902
0.862745 0.862745 0.862745
0.87451 0.87451 0.87451
0.890196 0.890196 0.890196
0.901961 0.901961 0.901961
0.905882 0.905882 0.905882
0.854902 0.854902 0.854902
0.854902 0.854902 0.854902
0.858824 0.858824 0.858824
0.866667 0.866667 0.866667
0.87451 0.87451 0.87451
0.886275 0.886275 0.886275
0.898039 0.898039 0.898039
0.909804 0.909804 0.909804
0.913725 0.913725 0.913725
0.87451 0.87451 0.87451
0.87451 0.87451 0.87451
0.878431 0.878431 0.878431
0.882353 0.882353 0.882353
0.890196 0.890196 0.890196
0.898039 0.898039 0.898039
0.905882 0.905882 0.905882
0.917647 0.917647 0.917647
0.921569 0.921569 0.921569
0.890196 0.890196 0.890196
0.894118 0.894118 0.894118
0.894118 0.894118 0.894118
0.898039 0.898039 0.898039
0.905882 0.905882 0.905882
0.909804 0.909804 0.909804
0.917647 0.917647 0.917647
0.929412 0.929412 0.929412
0.929412 0.929412 0.929412
0.898039 0.898039 0.898039
0.901961 0.901961 0.901961
0.905882 0.905882 0.905882
0.913725 0.913725 0.913725
0.921569 0.921569 0.921569
0.92549 0.92549 0.92549
0.933333 0.933333 0.933333
0.941176 0.941176 0.941176
0.941176 0.941176 0.941176
0.917647 0.917647 0.917647
0.917647 0.917647 0.917647
0.921569 0.921569 0.921569
0.921569 0.921569 0.921569
0.929412 0.929412 0.929412
0.937255 0.937255 0.937255
0.945098 0.945098 0.945098
0.952941 0.952941 0.952941
0.952941 0.952941 0.952941
0.937255 0.937255 0.937255
0.941176 0.941176 0.941176
0.941176 0.941176 0.941176
0.945098 0.945098 0.945098
0.945098 0.945098 0.945098
0.94902 0.94902 0.94902
0.956863 0.956863 0.956863
0.964706 0.964706 0.964706
0.964706 0.964706 0.964706
0.952941 0.952941 0.952941
0.952941 0.952941 0.952941
0.956863 0.956863 0.956863
0.956863 0.956863 0.956863
0.956863 0.956863 0.956863
0.960784 0.960784 0.960784
0.964706 0.964706 0.964706
0.972549 0.972549 0.972549
0.972549 0.972549 0.972549
