example-Advanced/bin/data/ofxGpuLutCube/LUT/Dramatic-12.cube
#Generated by Picture Instruments - Look Creator
TITLE "Agfa Vista 800 Night-Tungsten+"
LUT_3D_SIZE 17
0.0196078 0.12549 0.235294
0.0352941 0.121569 0.231373
0.0509804 0.121569 0.231373
0.0941176 0.137255 0.247059
0.12549 0.137255 0.247059
0.184314 0.145098 0.258824
0.223529 0.129412 0.25098
0.286275 0.113725 0.254902
0.34902 0.0745098 0.243137
0.439216 0.0392157 0.25098
0.533333 0.00392157 0.25098
0.623529 0 0.243137
0.733333 0 0.258824
0.811765 0 0.25098
0.870588 0 0.243137
0.929412 0 0.258824
0.94902 0 0.258824
0.027451 0.145098 0.243137
0.0470588 0.14902 0.247059
0.0823529 0.152941 0.247059
0.105882 0.141176 0.239216
0.141176 0.145098 0.247059
0.188235 0.152941 0.25098
0.231373 0.137255 0.247059
0.298039 0.133333 0.254902
0.372549 0.109804 0.254902
0.45098 0.054902 0.247059
0.54902 0.0196078 0.247059
0.631373 0.00784314 0.239216
0.733333 0.00392157 0.247059
0.815686 0 0.247059
0.882353 0 0.25098
0.937255 0 0.262745
0.941176 0 0.247059
0.0509804 0.180392 0.258824
0.0705882 0.184314 0.262745
0.0784314 0.168627 0.243137
0.121569 0.168627 0.235294
0.156863 0.160784 0.231373
0.203922 0.168627 0.243137
0.239216 0.152941 0.231373
0.305882 0.145098 0.239216
0.392157 0.141176 0.247059
0.478431 0.113725 0.25098
0.568627 0.0705882 0.247059
0.65098 0.027451 0.239216
0.745098 0.0196078 0.247059
0.823529 0.0156863 0.243137
0.890196 0.0156863 0.247059
0.933333 0.0235294 0.254902
0.960784 0.0235294 0.262745
0.0666667 0.223529 0.270588
0.0862745 0.223529 0.270588
0.0862745 0.2 0.247059
0.145098 0.219608 0.262745
0.188235 0.219608 0.254902
0.227451 0.207843 0.247059
0.278431 0.203922 0.235294
0.352941 0.211765 0.243137
0.431373 0.203922 0.25098
0.501961 0.180392 0.239216
0.592157 0.160784 0.243137
0.662745 0.121569 0.227451
0.756863 0.121569 0.235294
0.831373 0.113725 0.231373
0.886275 0.101961 0.231373
0.960784 0.168627 0.270588
0.960784 0.133333 0.258824
0.0862745 0.278431 0.282353
0.0862745 0.266667 0.270588
0.121569 0.266667 0.27451
0.156863 0.266667 0.27451
0.196078 0.266667 0.262745
0.262745 0.270588 0.25098
0.32549 0.27451 0.25098
0.384314 0.266667 0.239216
0.454902 0.262745 0.227451
0.521569 0.247059 0.211765
0.603922 0.239216 0.207843
0.705882 0.262745 0.227451
0.780392 0.262745 0.227451
0.843137 0.254902 0.219608
0.901961 0.262745 0.227451
0.952941 0.282353 0.247059
0.972549 0.27451 0.25098
0.0941176 0.337255 0.282353
0.12549 0.34902 0.294118
0.156863 0.345098 0.294118
0.188235 0.341176 0.290196
0.219608 0.329412 0.270588
0.278431 0.345098 0.270588
0.356863 0.34902 0.25098
0.431373 0.352941 0.243137
0.490196 0.337255 0.219608
0.580392 0.34902 0.219608
0.65098 0.356863 0.203922
0.733333 0.368627 0.207843
0.796078 0.364706 0.196078
0.862745 0.372549 0.2
0.909804 0.372549 0.203922
0.937255 0.356863 0.2
0.960784 0.356863 0.215686
0.156863 0.447059 0.317647
0.172549 0.45098 0.317647
0.192157 0.443137 0.309804
0.223529 0.435294 0.309804
0.262745 0.423529 0.298039
0.321569 0.439216 0.290196
0.376471 0.427451 0.258824
0.486275 0.458824 0.247059
0.564706 0.458824 0.243137
0.631373 0.454902 0.223529
0.67451 0.435294 0.188235
0.756863 0.45098 0.180392
0.827451 0.47451 0.172549
0.886275 0.482353 0.184314
0.921569 0.466667 0.176471
0.945098 0.454902 0.176471
0.964706 0.447059 0.188235
0.211765 0.545098 0.333333
0.227451 0.545098 0.333333
0.270588 0.564706 0.34902
0.298039 0.552941 0.341176
0.329412 0.537255 0.329412
0.376471 0.537255 0.317647
0.443137 0.545098 0.305882
0.517647 0.545098 0.282353
0.6 0.54902 0.239216
0.678431 0.556863 0.231373
0.733333 0.54902 0.215686
0.792157 0.552941 0.192157
0.843137 0.545098 0.156863
0.886275 0.54902 0.12549
0.92549 0.545098 0.12549
0.956863 0.541176 0.145098
0.976471 0.545098 0.184314
0.298039 0.639216 0.364706
0.321569 0.658824 0.380392
0.341176 0.654902 0.376471
0.364706 0.643137 0.368627
0.403922 0.639216 0.364706
0.435294 0.611765 0.341176
0.498039 0.631373 0.337255
0.552941 0.627451 0.309804
0.623529 0.635294 0.286275
0.701961 0.643137 0.247059
0.788235 0.658824 0.243137
0.815686 0.635294 0.2
0.870588 0.639216 0.180392
0.905882 0.631373 0.137255
0.941176 0.627451 0.101961
0.972549 0.623529 0.109804
0.976471 0.607843 0.121569
0.423529 0.756863 0.435294
0.4 0.72549 0.403922
0.435294 0.737255 0.419608
0.447059 0.729412 0.407843
0.490196 0.729412 0.415686
0.505882 0.709804 0.388235
0.541176 0.694118 0.368627
0.588235 0.690196 0.341176
0.662745 0.717647 0.337255
0.733333 0.721569 0.317647
0.819608 0.741176 0.290196
0.858824 0.733333 0.25098
0.901961 0.72549 0.227451
0.945098 0.72549 0.207843
0.964706 0.709804 0.160784
0.972549 0.690196 0.0941176
0.984314 0.686275 0.0941176
0.513725 0.807843 0.482353
0.505882 0.792157 0.470588
0.521569 0.803922 0.47451
0.537255 0.792157 0.462745
0.54902 0.780392 0.45098
0.580392 0.780392 0.447059
0.619608 0.776471 0.431373
0.623529 0.741176 0.388235
0.701961 0.780392 0.4
0.74902 0.776471 0.368627
0.807843 0.784314 0.345098
0.862745 0.784314 0.301961
0.901961 0.784314 0.270588
0.937255 0.776471 0.243137
0.952941 0.756863 0.2
0.980392 0.74902 0.164706
0.980392 0.733333 0.101961
0.611765 0.854902 0.552941
0.615686 0.862745 0.552941
0.615686 0.854902 0.54902
0.627451 0.85098 0.541176
0.627451 0.835294 0.521569
0.647059 0.831373 0.513725
0.678431 0.831373 0.505882
0.694118 0.823529 0.482353
0.741176 0.831373 0.47451
0.776471 0.831373 0.45098
0.803922 0.815686 0.411765
0.858824 0.827451 0.392157
0.905882 0.835294 0.34902
0.941176 0.831373 0.317647
0.952941 0.807843 0.27451
0.976471 0.807843 0.25098
0.980392 0.796078 0.203922
0.698039 0.890196 0.631373
0.690196 0.886275 0.619608
0.698039 0.890196 0.619608
0.701961 0.882353 0.611765
0.709804 0.878431 0.6
0.72549 0.882353 0.603922
0.729412 0.870588 0.580392
0.737255 0.858824 0.560784
0.792157 0.886275 0.572549
0.792157 0.862745 0.52549
0.827451 0.862745 0.505882
0.870588 0.878431 0.490196
0.909804 0.878431 0.458824
0.941176 0.870588 0.415686
0.964706 0.870588 0.380392
0.980392 0.870588 0.356863
0.980392 0.843137 0.305882
0.772549 0.917647 0.705882
0.776471 0.921569 0.701961
0.74902 0.898039 0.67451
0.772549 0.909804 0.686275
0.760784 0.894118 0.666667
0.772549 0.898039 0.666667
0.788235 0.905882 0.662745
0.784314 0.886275 0.635294
0.815686 0.905882 0.643137
0.827451 0.894118 0.619608
0.862745 0.909804 0.615686
0.870588 0.898039 0.584314
0.901961 0.901961 0.560784
0.913725 0.890196 0.513725
0.956863 0.905882 0.494118
0.976471 0.901961 0.454902
0.984314 0.901961 0.435294
0.827451 0.929412 0.756863
0.811765 0.921569 0.741176
0.819608 0.921569 0.745098
0.827451 0.933333 0.74902
0.827451 0.929412 0.745098
0.811765 0.909804 0.721569
0.843137 0.933333 0.741176
0.839216 0.92549 0.72549
0.854902 0.929412 0.721569
0.839216 0.898039 0.682353
0.843137 0.898039 0.666667
0.894118 0.929412 0.690196
0.901961 0.921569 0.658824
0.921569 0.921569 0.635294
0.937255 0.913725 0.6
0.968627 0.92549 0.576471
0.976471 0.913725 0.533333
0.847059 0.921569 0.780392
0.866667 0.945098 0.796078
0.870588 0.94902 0.803922
0.866667 0.945098 0.796078
0.866667 0.941176 0.792157
0.858824 0.929412 0.776471
0.862745 0.929412 0.772549
0.854902 0.921569 0.760784
0.866667 0.92549 0.760784
0.894118 0.941176 0.772549
0.898039 0.941176 0.768627
0.905882 0.937255 0.756863
0.913725 0.937255 0.745098
0.92549 0.933333 0.733333
0.937255 0.933333 0.713725
0.960784 0.945098 0.701961
0.976471 0.952941 0.690196
0.890196 0.945098 0.831373
0.913725 0.964706 0.85098
0.886275 0.945098 0.823529
0.898039 0.94902 0.831373
0.890196 0.941176 0.823529
0.898039 0.945098 0.827451
0.898039 0.945098 0.823529
0.905882 0.94902 0.823529
0.905882 0.945098 0.819608
0.909804 0.945098 0.819608
0.921569 0.94902 0.823529
0.92549 0.94902 0.815686
0.917647 0.937255 0.8
0.933333 0.94902 0.803922
0.941176 0.94902 0.803922
0.960784 0.956863 0.803922
0.968627 0.956863 0.792157
0.0392157 0.141176 0.258824
0.0509804 0.141176 0.254902
0.0823529 0.152941 0.266667
0.101961 0.145098 0.254902
0.14902 0.14902 0.258824
0.176471 0.137255 0.239216
0.231373 0.137255 0.247059
0.301961 0.137255 0.254902
0.360784 0.0941176 0.243137
0.470588 0.0823529 0.262745
0.54902 0.0235294 0.25098
0.65098 0.00784314 0.254902
0.729412 0 0.247059
0.811765 0 0.243137
0.882353 0 0.25098
0.937255 0 0.258824
0.952941 0 0.258824
0.0313725 0.141176 0.247059
0.0666667 0.164706 0.270588
0.0745098 0.14902 0.247059
0.105882 0.14902 0.25098
0.156863 0.160784 0.258824
0.192157 0.152941 0.247059
0.231373 0.137255 0.231373
0.309804 0.145098 0.247059
0.380392 0.121569 0.243137
0.47451 0.0901961 0.254902
0.568627 0.0509804 0.254902
0.639216 0.0117647 0.235294
0.741176 0.0117647 0.25098
0.811765 0.00392157 0.239216
0.882353 0 0.247059
0.937255 0.00392157 0.258824
0.952941 0.00392157 0.258824
0.0470588 0.180392 0.266667
0.0784314 0.192157 0.27451
0.101961 0.188235 0.270588
0.141176 0.188235 0.266667
0.156863 0.168627 0.243137
0.2 0.168627 0.239216
0.258824 0.172549 0.247059
0.333333 0.176471 0.25098
0.388235 0.141176 0.231373
0.486275 0.129412 0.243137
0.580392 0.101961 0.247059
0.670588 0.0705882 0.247059
0.733333 0.027451 0.231373
0.819608 0.027451 0.239216
0.894118 0.0313725 0.25098
0.921569 0.0156863 0.239216
0.960784 0.0392157 0.258824
0.0666667 0.219608 0.278431
0.0784314 0.215686 0.270588
0.109804 0.219608 0.27451
0.137255 0.211765 0.262745
0.192157 0.223529 0.266667
0.247059 0.223529 0.266667
0.282353 0.203922 0.247059
0.352941 0.207843 0.243137
0.439216 0.215686 0.247059
0.509804 0.192157 0.231373
0.588235 0.164706 0.223529
0.678431 0.160784 0.231373
0.764706 0.160784 0.235294
0.827451 0.133333 0.227451
0.901961 0.156863 0.247059
0.941176 0.152941 0.247059
0.960784 0.145098 0.25098
0.0823529 0.270588 0.286275
0.101961 0.278431 0.290196
0.145098 0.286275 0.298039
0.156863 0.266667 0.278431
0.203922 0.27451 0.27451
0.258824 0.270588 0.254902
0.32549 0.27451 0.258824
0.403922 0.282353 0.262745
0.454902 0.258824 0.231373
0.556863 0.27451 0.239216
0.619608 0.262745 0.215686
0.705882 0.270588 0.223529
0.780392 0.270588 0.219608
0.835294 0.262745 0.207843
0.898039 0.270588 0.219608
0.941176 0.27451 0.231373
0.960784 0.266667 0.231373
0.113725 0.34902 0.301961
0.141176 0.360784 0.309804
0.152941 0.345098 0.298039
0.184314 0.333333 0.290196
0.243137 0.364706 0.305882
0.290196 0.356863 0.286275
0.368627 0.360784 0.266667
0.447059 0.364706 0.258824
0.509804 0.34902 0.239216
0.592157 0.352941 0.231373
0.654902 0.352941 0.211765
0.745098 0.380392 0.211765
0.784314 0.356863 0.180392
0.854902 0.376471 0.196078
0.92549 0.392157 0.215686
0.937255 0.364706 0.196078
0.964706 0.364706 0.211765
0.14902 0.443137 0.317647
0.180392 0.454902 0.321569
0.211765 0.462745 0.329412
0.239216 0.45098 0.32549
0.270588 0.431373 0.305882
0.32549 0.443137 0.301961
0.396078 0.447059 0.282353
0.494118 0.466667 0.262745
0.568627 0.462745 0.25098
0.643137 0.462745 0.243137
0.705882 0.462745 0.223529
0.764706 0.458824 0.196078
0.823529 0.466667 0.176471
0.886275 0.482353 0.180392
0.921569 0.47451 0.172549
0.94902 0.454902 0.176471
0.972549 0.458824 0.2
0.231373 0.564706 0.360784
0.243137 0.560784 0.352941
0.27451 0.564706 0.356863
0.290196 0.541176 0.337255
0.333333 0.541176 0.333333
0.392157 0.545098 0.337255
0.458824 0.560784 0.329412
0.513725 0.541176 0.278431
0.615686 0.564706 0.258824
0.67451 0.552941 0.235294
0.745098 0.560784 0.227451
0.803922 0.564706 0.211765
0.85098 0.552941 0.176471
0.898039 0.556863 0.14902
0.929412 0.552941 0.12549
0.964706 0.54902 0.152941
0.976471 0.545098 0.176471
0.309804 0.65098 0.384314
0.333333 0.658824 0.392157
0.345098 0.647059 0.380392
0.380392 0.654902 0.380392
0.415686 0.647059 0.376471
0.447059 0.623529 0.360784
0.494118 0.627451 0.337255
0.556863 0.631373 0.321569
0.635294 0.647059 0.305882
0.72549 0.658824 0.27451
0.792157 0.662745 0.254902
0.811765 0.627451 0.203922
0.882353 0.647059 0.2
0.894118 0.615686 0.137255
0.94902 0.635294 0.133333
0.972549 0.635294 0.12549
0.972549 0.611765 0.12549
0.4 0.729412 0.423529
0.411765 0.729412 0.419608
0.427451 0.729412 0.419608
0.45098 0.72549 0.411765
0.478431 0.717647 0.411765
0.529412 0.729412 0.419608
0.54902 0.694118 0.380392
0.596078 0.698039 0.356863
0.662745 0.717647 0.345098
0.741176 0.72549 0.333333
0.823529 0.745098 0.301961
0.85098 0.72549 0.258824
0.886275 0.705882 0.219608
0.937255 0.713725 0.207843
0.94902 0.694118 0.156863
0.968627 0.682353 0.0980392
0.972549 0.666667 0.0666667
0.505882 0.8 0.478431
0.498039 0.784314 0.466667
0.529412 0.8 0.482353
0.545098 0.8 0.478431
0.545098 0.772549 0.454902
0.596078 0.792157 0.466667
0.611765 0.772549 0.435294
0.666667 0.784314 0.439216
0.709804 0.788235 0.415686
0.745098 0.768627 0.376471
0.827451 0.803922 0.372549
0.878431 0.796078 0.329412
0.890196 0.768627 0.270588
0.937255 0.772549 0.254902
0.945098 0.74902 0.2
0.976471 0.756863 0.184314
0.980392 0.741176 0.12549
0.615686 0.862745 0.556863
0.615686 0.858824 0.556863
0.611765 0.85098 0.54902
0.631373 0.854902 0.552941
0.631373 0.839216 0.529412
0.666667 0.85098 0.537255
0.690196 0.843137 0.52549
0.701961 0.827451 0.494118
0.733333 0.823529 0.478431
0.764706 0.819608 0.447059
0.819608 0.839216 0.439216
0.862745 0.831373 0.403922
0.921569 0.847059 0.376471
0.941176 0.831373 0.333333
0.968627 0.831373 0.309804
0.976471 0.803922 0.258824
0.980392 0.796078 0.215686
0.694118 0.890196 0.627451
0.690196 0.882353 0.623529
0.705882 0.890196 0.631373
0.713725 0.890196 0.627451
0.721569 0.890196 0.619608
0.717647 0.87451 0.6
0.737255 0.878431 0.596078
0.745098 0.866667 0.572549
0.780392 0.870588 0.564706
0.8 0.870588 0.545098
0.835294 0.87451 0.52549
0.866667 0.87451 0.498039
0.898039 0.870588 0.462745
0.933333 0.866667 0.419608
0.964706 0.866667 0.392157
0.984314 0.866667 0.368627
0.984314 0.843137 0.321569
0.772549 0.917647 0.701961
0.772549 0.917647 0.701961
0.756863 0.901961 0.682353
0.768627 0.905882 0.686275
0.764706 0.894118 0.670588
0.8 0.921569 0.690196
0.784314 0.901961 0.666667
0.788235 0.890196 0.643137
0.803922 0.890196 0.639216
0.827451 0.894118 0.627451
0.847059 0.894118 0.607843
0.870588 0.894118 0.592157
0.901961 0.898039 0.572549
0.941176 0.913725 0.54902
0.956863 0.901961 0.501961
0.980392 0.901961 0.466667
0.980392 0.886275 0.427451
0.819608 0.929412 0.752941
0.819608 0.92549 0.74902
0.819608 0.921569 0.745098
0.823529 0.929412 0.74902
0.815686 0.917647 0.733333
0.815686 0.909804 0.72549
0.839216 0.933333 0.741176
0.831373 0.913725 0.717647
0.85098 0.921569 0.717647
0.866667 0.929412 0.717647
0.862745 0.913725 0.690196
0.890196 0.929412 0.690196
0.913725 0.929412 0.67451
0.917647 0.917647 0.643137
0.952941 0.933333 0.627451
0.968627 0.92549 0.580392
0.972549 0.917647 0.545098
0.862745 0.937255 0.796078
0.862745 0.941176 0.796078
0.862745 0.937255 0.796078
0.870588 0.94902 0.803922
0.87451 0.945098 0.8
0.866667 0.937255 0.784314
0.870588 0.937255 0.784314
0.870588 0.933333 0.780392
0.882353 0.941176 0.780392
0.898039 0.94902 0.784314
0.905882 0.945098 0.776471
0.898039 0.929412 0.752941
0.913725 0.937255 0.752941
0.921569 0.933333 0.737255
0.945098 0.945098 0.733333
0.956863 0.941176 0.701961
0.960784 0.933333 0.670588
0.886275 0.941176 0.827451
0.882353 0.941176 0.823529
0.894118 0.945098 0.835294
0.894118 0.945098 0.827451
0.890196 0.941176 0.823529
0.898039 0.94902 0.827451
0.894118 0.937255 0.819608
0.905882 0.94902 0.827451
0.913725 0.94902 0.831373
0.92549 0.956863 0.835294
0.92549 0.956863 0.831373
0.92549 0.94902 0.819608
0.92549 0.945098 0.811765
0.941176 0.952941 0.815686
0.960784 0.964706 0.823529
0.960784 0.960784 0.811765
0.964706 0.960784 0.796078
0.0313725 0.145098 0.266667
0.0235294 0.129412 0.247059
0.0509804 0.133333 0.254902
0.0980392 0.145098 0.262745
0.129412 0.129412 0.25098
0.172549 0.12549 0.243137
0.231373 0.133333 0.247059
0.286275 0.117647 0.235294
0.392157 0.137255 0.258824
0.478431 0.109804 0.258824
0.564706 0.0588235 0.25098
0.670588 0.0392157 0.258824
0.741176 0.0117647 0.247059
0.831373 0.00784314 0.254902
0.870588 0.00392157 0.235294
0.937255 0.00392157 0.254902
0.956863 0.00392157 0.258824
0.0352941 0.160784 0.270588
0.0509804 0.156863 0.270588
0.0705882 0.156863 0.266667
0.101961 0.152941 0.258824
0.164706 0.164706 0.27451
0.188235 0.152941 0.258824
0.243137 0.14902 0.254902
0.321569 0.156863 0.262745
0.4 0.145098 0.254902
0.482353 0.117647 0.247059
0.580392 0.0901961 0.25098
0.654902 0.0392157 0.239216
0.72549 0.0156863 0.227451
0.823529 0.0156863 0.243137
0.886275 0.0156863 0.247059
0.937255 0.0156863 0.254902
0.94902 0.00784314 0.254902
0.0392157 0.172549 0.270588
0.0509804 0.172549 0.270588
0.0901961 0.180392 0.27451
0.129412 0.184314 0.27451
0.172549 0.184314 0.27451
0.203922 0.168627 0.262745
0.258824 0.168627 0.25098
0.333333 0.172549 0.258824
0.423529 0.176471 0.262745
0.501961 0.156863 0.247059
0.584314 0.12549 0.239216
0.686275 0.129412 0.254902
0.745098 0.0705882 0.231373
0.827451 0.0705882 0.235294
0.87451 0.0392157 0.227451
0.933333 0.0470588 0.243137
0.952941 0.0470588 0.247059
0.0666667 0.219608 0.286275
0.0901961 0.227451 0.298039
0.113725 0.227451 0.294118
0.145098 0.219608 0.278431
0.188235 0.215686 0.27451
0.231373 0.211765 0.266667
0.298039 0.215686 0.266667
0.364706 0.215686 0.266667
0.439216 0.207843 0.254902
0.541176 0.219608 0.262745
0.615686 0.207843 0.239216
0.686275 0.192157 0.227451
0.752941 0.168627 0.219608
0.835294 0.180392 0.227451
0.890196 0.168627 0.223529
0.945098 0.196078 0.25098
0.956863 0.168627 0.247059
0.101961 0.282353 0.309804
0.109804 0.278431 0.305882
0.12549 0.270588 0.298039
0.156863 0.262745 0.290196
0.207843 0.278431 0.294118
0.266667 0.270588 0.27451
0.337255 0.282353 0.278431
0.403922 0.278431 0.270588
0.47451 0.270588 0.258824
0.556863 0.270588 0.247059
0.635294 0.270588 0.235294
0.717647 0.286275 0.227451
0.796078 0.301961 0.223529
0.854902 0.301961 0.223529
0.905882 0.294118 0.219608
0.937255 0.282353 0.215686
0.972549 0.294118 0.243137
0.145098 0.368627 0.329412
0.137255 0.34902 0.313725
0.156863 0.34902 0.309804
0.188235 0.345098 0.309804
0.243137 0.352941 0.309804
0.278431 0.345098 0.282353
0.368627 0.360784 0.278431
0.439216 0.352941 0.262745
0.517647 0.352941 0.258824
0.596078 0.356863 0.247059
0.670588 0.360784 0.239216
0.721569 0.352941 0.203922
0.796078 0.376471 0.192157
0.854902 0.384314 0.184314
0.933333 0.411765 0.219608
0.952941 0.388235 0.211765
0.968627 0.380392 0.219608
0.168627 0.443137 0.329412
0.196078 0.458824 0.345098
0.207843 0.454902 0.337255
0.25098 0.458824 0.341176
0.278431 0.435294 0.329412
0.333333 0.447059 0.317647
0.407843 0.454902 0.305882
0.494118 0.462745 0.278431
0.572549 0.462745 0.27451
0.635294 0.454902 0.25098
0.705882 0.458824 0.235294
0.780392 0.470588 0.231373
0.827451 0.466667 0.192157
0.882353 0.478431 0.176471
0.921569 0.482353 0.168627
0.956863 0.470588 0.180392
0.960784 0.45098 0.180392
0.254902 0.560784 0.376471
0.270588 0.576471 0.380392
0.27451 0.556863 0.364706
0.309804 0.560784 0.364706
0.333333 0.537255 0.345098
0.392157 0.541176 0.34902
0.447059 0.545098 0.321569
0.533333 0.556863 0.313725
0.631373 0.576471 0.290196
0.690196 0.564706 0.270588
0.72549 0.541176 0.227451
0.807843 0.560784 0.231373
0.843137 0.545098 0.188235
0.898039 0.552941 0.164706
0.941176 0.564706 0.14902
0.94902 0.541176 0.12549
0.972549 0.537255 0.156863
0.329412 0.654902 0.403922
0.337255 0.658824 0.4
0.345098 0.643137 0.388235
0.392157 0.662745 0.407843
0.4 0.631373 0.372549
0.45098 0.627451 0.372549
0.501961 0.631373 0.360784
0.564706 0.631373 0.341176
0.639216 0.647059 0.321569
0.721569 0.658824 0.286275
0.764706 0.639216 0.25098
0.839216 0.65098 0.25098
0.870588 0.635294 0.211765
0.913725 0.635294 0.192157
0.952941 0.631373 0.160784
0.964706 0.619608 0.109804
0.980392 0.619608 0.145098
0.419608 0.741176 0.443137
0.439216 0.745098 0.45098
0.447059 0.741176 0.447059
0.454902 0.721569 0.423529
0.486275 0.72549 0.423529
0.52549 0.713725 0.415686
0.560784 0.705882 0.403922
0.623529 0.721569 0.396078
0.658824 0.709804 0.364706
0.733333 0.717647 0.337255
0.811765 0.741176 0.313725
0.847059 0.717647 0.270588
0.898039 0.721569 0.258824
0.917647 0.701961 0.215686
0.952941 0.694118 0.184314
0.964706 0.67451 0.113725
0.980392 0.67451 0.0941176
0.52549 0.807843 0.509804
0.529412 0.807843 0.501961
0.529412 0.796078 0.494118
0.560784 0.803922 0.501961
0.560784 0.784314 0.47451
0.592157 0.784314 0.466667
0.615686 0.768627 0.45098
0.65098 0.764706 0.435294
0.698039 0.772549 0.419608
0.768627 0.796078 0.419608
0.803922 0.776471 0.368627
0.882353 0.803922 0.352941
0.913725 0.792157 0.317647
0.941176 0.776471 0.286275
0.956863 0.760784 0.243137
0.968627 0.745098 0.192157
0.980392 0.745098 0.160784
0.607843 0.847059 0.564706
0.603922 0.839216 0.556863
0.623529 0.85098 0.560784
0.643137 0.854902 0.560784
0.643137 0.843137 0.54902
0.670588 0.843137 0.54902
0.690196 0.839216 0.533333
0.690196 0.811765 0.498039
0.729412 0.815686 0.486275
0.764706 0.815686 0.462745
0.819608 0.835294 0.454902
0.862745 0.835294 0.419608
0.905882 0.827451 0.376471
0.94902 0.839216 0.360784
0.960784 0.815686 0.317647
0.972549 0.803922 0.278431
0.976471 0.784314 0.227451
0.701961 0.894118 0.639216
0.701961 0.886275 0.635294
0.713725 0.890196 0.643137
0.717647 0.894118 0.639216
0.709804 0.870588 0.615686
0.733333 0.886275 0.623529
0.74902 0.882353 0.611765
0.764706 0.882353 0.6
0.780392 0.866667 0.580392
0.784314 0.85098 0.537255
0.847059 0.886275 0.54902
0.858824 0.862745 0.505882
0.901961 0.87451 0.486275
0.941176 0.87451 0.45098
0.964706 0.87451 0.419608
0.984314 0.862745 0.384314
0.984314 0.847059 0.341176
0.772549 0.917647 0.713725
0.760784 0.898039 0.694118
0.772549 0.905882 0.698039
0.792157 0.92549 0.717647
0.776471 0.905882 0.690196
0.788235 0.909804 0.690196
0.788235 0.901961 0.67451
0.811765 0.909804 0.678431
0.819608 0.898039 0.658824
0.835294 0.898039 0.643137
0.858824 0.901961 0.635294
0.87451 0.898039 0.607843
0.890196 0.886275 0.572549
0.937255 0.909804 0.564706
0.968627 0.913725 0.529412
0.968627 0.890196 0.47451
0.976471 0.882353 0.443137
0.827451 0.929412 0.760784
0.815686 0.917647 0.74902
0.815686 0.917647 0.74902
0.827451 0.92549 0.752941
0.827451 0.921569 0.74902
0.843137 0.929412 0.756863
0.835294 0.921569 0.741176
0.85098 0.929412 0.745098
0.85098 0.921569 0.72549
0.854902 0.913725 0.709804
0.858824 0.909804 0.698039
0.882353 0.917647 0.690196
0.905882 0.92549 0.682353
0.917647 0.913725 0.654902
0.952941 0.929412 0.639216
0.976471 0.937255 0.611765
0.984314 0.937255 0.584314
0.866667 0.941176 0.803922
0.882353 0.952941 0.815686
0.866667 0.941176 0.8
0.85098 0.921569 0.780392
0.87451 0.941176 0.8
0.866667 0.933333 0.788235
0.866667 0.929412 0.784314
0.866667 0.929412 0.776471
0.886275 0.941176 0.788235
0.898039 0.945098 0.788235
0.882353 0.921569 0.756863
0.905882 0.937255 0.768627
0.917647 0.941176 0.760784
0.941176 0.94902 0.756863
0.945098 0.941176 0.733333
0.956863 0.945098 0.717647
0.976471 0.952941 0.709804
0.909804 0.952941 0.85098
0.894118 0.94902 0.835294
0.901961 0.952941 0.843137
0.890196 0.941176 0.831373
0.890196 0.941176 0.823529
0.898039 0.945098 0.831373
0.909804 0.952941 0.839216
0.905882 0.945098 0.831373
0.917647 0.952941 0.835294
0.929412 0.956863 0.843137
0.933333 0.956863 0.835294
0.933333 0.956863 0.827451
0.929412 0.94902 0.819608
0.941176 0.94902 0.815686
0.952941 0.960784 0.823529
0.952941 0.94902 0.8
0.964706 0.952941 0.8
0.027451 0.152941 0.294118
0.0352941 0.145098 0.278431
0.0509804 0.141176 0.270588
0.0862745 0.141176 0.27451
0.129412 0.141176 0.270588
0.168627 0.129412 0.262745
0.243137 0.137255 0.27451
0.309804 0.121569 0.266667
0.388235 0.121569 0.270588
0.47451 0.0745098 0.258824
0.572549 0.0627451 0.254902
0.678431 0.0627451 0.254902
0.752941 0.0392157 0.243137
0.819608 0.0156863 0.235294
0.890196 0.0196078 0.243137
0.933333 0.0117647 0.247059
0.960784 0.0156863 0.258824
0.0392157 0.168627 0.294118
0.0392157 0.156863 0.282353
0.0901961 0.172549 0.298039
0.0980392 0.156863 0.278431
0.152941 0.168627 0.286275
0.188235 0.152941 0.27451
0.258824 0.152941 0.282353
0.317647 0.145098 0.27451
0.392157 0.12549 0.262745
0.486275 0.105882 0.262745
0.584314 0.0901961 0.258824
0.67451 0.0823529 0.247059
0.752941 0.0627451 0.235294
0.827451 0.0431373 0.239216
0.882353 0.0352941 0.235294
