example-Advanced/bin/data/ofxGpuLutCube/LUT/Dramatic-45.cube
TITLE "Generated by 3D LUT Creator (c) Oleg Sharonov"
LUT_3D_SIZE 25
0.0612 0.0433 0.0425
0.0694 0.0516 0.0465
0.0837 0.0506 0.0442
0.1013 0.0564 0.0459
0.1254 0.0602 0.0475
0.1553 0.0631 0.0494
0.1871 0.0653 0.0524
0.2126 0.0601 0.0547
0.2483 0.0594 0.0591
0.2973 0.0626 0.0678
0.3503 0.0694 0.0690
0.3937 0.0771 0.0708
0.4398 0.0945 0.0763
0.4890 0.1130 0.0839
0.5349 0.1218 0.0790
0.5711 0.1372 0.0774
0.6026 0.1515 0.0710
0.6265 0.1729 0.0638
0.6411 0.1881 0.0620
0.6584 0.2081 0.0632
0.6727 0.2234 0.0642
0.6863 0.2376 0.0651
0.7093 0.2508 0.0642
0.7368 0.2650 0.0633
0.7631 0.3023 0.0786
0.0618 0.0582 0.0498
0.0625 0.0620 0.0548
0.0816 0.0640 0.0459
0.0985 0.0657 0.0471
0.1215 0.0717 0.0489
0.1513 0.0758 0.0510
0.1829 0.0795 0.0541
0.2048 0.0860 0.0576
0.2315 0.0838 0.0605
0.2684 0.0808 0.0641
0.3321 0.0712 0.0663
0.3812 0.0854 0.0701
0.4317 0.1031 0.0772
0.4810 0.1221 0.0849
0.5354 0.1371 0.0824
0.5729 0.1502 0.0794
0.6021 0.1653 0.0762
0.6305 0.1893 0.0686
0.6544 0.2136 0.0658
0.6693 0.2287 0.0664
0.6839 0.2442 0.0674
0.6975 0.2579 0.0682
0.7097 0.2677 0.0681
0.7316 0.2829 0.0676
0.7638 0.3120 0.0802
0.0610 0.0759 0.0568
0.0608 0.0795 0.0574
0.0825 0.0817 0.0604
0.1006 0.0816 0.0494
0.1240 0.0837 0.0507
0.1512 0.0891 0.0528
0.1795 0.0942 0.0558
0.2000 0.1007 0.0593
0.2207 0.1081 0.0628
0.2524 0.1071 0.0668
0.2973 0.1067 0.0697
0.3626 0.1060 0.0723
0.4137 0.1184 0.0787
0.4715 0.1341 0.0851
0.5305 0.1526 0.0871
0.5762 0.1689 0.0823
0.6055 0.1871 0.0813
0.6360 0.2100 0.0748
0.6600 0.2293 0.0700
0.6801 0.2498 0.0700
0.6943 0.2633 0.0705
0.7075 0.2760 0.0711
0.7202 0.2852 0.0708
0.7324 0.2958 0.0711
0.7657 0.3217 0.0833
0.0607 0.0951 0.0635
0.0605 0.0952 0.0619
0.0710 0.1021 0.0630
0.1022 0.0987 0.0519
0.1263 0.1029 0.0535
0.1570 0.1030 0.0551
0.1799 0.1085 0.0580
0.1990 0.1155 0.0614
0.2186 0.1245 0.0650
0.2403 0.1364 0.0694
0.2727 0.1444 0.0737
0.3146 0.1517 0.0772
0.3828 0.1525 0.0797
0.4499 0.1626 0.0860
0.5130 0.1782 0.0934
0.5666 0.1953 0.0867
0.6039 0.2128 0.0878
0.6334 0.2308 0.0817
0.6586 0.2498 0.0766
0.6813 0.2690 0.0738
0.6991 0.2863 0.0746
0.7142 0.2944 0.0742
0.7302 0.3011 0.0733
0.7514 0.3165 0.0756
0.7738 0.3352 0.0880
0.0609 0.1207 0.0733
0.0609 0.1216 0.0728
0.0583 0.1258 0.0670
0.0890 0.1201 0.0543
0.1228 0.1226 0.0562
0.1478 0.1357 0.0591
0.1815 0.1403 0.0623
0.2076 0.1354 0.0650
0.2250 0.1429 0.0681
0.2452 0.1558 0.0724
0.2724 0.1698 0.0769
0.3022 0.1809 0.0804
0.3385 0.1945 0.0841
0.4135 0.2005 0.0903
0.4842 0.2132 0.0974
0.5417 0.2243 0.0969
0.5875 0.2360 0.0921
0.6200 0.2504 0.0915
0.6505 0.2671 0.0845
0.6748 0.2842 0.0794
0.6968 0.3025 0.0780
0.7256 0.3136 0.0763
0.7518 0.3190 0.0735
0.7779 0.3399 0.0824
0.7996 0.3591 0.0998
0.0538 0.1496 0.0849
0.0533 0.1509 0.0836
0.0504 0.1569 0.0761
0.0578 0.1695 0.0593
0.1154 0.1461 0.0586
0.1450 0.1529 0.0611
0.1758 0.1716 0.0658
0.2077 0.1803 0.0705
0.2377 0.1735 0.0735
0.2575 0.1767 0.0767
0.2869 0.1900 0.0805
0.3190 0.2077 0.0849
0.3526 0.2192 0.0881
0.3891 0.2283 0.0908
0.4528 0.2359 0.0966
0.5115 0.2462 0.1030
0.5614 0.2611 0.0992
0.6013 0.2743 0.0974
0.6322 0.2866 0.0941
0.6580 0.3038 0.0886
0.6847 0.3201 0.0828
0.7288 0.3287 0.0787
0.7675 0.3439 0.0780
0.7977 0.3665 0.0911
0.8236 0.3874 0.1154
0.0479 0.1804 0.1005
0.0478 0.1816 0.0951
0.0474 0.1866 0.0831
0.0465 0.1989 0.0684
0.0869 0.1956 0.0643
0.1615 0.1808 0.0657
0.1875 0.1925 0.0700
0.2108 0.2046 0.0742
0.2415 0.2156 0.0791
0.2804 0.2141 0.0832
0.3080 0.2182 0.0857
0.3382 0.2317 0.0892
0.3733 0.2424 0.0921
0.4054 0.2501 0.0958
0.4457 0.2566 0.0994
0.4860 0.2663 0.1049
0.5314 0.2808 0.1080
0.5771 0.2945 0.1014
0.6105 0.3096 0.1024
0.6460 0.3231 0.0961
0.6892 0.3389 0.0852
0.7367 0.3469 0.0811
0.7721 0.3650 0.0826
0.8005 0.3902 0.0971
0.8249 0.4106 0.1249
0.0470 0.2066 0.1120
0.0468 0.2090 0.1019
0.0465 0.2179 0.0863
0.0456 0.2317 0.0709
0.0596 0.2406 0.0701
0.1168 0.2224 0.0691
0.1966 0.2148 0.0742
0.2216 0.2264 0.0785
0.2545 0.2359 0.0836
0.2967 0.2462 0.0887
0.3324 0.2525 0.0918
0.3631 0.2574 0.0938
0.3929 0.2647 0.0958
0.4246 0.2731 0.1012
0.4642 0.2805 0.1041
0.5016 0.2910 0.1093
0.5427 0.3021 0.1090
0.5842 0.3144 0.1041
0.6182 0.3294 0.1052
0.6519 0.3479 0.0992
0.6970 0.3585 0.0874
0.7442 0.3669 0.0836
0.7784 0.3880 0.0883
0.8034 0.4141 0.1041
0.8262 0.4433 0.1322
0.0461 0.2369 0.1251
0.0465 0.2420 0.1075
0.0537 0.2573 0.0878
0.0598 0.2726 0.0747
0.0824 0.2774 0.0764
0.1084 0.2744 0.0768
0.1568 0.2636 0.0773
0.2307 0.2513 0.0832
0.2638 0.2652 0.0890
0.3175 0.2732 0.0937
0.3610 0.2814 0.0971
0.3869 0.2829 0.0982
0.4142 0.2885 0.1019
0.4474 0.2960 0.1051
0.4835 0.3042 0.1100
0.5220 0.3140 0.1132
0.5629 0.3246 0.1091
0.5997 0.3395 0.1074
0.6263 0.3568 0.1091
0.6584 0.3741 0.1020
0.7045 0.3839 0.0907
0.7522 0.3870 0.0860
0.7826 0.4125 0.0931
0.8066 0.4423 0.1071
0.8233 0.4672 0.1443
0.0552 0.2725 0.1491
0.0601 0.2816 0.1334
0.0679 0.2943 0.1040
0.0720 0.3107 0.0806
0.1086 0.3132 0.0827
0.1379 0.3080 0.0830
0.1712 0.3060 0.0847
0.2176 0.2974 0.0884
0.2837 0.2946 0.0945
0.3281 0.3088 0.0993
0.3774 0.3087 0.1016
0.4150 0.3179 0.1057
0.4413 0.3187 0.1082
0.4736 0.3244 0.1113
0.5096 0.3331 0.1157
0.5475 0.3466 0.1159
0.5842 0.3567 0.1107
0.6109 0.3701 0.1117
0.6371 0.3839 0.1108
0.6717 0.3983 0.1024
0.7161 0.4080 0.0935
0.7608 0.4169 0.0880
0.7884 0.4436 0.0942
0.8102 0.4698 0.1113
0.8190 0.4856 0.1578
0.0696 0.3109 0.1708
0.0710 0.3174 0.1600
0.0780 0.3318 0.1271
0.0849 0.3482 0.0906
0.1137 0.3500 0.0879
0.1555 0.3392 0.0882
0.1960 0.3400 0.0914
0.2305 0.3430 0.0960
0.2870 0.3397 0.1011
0.3425 0.3383 0.1044
0.3851 0.3483 0.1076
0.4318 0.3462 0.1118
0.4720 0.3539 0.1149
0.5014 0.3605 0.1195
0.5359 0.3668 0.1212
0.5715 0.3769 0.1164
0.6002 0.3884 0.1149
0.6251 0.4010 0.1159
0.6527 0.4136 0.1112
0.6900 0.4262 0.0983
0.7319 0.4354 0.0902
0.7699 0.4513 0.0885
0.7947 0.4738 0.0992
0.8108 0.4896 0.1218
0.8177 0.5054 0.1814
0.0777 0.3464 0.1958
0.0815 0.3514 0.1869
0.0855 0.3597 0.1725
0.0930 0.3791 0.1218
0.1056 0.3920 0.0934
0.1634 0.3769 0.0937
0.2057 0.3664 0.0951
0.2413 0.3676 0.0997
0.2941 0.3742 0.1064
0.3481 0.3773 0.1102
0.3979 0.3784 0.1124
0.4374 0.3857 0.1176
0.4920 0.3844 0.1215
0.5327 0.3914 0.1247
0.5658 0.3989 0.1215
0.5926 0.4078 0.1182
0.6175 0.4188 0.1175
0.6404 0.4335 0.1149
0.6705 0.4489 0.1044
0.7103 0.4592 0.0926
0.7497 0.4627 0.0900
0.7794 0.4785 0.0949
0.7972 0.4926 0.1058
0.8179 0.5138 0.1339
0.8167 0.5202 0.2105
0.0848 0.3811 0.2214
0.0865 0.3819 0.2146
0.0904 0.3888 0.2036
0.0950 0.3998 0.1859
0.1025 0.4253 0.1221
0.1238 0.4404 0.0941
0.2123 0.4084 0.1004
0.2526 0.3898 0.1033
0.2988 0.3935 0.1093
0.3732 0.4020 0.1148
0.4178 0.4076 0.1175
0.4463 0.4193 0.1215
0.4934 0.4293 0.1239
0.5536 0.4265 0.1257
0.5895 0.4360 0.1184
0.6135 0.4471 0.1158
0.6348 0.4593 0.1142
0.6586 0.4709 0.1080
0.6930 0.4784 0.0997
0.7303 0.4824 0.0948
0.7625 0.4865 0.0930
0.7839 0.5009 0.0984
0.8049 0.5199 0.1151
0.8169 0.5398 0.1598
0.8231 0.5389 0.2244
0.0891 0.4261 0.2498
0.0905 0.4273 0.2441
0.0931 0.4289 0.2333
0.0981 0.4335 0.2184
0.1077 0.4444 0.1920
0.1310 0.4719 0.1038
0.2015 0.4749 0.0979
0.2740 0.4383 0.1052
0.3227 0.4244 0.1122
0.3777 0.4262 0.1152
0.4390 0.4352 0.1190
0.4769 0.4514 0.1199
0.5040 0.4679 0.1219
0.5390 0.4782 0.1233
0.5980 0.4706 0.1153
0.6269 0.4811 0.1130
0.6499 0.4927 0.1124
0.6790 0.5008 0.1049
0.7106 0.5022 0.0965
0.7422 0.5019 0.0932
0.7701 0.5129 0.0944
0.7928 0.5273 0.1037
0.8132 0.5477 0.1302
0.8149 0.5572 0.1958
0.8318 0.5578 0.2360
0.1094 0.4616 0.2747
0.1108 0.4632 0.2704
0.1150 0.4666 0.2625
0.1209 0.4699 0.2466
0.1385 0.4913 0.1968
0.1608 0.4997 0.1171
0.1943 0.5217 0.1009
0.2808 0.4949 0.1049
0.3465 0.4754 0.1096
0.4085 0.4676 0.1133
0.4588 0.4727 0.1178
0.5037 0.4837 0.1204
0.5240 0.4986 0.1214
0.5482 0.5130 0.1207
0.5798 0.5238 0.1172
0.6295 0.5178 0.1126
0.6561 0.5251 0.1104
0.6887 0.5272 0.1017
0.7193 0.5264 0.0941
0.7520 0.5307 0.0931
0.7799 0.5434 0.0987
0.8009 0.5598 0.1183
0.8121 0.5811 0.1578
0.8184 0.5732 0.2226
0.8362 0.5742 0.2557
0.1424 0.4915 0.2940
0.1428 0.4911 0.2900
0.1473 0.4933 0.2841
0.1590 0.4997 0.2646
0.1839 0.5356 0.1727
0.1929 0.5317 0.1051
0.2093 0.5403 0.0963
0.2579 0.5597 0.1010
0.3444 0.5272 0.1084
0.4249 0.5132 0.1125
0.4838 0.5117 0.1165
0.5140 0.5188 0.1189
0.5453 0.5280 0.1197
0.5692 0.5426 0.1181
0.5940 0.5544 0.1139
0.6220 0.5648 0.1103
0.6645 0.5569 0.1075
0.6993 0.5502 0.0998
0.7322 0.5494 0.0961
0.7622 0.5615 0.1005
0.7866 0.5806 0.1135
0.8042 0.5971 0.1428
0.8039 0.5969 0.2119
0.8240 0.5964 0.2413
0.8386 0.5927 0.2791
0.1755 0.5171 0.3124
0.1758 0.5168 0.3078
0.1785 0.5186 0.3010
0.1838 0.5236 0.2895
0.1912 0.5477 0.2482
0.2077 0.5806 0.1287
0.2309 0.5738 0.1046
0.2624 0.5853 0.1083
0.3169 0.5807 0.1092
0.4081 0.5693 0.1088
0.4740 0.5573 0.1135
0.5268 0.5569 0.1175
0.5568 0.5609 0.1179
0.5888 0.5688 0.1141
0.6129 0.5786 0.1113
0.6373 0.5856 0.1133
0.6637 0.5886 0.1139
0.7111 0.5726 0.1033
0.7456 0.5790 0.1072
0.7718 0.5958 0.1190
0.7926 0.6153 0.1391
0.7944 0.6253 0.1940
0.8076 0.6156 0.2398
0.8279 0.6172 0.2660
0.8357 0.6167 0.3101
0.1927 0.5443 0.3301
0.1938 0.5462 0.3243
0.1954 0.5511 0.3121
0.1978 0.5618 0.2952
0.1996 0.5783 0.2710
0.2094 0.5941 0.2548
0.2426 0.6370 0.1606
0.2773 0.6199 0.1272
0.3047 0.6130 0.1190
0.3641 0.6048 0.1193
0.4428 0.5967 0.1176
0.5155 0.5963 0.1193
0.5722 0.5973 0.1203
0.6037 0.5941 0.1174
0.6292 0.5951 0.1169
0.6504 0.6026 0.1195
0.6803 0.6041 0.1182
0.7161 0.6093 0.1201
0.7524 0.6162 0.1274
0.7790 0.6353 0.1428
0.7815 0.6450 0.1945
0.7885 0.6389 0.2452
0.8056 0.6396 0.2719
0.8262 0.6424 0.2959
0.8393 0.6453 0.3296
0.2038 0.5718 0.3463
0.2037 0.5760 0.3409
0.2038 0.5837 0.3333
0.2038 0.5986 0.3112
0.2063 0.6103 0.2987
0.2200 0.6111 0.3118
0.2394 0.6160 0.3154
0.2905 0.6779 0.2062
0.3274 0.6646 0.1587
0.3627 0.6408 0.1343
0.4233 0.6371 0.1315
0.4963 0.6261 0.1296
0.5614 0.6258 0.1310
0.6205 0.6182 0.1256
0.6453 0.6181 0.1253
0.6673 0.6208 0.1258
0.6944 0.6308 0.1271
0.7210 0.6430 0.1399
0.7458 0.6653 0.1565
0.7621 0.6771 0.1961
0.7686 0.6672 0.2511
0.7840 0.6617 0.2815
0.8019 0.6618 0.3068
0.8263 0.6666 0.3237
0.8417 0.6700 0.3528
0.2092 0.6066 0.3592
0.2082 0.6099 0.3542
0.2080 0.6158 0.3476
0.2082 0.6246 0.3394
0.2179 0.6241 0.3519
0.2322 0.6244 0.3627
0.2537 0.6305 0.3645
0.2972 0.6663 0.3182
0.3493 0.6963 0.2725
0.4066 0.7085 0.2151
0.4500 0.6840 0.1768
0.5049 0.6678 0.1594
0.5750 0.6593 0.1521
0.6274 0.6469 0.1395
0.6592 0.6444 0.1378
0.6881 0.6468 0.1401
0.7081 0.6551 0.1496
0.7254 0.6739 0.1689
0.7353 0.7025 0.2062
0.7381 0.6993 0.2657
0.7610 0.6879 0.2909
0.7795 0.6805 0.3179
0.8030 0.6810 0.3359
0.8270 0.6862 0.3526
0.8456 0.6937 0.3739
0.2151 0.6374 0.3702
0.2142 0.6402 0.3657
0.2189 0.6411 0.3725
0.2268 0.6423 0.3825
0.2365 0.6436 0.3941
0.2535 0.6452 0.4001
0.2765 0.6556 0.3937
0.3205 0.6788 0.3548
0.3665 0.7080 0.3161
0.4227 0.7228 0.3000
0.4844 0.7351 0.2717
0.5416 0.7264 0.2467
0.5905 0.7103 0.2055
0.6361 0.6961 0.1908
0.6681 0.6855 0.1798
0.6971 0.6795 0.1738
0.7206 0.6932 0.1873
0.7224 0.7112 0.2203
0.7234 0.7160 0.2692
0.7389 0.7155 0.2972
0.7539 0.7136 0.3244
0.7803 0.7032 0.3439
0.8067 0.7069 0.3550
0.8288 0.7137 0.3720
0.8514 0.7198 0.3905
0.2313 0.6593 0.4041
0.2361 0.6583 0.4093
0.2426 0.6576 0.4164
0.2514 0.6578 0.4254
0.2631 0.6595 0.4337
0.2760 0.6622 0.4427
0.2979 0.6730 0.4364
0.3459 0.6981 0.3870
0.3953 0.7205 0.3565
0.4402 0.7407 0.3433
0.4964 0.7557 0.3285
0.5580 0.7518 0.3121
0.5977 0.7468 0.3002
0.6304 0.7414 0.2897
0.6553 0.7373 0.2836
0.6796 0.7322 0.2721
0.7005 0.7291 0.2684
0.7153 0.7288 0.2874
0.7252 0.7326 0.3052
0.7403 0.7318 0.3260
0.7568 0.7323 0.3487
0.7784 0.7354 0.3633
0.8123 0.7349 0.3707
0.8354 0.7398 0.3880
0.8579 0.7451 0.4078
0.2594 0.6773 0.4479
0.2661 0.6773 0.4505
0.2745 0.6781 0.4565
0.2842 0.6787 0.4627
0.2935 0.6813 0.4698
0.3037 0.6854 0.4781
0.3164 0.6906 0.4860
0.3458 0.7035 0.4685
0.4112 0.7308 0.4164
0.4612 0.7605 0.3915
0.5152 0.7724 0.3706
0.5727 0.7701 0.3616
0.6119 0.7644 0.3583
0.6384 0.7563 0.3544
0.6585 0.7512 0.3489
0.6764 0.7502 0.3460
0.6960 0.7489 0.3392
0.7163 0.7478 0.3290
0.7304 0.7479 0.3427
0.7427 0.7532 0.3515
0.7622 0.7547 0.3630
0.7833 0.7594 0.3771
0.8091 0.7655 0.3883
0.8398 0.7651 0.4048
0.8588 0.7679 0.4422
0.2935 0.6992 0.4894
0.2995 0.7012 0.4916
0.3059 0.7025 0.4952
0.3134 0.7039 0.4990
0.3222 0.7058 0.5051
0.3326 0.7085 0.5114
0.3438 0.7131 0.5180
0.3577 0.7201 0.5263
0.4116 0.7406 0.4939
0.4692 0.7719 0.4583
0.5292 0.7849 0.4325
0.5917 0.7868 0.4043
0.6253 0.7839 0.4006
0.6501 0.7782 0.3964
0.6714 0.7711 0.3885
0.6886 0.7659 0.3825
0.7026 0.7656 0.3799
0.7210 0.7658 0.3719
0.7374 0.7689 0.3664
0.7523 0.7715 0.3742
0.7652 0.7786 0.3821
0.7869 0.7837 0.3894
0.8123 0.7906 0.3992
0.8291 0.7984 0.4359
0.8563 0.7976 0.4718
0.3253 0.7266 0.5285
0.3297 0.7265 0.5294
0.3351 0.7265 0.5306
0.3410 0.7277 0.5329
0.3487 0.7298 0.5365
0.3597 0.7332 0.5418
0.3742 0.7390 0.5490
0.3982 0.7486 0.5498
0.4286 0.7617 0.5459
0.4861 0.7893 0.5137
0.5443 0.7976 0.4898
0.6015 0.8003 0.4619
0.6398 0.8002 0.4335
0.6615 0.7977 0.4261
0.6822 0.7938 0.4173
0.7005 0.7910 0.4087
0.7162 0.7873 0.3998
0.7325 0.7881 0.3937
0.7465 0.7909 0.3920
0.7605 0.7955 0.3916
0.7776 0.8028 0.3970
0.7962 0.8078 0.4038
0.8159 0.8128 0.4292
0.8321 0.8207 0.4628
0.8548 0.8282 0.4937
0.0618 0.0453 0.0527
0.0641 0.0460 0.0568
0.0863 0.0534 0.0554
0.1082 0.0492 0.0484
0.1324 0.0493 0.0462
0.1625 0.0519 0.0482
0.1922 0.0546 0.0514
0.2155 0.0572 0.0564
0.2527 0.0611 0.0685
0.2978 0.0640 0.0770
0.3531 0.0717 0.0792
0.4081 0.0839 0.0811
0.4481 0.0917 0.0782
0.4923 0.1029 0.0825
0.5440 0.1160 0.0755
0.5776 0.1330 0.0763
0.6088 0.1514 0.0666
0.6336 0.1719 0.0601
0.6483 0.1870 0.0605
0.6625 0.2019 0.0613
0.6733 0.2128 0.0618
0.6853 0.2233 0.0621
0.7073 0.2356 0.0612
0.7369 0.2642 0.0662
0.7591 0.3018 0.0853
0.0625 0.0638 0.0559
0.0642 0.0622 0.0623
0.0808 0.0698 0.0593
0.1034 0.0664 0.0531
0.1311 0.0629 0.0481
0.1617 0.0660 0.0501
0.1918 0.0685 0.0535
0.2129 0.0747 0.0569
0.2395 0.0668 0.0590
0.2869 0.0615 0.0625
0.3484 0.0694 0.0712
0.3939 0.0773 0.0715
0.4366 0.0898 0.0756
0.4829 0.1115 0.0835
0.5352 0.1239 0.0794
0.5708 0.1383 0.0776
0.6022 0.1562 0.0730
0.6319 0.1853 0.0657
0.6573 0.2120 0.0645
0.6695 0.2244 0.0651
0.6823 0.2350 0.0652
0.6959 0.2477 0.0657
0.7079 0.2560 0.0656
0.7318 0.2821 0.0703
0.7599 0.3105 0.0867
0.0623 0.0790 0.0646
0.0618 0.0827 0.0645
0.0622 0.0920 0.0736
0.0981 0.0865 0.0611
0.1274 0.0789 0.0505
0.1589 0.0830 0.0524
0.1878 0.0867 0.0557
0.2082 0.0926 0.0590
0.2295 0.0993 0.0625
0.2633 0.0970 0.0661
0.3083 0.0935 0.0683
0.3786 0.0860 0.0700
0.4246 0.1013 0.0768
0.4761 0.1211 0.0845
0.5323 0.1398 0.0838
0.5755 0.1594 0.0808
0.6050 0.1766 0.0785
0.6356 0.2007 0.0713
0.6605 0.2238 0.0673
0.6809 0.2447 0.0682
0.6955 0.2588 0.0689
0.7081 0.2688 0.0689
0.7196 0.2771 0.0686
0.7322 0.2954 0.0743
0.7624 0.3200 0.0892
0.0616 0.0989 0.0721
0.0614 0.1026 0.0717
0.0611 0.1114 0.0729
0.0889 0.1145 0.0809
0.1271 0.1061 0.0588
0.1617 0.1003 0.0550
0.1894 0.1043 0.0585
0.2069 0.1114 0.0618
0.2255 0.1182 0.0651
0.2484 0.1278 0.0695
0.2907 0.1264 0.0724
0.3381 0.1243 0.0743
0.4012 0.1257 0.0781
0.4662 0.1409 0.0851
0.5256 0.1592 0.0897
0.5728 0.1790 0.0840
0.6077 0.2031 0.0848
0.6392 0.2215 0.0766
0.6640 0.2409 0.0718
0.6865 0.2609 0.0715
0.7055 0.2775 0.0721
0.7187 0.2868 0.0717
0.7309 0.2953 0.0713
0.7506 0.3153 0.0792
0.7691 0.3316 0.0936
0.0613 0.1225 0.0820
0.0610 0.1243 0.0789
0.0592 0.1277 0.0756
0.0692 0.1364 0.0788
0.1231 0.1293 0.0661
0.1629 0.1282 0.0591
0.1943 0.1238 0.0619
0.2167 0.1291 0.0654
0.2357 0.1374 0.0688
0.2610 0.1481 0.0733
0.2943 0.1599 0.0772
0.3227 0.1696 0.0801
0.3582 0.1775 0.0825
0.4295 0.1812 0.0882
0.4962 0.1943 0.0953
0.5560 0.2123 0.0918
0.6006 0.2317 0.0909
0.6359 0.2438 0.0844
0.6627 0.2645 0.0791
0.6839 0.2813 0.0758
0.7052 0.2951 0.0755
0.7321 0.3041 0.0736
0.7522 0.3184 0.0757
0.7741 0.3362 0.0866
0.7951 0.3537 0.1065
0.0542 0.1518 0.0924
0.0532 0.1533 0.0886
0.0515 0.1589 0.0891
0.0486 0.1641 0.0796
0.0860 0.1593 0.0676
0.1456 0.1543 0.0613
0.1832 0.1693 0.0663
0.2164 0.1701 0.0703
0.2489 0.1604 0.0735
0.2750 0.1680 0.0769
0.3038 0.1832 0.0808
0.3373 0.2003 0.0848
0.3717 0.2108 0.0876
0.4085 0.2190 0.0921
0.4651 0.2296 0.0973
0.5319 0.2438 0.1022
0.5799 0.2579 0.0957
0.6151 0.2709 0.0963
0.6479 0.2837 0.0883
0.6739 0.2984 0.0825
0.7050 0.3116 0.0786
0.7492 0.3197 0.0743
0.7824 0.3459 0.0836
0.8022 0.3639 0.1001
0.8200 0.3829 0.1299
0.0480 0.1823 0.1077
0.0479 0.1835 0.1031
0.0477 0.1878 0.1025
0.0471 0.1947 0.0934
0.0563 0.2131 0.0658
0.1346 0.1829 0.0644
0.1783 0.1900 0.0686
0.2103 0.2077 0.0746
0.2441 0.2166 0.0795
0.2940 0.2083 0.0834
0.3217 0.2102 0.0854
0.3543 0.2246 0.0889
0.3895 0.2376 0.0921
0.4266 0.2451 0.0972
0.4674 0.2562 0.1012
0.5068 0.2679 0.1061
0.5510 0.2811 0.1045
0.5933 0.2935 0.1006
0.6237 0.3083 0.1007
0.6607 0.3215 0.0909
0.7166 0.3280 0.0802
0.7607 0.3426 0.0780
0.7900 0.3683 0.0899
0.8151 0.3913 0.1119
0.8278 0.4138 0.1692
0.0472 0.2081 0.1219
0.0470 0.2100 0.1191
0.0466 0.2160 0.1151
0.0462 0.2266 0.0992
0.0497 0.2461 0.0787
0.0937 0.2408 0.0713
0.1911 0.2184 0.0742
0.2203 0.2297 0.0789
0.2494 0.2417 0.0839
0.2932 0.2537 0.0895
0.3448 0.2517 0.0922
0.3767 0.2520 0.0935
0.4088 0.2624 0.0979
0.4490 0.2739 0.1019
0.4840 0.2823 0.1069
0.5229 0.2918 0.1099
0.5631 0.3026 0.1053
0.5996 0.3158 0.1037
0.6340 0.3314 0.1018
0.6778 0.3470 0.0905
0.7330 0.3504 0.0822
0.7685 0.3669 0.0836
0.7949 0.3911 0.0970
0.8176 0.4149 0.1223
0.8248 0.4460 0.1831
0.0463 0.2360 0.1373
0.0461 0.2389 0.1342
0.0487 0.2509 0.1235
0.0571 0.2686 0.1038
0.0671 0.2905 0.0821
0.0842 0.3010 0.0798
0.1436 0.2756 0.0783
0.2276 0.2557 0.0835
0.2630 0.2694 0.0895
0.3150 0.2795 0.0944
0.3591 0.2884 0.0980
0.4022 0.2944 0.1009
0.4326 0.2932 0.1043
0.4684 0.2984 0.1072
0.5042 0.3073 0.1118
0.5426 0.3192 0.1120
0.5813 0.3316 0.1070
0.6142 0.3452 0.1078
0.6474 0.3611 0.1031
0.6937 0.3722 0.0901
0.7417 0.3746 0.0851
0.7750 0.3921 0.0896
0.7991 0.4179 0.1044
0.8207 0.4467 0.1333
0.8172 0.4649 0.1987
0.0542 0.2712 0.1558
0.0579 0.2798 0.1515
0.0661 0.2942 0.1286
0.0724 0.3118 0.1034
0.0790 0.3314 0.0838
0.1115 0.3386 0.0863
0.1456 0.3331 0.0869
0.1896 0.3156 0.0880
0.2814 0.2982 0.0949
0.3293 0.3125 0.0999
0.3808 0.3173 0.1030
0.4256 0.3264 0.1083
0.4613 0.3303 0.1105
0.4928 0.3350 0.1152
0.5285 0.3445 0.1178
0.5668 0.3538 0.1134
0.6002 0.3652 0.1113
0.6282 0.3789 0.1124
0.6626 0.3924 0.1042
0.7056 0.4006 0.0934
0.7510 0.4029 0.0888
0.7804 0.4262 0.0934
0.8034 0.4486 0.1078
0.8184 0.4706 0.1452
0.8108 0.4798 0.2148
0.0691 0.3102 0.1783
0.0701 0.3148 0.1757
0.0751 0.3288 0.1604
0.0849 0.3507 0.1235
0.0907 0.3697 0.0896
0.1431 0.3730 0.0924
0.1877 0.3686 0.0938
0.2177 0.3618 0.0962
0.2581 0.3505 0.1002
0.3416 0.3458 0.1054
0.3910 0.3598 0.1095
0.4401 0.3569 0.1138
0.4840 0.3667 0.1182
0.5207 0.3724 0.1217
0.5553 0.3779 0.1197
0.5893 0.3878 0.1152
0.6195 0.4001 0.1160
0.6490 0.4121 0.1125
0.6832 0.4235 0.1006
0.7224 0.4310 0.0916
0.7619 0.4403 0.0878
0.7869 0.4632 0.0957
0.8048 0.4797 0.1147
0.8121 0.4905 0.1611
0.8059 0.4942 0.2297
