example-Advanced/bin/data/ofxGpuLutCube/LUT/Dramatic-42.cube
#Generated by Picture Instruments - Look Creator
TITLE "Ilford HP5 +"
LUT_3D_SIZE 9
0.152941 0.152941 0.152941
0.156863 0.156863 0.156863
0.176471 0.176471 0.176471
0.219608 0.219608 0.219608
0.278431 0.278431 0.278431
0.341176 0.341176 0.341176
0.415686 0.415686 0.415686
0.509804 0.509804 0.509804
0.615686 0.615686 0.615686
0.164706 0.164706 0.164706
0.180392 0.180392 0.180392
0.223529 0.223529 0.223529
0.262745 0.262745 0.262745
0.309804 0.309804 0.309804
0.368627 0.368627 0.368627
0.439216 0.439216 0.439216
0.533333 0.533333 0.533333
0.639216 0.639216 0.639216
0.219608 0.219608 0.219608
0.223529 0.223529 0.223529
0.266667 0.266667 0.266667
0.32549 0.32549 0.32549
0.384314 0.384314 0.384314
0.435294 0.435294 0.435294
0.498039 0.498039 0.498039
0.584314 0.584314 0.584314
0.682353 0.682353 0.682353
0.301961 0.301961 0.301961
0.301961 0.301961 0.301961
0.321569 0.321569 0.321569
0.372549 0.372549 0.372549
0.447059 0.447059 0.447059
0.517647 0.517647 0.517647
0.588235 0.588235 0.588235
0.662745 0.662745 0.662745
0.745098 0.745098 0.745098
0.392157 0.392157 0.392157
0.392157 0.392157 0.392157
0.396078 0.396078 0.396078
0.439216 0.439216 0.439216
0.498039 0.498039 0.498039
0.584314 0.584314 0.584314
0.662745 0.662745 0.662745
0.745098 0.745098 0.745098
0.811765 0.811765 0.811765
0.498039 0.498039 0.498039
0.501961 0.501961 0.501961
0.501961 0.501961 0.501961
0.52549 0.52549 0.52549
0.576471 0.576471 0.576471
0.639216 0.639216 0.639216
0.729412 0.729412 0.729412
0.796078 0.796078 0.796078
0.858824 0.858824 0.858824
0.635294 0.635294 0.635294
0.635294 0.635294 0.635294
0.635294 0.635294 0.635294
0.639216 0.639216 0.639216
0.682353 0.682353 0.682353
0.733333 0.733333 0.733333
0.780392 0.780392 0.780392
0.843137 0.843137 0.843137
0.894118 0.894118 0.894118
0.776471 0.776471 0.776471
0.776471 0.776471 0.776471
0.776471 0.776471 0.776471
0.780392 0.780392 0.780392
0.796078 0.796078 0.796078
0.827451 0.827451 0.827451
0.858824 0.858824 0.858824
0.890196 0.890196 0.890196
0.921569 0.921569 0.921569
0.890196 0.890196 0.890196
0.890196 0.890196 0.890196
0.890196 0.890196 0.890196
0.890196 0.890196 0.890196
0.894118 0.894118 0.894118
0.913725 0.913725 0.913725
0.933333 0.933333 0.933333
0.94902 0.94902 0.94902
0.960784 0.960784 0.960784
0.160784 0.160784 0.160784
0.172549 0.172549 0.172549
0.2 0.2 0.2
0.235294 0.235294 0.235294
0.290196 0.290196 0.290196
0.352941 0.352941 0.352941
0.423529 0.423529 0.423529
0.513725 0.513725 0.513725
0.623529 0.623529 0.623529
0.180392 0.180392 0.180392
0.2 0.2 0.2
0.227451 0.227451 0.227451
0.266667 0.266667 0.266667
0.317647 0.317647 0.317647
0.376471 0.376471 0.376471
0.447059 0.447059 0.447059
0.537255 0.537255 0.537255
0.639216 0.639216 0.639216
0.254902 0.254902 0.254902
0.25098 0.25098 0.25098
0.278431 0.278431 0.278431
0.337255 0.337255 0.337255
0.388235 0.388235 0.388235
0.435294 0.435294 0.435294
0.501961 0.501961 0.501961
0.588235 0.588235 0.588235
0.682353 0.682353 0.682353
0.32549 0.32549 0.32549
0.32549 0.32549 0.32549
0.337255 0.337255 0.337255
0.384314 0.384314 0.384314
0.454902 0.454902 0.454902
0.52549 0.52549 0.52549
0.588235 0.588235 0.588235
0.666667 0.666667 0.666667
0.745098 0.745098 0.745098
0.411765 0.411765 0.411765
0.411765 0.411765 0.411765
0.411765 0.411765 0.411765
0.447059 0.447059 0.447059
0.505882 0.505882 0.505882
0.592157 0.592157 0.592157
0.666667 0.666667 0.666667
0.74902 0.74902 0.74902
0.811765 0.811765 0.811765
0.513725 0.513725 0.513725
0.513725 0.513725 0.513725
0.513725 0.513725 0.513725
0.533333 0.533333 0.533333
0.584314 0.584314 0.584314
0.647059 0.647059 0.647059
0.733333 0.733333 0.733333
0.8 0.8 0.8
0.858824 0.858824 0.858824
0.647059 0.647059 0.647059
0.647059 0.647059 0.647059
0.647059 0.647059 0.647059
0.65098 0.65098 0.65098
0.686275 0.686275 0.686275
0.733333 0.733333 0.733333
0.784314 0.784314 0.784314
0.847059 0.847059 0.847059
0.894118 0.894118 0.894118
0.780392 0.780392 0.780392
0.780392 0.780392 0.780392
0.780392 0.780392 0.780392
0.784314 0.784314 0.784314
0.796078 0.796078 0.796078
0.827451 0.827451 0.827451
0.862745 0.862745 0.862745
0.890196 0.890196 0.890196
0.921569 0.921569 0.921569
0.890196 0.890196 0.890196
0.890196 0.890196 0.890196
0.894118 0.894118 0.894118
0.894118 0.894118 0.894118
0.898039 0.898039 0.898039
0.913725 0.913725 0.913725
0.933333 0.933333 0.933333
0.94902 0.94902 0.94902
0.960784 0.960784 0.960784
0.2 0.2 0.2
0.215686 0.215686 0.215686
0.243137 0.243137 0.243137
0.282353 0.282353 0.282353
0.32549 0.32549 0.32549
0.372549 0.372549 0.372549
0.431373 0.431373 0.431373
0.521569 0.521569 0.521569
0.627451 0.627451 0.627451
0.227451 0.227451 0.227451
0.243137 0.243137 0.243137
0.266667 0.266667 0.266667
0.305882 0.305882 0.305882
0.341176 0.341176 0.341176
0.384314 0.384314 0.384314
0.45098 0.45098 0.45098
0.541176 0.541176 0.541176
0.643137 0.643137 0.643137
0.266667 0.266667 0.266667
0.278431 0.278431 0.278431
0.305882 0.305882 0.305882
0.341176 0.341176 0.341176
0.384314 0.384314 0.384314
0.439216 0.439216 0.439216
0.501961 0.501961 0.501961
0.588235 0.588235 0.588235
0.686275 0.686275 0.686275
0.356863 0.356863 0.356863
0.364706 0.364706 0.364706
0.372549 0.372549 0.372549
0.407843 0.407843 0.407843
0.470588 0.470588 0.470588
0.529412 0.529412 0.529412
0.588235 0.588235 0.588235
0.666667 0.666667 0.666667
0.745098 0.745098 0.745098
0.45098 0.45098 0.45098
0.45098 0.45098 0.45098
0.45098 0.45098 0.45098
0.470588 0.470588 0.470588
0.52549 0.52549 0.52549
0.603922 0.603922 0.603922
0.678431 0.678431 0.678431
0.74902 0.74902 0.74902
0.811765 0.811765 0.811765
0.54902 0.54902 0.54902
0.54902 0.54902 0.54902
0.54902 0.54902 0.54902
0.552941 0.552941 0.552941
0.6 0.6 0.6
0.658824 0.658824 0.658824
0.741176 0.741176 0.741176
0.803922 0.803922 0.803922
0.862745 0.862745 0.862745
0.670588 0.670588 0.670588
0.670588 0.670588 0.670588
0.670588 0.670588 0.670588
0.67451 0.67451 0.67451
0.698039 0.698039 0.698039
0.745098 0.745098 0.745098
0.788235 0.788235 0.788235
0.85098 0.85098 0.85098
0.898039 0.898039 0.898039
0.792157 0.792157 0.792157
0.796078 0.796078 0.796078
0.796078 0.796078 0.796078
0.796078 0.796078 0.796078
0.803922 0.803922 0.803922
0.835294 0.835294 0.835294
0.866667 0.866667 0.866667
0.894118 0.894118 0.894118
0.92549 0.92549 0.92549
0.894118 0.894118 0.894118
0.894118 0.894118 0.894118
0.898039 0.898039 0.898039
0.898039 0.898039 0.898039
0.901961 0.901961 0.901961
0.913725 0.913725 0.913725
0.933333 0.933333 0.933333
0.94902 0.94902 0.94902
0.960784 0.960784 0.960784
0.27451 0.27451 0.27451
0.286275 0.286275 0.286275
0.313725 0.313725 0.313725
0.341176 0.341176 0.341176
0.376471 0.376471 0.376471
0.447059 0.447059 0.447059
0.494118 0.494118 0.494118
0.560784 0.560784 0.560784
0.639216 0.639216 0.639216
0.298039 0.298039 0.298039
0.309804 0.309804 0.309804
0.329412 0.329412 0.329412
0.356863 0.356863 0.356863
0.396078 0.396078 0.396078
0.45098 0.45098 0.45098
0.501961 0.501961 0.501961
0.572549 0.572549 0.572549
0.647059 0.647059 0.647059
0.317647 0.317647 0.317647
0.333333 0.333333 0.333333
0.364706 0.364706 0.364706
0.392157 0.392157 0.392157
0.435294 0.435294 0.435294
0.47451 0.47451 0.47451
0.521569 0.521569 0.521569
0.588235 0.588235 0.588235
0.682353 0.682353 0.682353
0.368627 0.368627 0.368627
0.380392 0.380392 0.380392
0.403922 0.403922 0.403922
0.443137 0.443137 0.443137
0.478431 0.478431 0.478431
0.52549 0.52549 0.52549
0.588235 0.588235 0.588235
0.662745 0.662745 0.662745
0.741176 0.741176 0.741176
0.478431 0.478431 0.478431
0.486275 0.486275 0.486275
0.501961 0.501961 0.501961
0.513725 0.513725 0.513725
0.552941 0.552941 0.552941
0.623529 0.623529 0.623529
0.690196 0.690196 0.690196
0.74902 0.74902 0.74902
0.807843 0.807843 0.807843
0.592157 0.592157 0.592157
0.6 0.6 0.6
0.603922 0.603922 0.603922
0.603922 0.603922 0.603922
0.627451 0.627451 0.627451
0.678431 0.678431 0.678431
0.752941 0.752941 0.752941
0.811765 0.811765 0.811765
0.866667 0.866667 0.866667
0.705882 0.705882 0.705882
0.705882 0.705882 0.705882
0.709804 0.709804 0.709804
0.709804 0.709804 0.709804
0.713725 0.713725 0.713725
0.756863 0.756863 0.756863
0.8 0.8 0.8
0.858824 0.858824 0.858824
0.901961 0.901961 0.901961
0.811765 0.811765 0.811765
0.811765 0.811765 0.811765
0.815686 0.815686 0.815686
0.815686 0.815686 0.815686
0.819608 0.819608 0.819608
0.839216 0.839216 0.839216
0.870588 0.870588 0.870588
0.898039 0.898039 0.898039
0.929412 0.929412 0.929412
0.901961 0.901961 0.901961
0.901961 0.901961 0.901961
0.905882 0.905882 0.905882
0.905882 0.905882 0.905882
0.909804 0.909804 0.909804
0.917647 0.917647 0.917647
0.933333 0.933333 0.933333
0.952941 0.952941 0.952941
0.960784 0.960784 0.960784
0.356863 0.356863 0.356863
0.364706 0.364706 0.364706
0.388235 0.388235 0.388235
0.419608 0.419608 0.419608
0.447059 0.447059 0.447059
0.478431 0.478431 0.478431
0.568627 0.568627 0.568627
0.639216 0.639216 0.639216
0.705882 0.705882 0.705882
0.372549 0.372549 0.372549
0.380392 0.380392 0.380392
0.4 0.4 0.4
0.431373 0.431373 0.431373
0.458824 0.458824 0.458824
0.490196 0.490196 0.490196
0.580392 0.580392 0.580392
0.643137 0.643137 0.643137
0.709804 0.709804 0.709804
0.403922 0.403922 0.403922
0.415686 0.415686 0.415686
0.431373 0.431373 0.431373
0.458824 0.458824 0.458824
0.486275 0.486275 0.486275
0.52549 0.52549 0.52549
0.6 0.6 0.6
0.658824 0.658824 0.658824
0.721569 0.721569 0.721569
0.427451 0.427451 0.427451
0.435294 0.435294 0.435294
0.458824 0.458824 0.458824
0.501961 0.501961 0.501961
0.533333 0.533333 0.533333
0.576471 0.576471 0.576471
0.627451 0.627451 0.627451
0.682353 0.682353 0.682353
0.737255 0.737255 0.737255
0.490196 0.490196 0.490196
0.498039 0.498039 0.498039
0.517647 0.517647 0.517647
0.54902 0.54902 0.54902
0.592157 0.592157 0.592157
0.631373 0.631373 0.631373
0.682353 0.682353 0.682353
0.741176 0.741176 0.741176
0.8 0.8 0.8
0.615686 0.615686 0.615686
0.619608 0.619608 0.619608
0.635294 0.635294 0.635294
0.654902 0.654902 0.654902
0.666667 0.666667 0.666667
0.705882 0.705882 0.705882
0.764706 0.764706 0.764706
0.823529 0.823529 0.823529
0.862745 0.862745 0.862745
0.733333 0.733333 0.733333
0.737255 0.737255 0.737255
0.745098 0.745098 0.745098
0.752941 0.752941 0.752941
0.752941 0.752941 0.752941
0.772549 0.772549 0.772549
0.811765 0.811765 0.811765
0.866667 0.866667 0.866667
0.905882 0.905882 0.905882
0.835294 0.835294 0.835294
0.839216 0.839216 0.839216
0.839216 0.839216 0.839216
0.839216 0.839216 0.839216
0.839216 0.839216 0.839216
0.847059 0.847059 0.847059
0.878431 0.878431 0.878431
0.901961 0.901961 0.901961
0.937255 0.937255 0.937255
0.913725 0.913725 0.913725
0.913725 0.913725 0.913725
0.913725 0.913725 0.913725
0.917647 0.917647 0.917647
0.917647 0.917647 0.917647
0.921569 0.921569 0.921569
0.937255 0.937255 0.937255
0.952941 0.952941 0.952941
0.960784 0.960784 0.960784
0.447059 0.447059 0.447059
0.458824 0.458824 0.458824
0.478431 0.478431 0.478431
0.505882 0.505882 0.505882
0.545098 0.545098 0.545098
0.572549 0.572549 0.572549
0.592157 0.592157 0.592157
0.694118 0.694118 0.694118
0.772549 0.772549 0.772549
0.458824 0.458824 0.458824
0.470588 0.470588 0.470588
0.486275 0.486275 0.486275
0.513725 0.513725 0.513725
0.552941 0.552941 0.552941
0.580392 0.580392 0.580392
0.603922 0.603922 0.603922
0.701961 0.701961 0.701961
0.776471 0.776471 0.776471
0.490196 0.490196 0.490196
0.498039 0.498039 0.498039
0.513725 0.513725 0.513725
0.537255 0.537255 0.537255
0.576471 0.576471 0.576471
0.603922 0.603922 0.603922
0.631373 0.631373 0.631373
0.721569 0.721569 0.721569
0.784314 0.784314 0.784314
0.509804 0.509804 0.509804
0.52549 0.52549 0.52549
0.556863 0.556863 0.556863
0.580392 0.580392 0.580392
0.611765 0.611765 0.611765
0.639216 0.639216 0.639216
0.67451 0.67451 0.67451
0.752941 0.752941 0.752941
0.796078 0.796078 0.796078
0.556863 0.556863 0.556863
0.564706 0.564706 0.564706
0.584314 0.584314 0.584314
0.611765 0.611765 0.611765
0.658824 0.658824 0.658824
0.686275 0.686275 0.686275
0.72549 0.72549 0.72549
0.772549 0.772549 0.772549
0.811765 0.811765 0.811765
0.631373 0.631373 0.631373
0.635294 0.635294 0.635294
0.65098 0.65098 0.65098
0.670588 0.670588 0.670588
0.698039 0.698039 0.698039
0.737255 0.737255 0.737255
0.772549 0.772549 0.772549
0.811765 0.811765 0.811765
0.854902 0.854902 0.854902
0.74902 0.74902 0.74902
0.752941 0.752941 0.752941
0.760784 0.760784 0.760784
0.772549 0.772549 0.772549
0.792157 0.792157 0.792157
0.803922 0.803922 0.803922
0.831373 0.831373 0.831373
0.878431 0.878431 0.878431
0.913725 0.913725 0.913725
0.847059 0.847059 0.847059
0.85098 0.85098 0.85098
0.854902 0.854902 0.854902
0.862745 0.862745 0.862745
0.870588 0.870588 0.870588
0.870588 0.870588 0.870588
0.886275 0.886275 0.886275
0.913725 0.913725 0.913725
0.941176 0.941176 0.941176
0.921569 0.921569 0.921569
0.92549 0.92549 0.92549
0.92549 0.92549 0.92549
0.929412 0.929412 0.929412
0.929412 0.929412 0.929412
0.933333 0.933333 0.933333
0.937255 0.937255 0.937255
0.956863 0.956863 0.956863
0.964706 0.964706 0.964706
0.576471 0.576471 0.576471
0.584314 0.584314 0.584314
0.6 0.6 0.6
0.623529 0.623529 0.623529
0.654902 0.654902 0.654902
0.694118 0.694118 0.694118
0.709804 0.709804 0.709804
0.713725 0.713725 0.713725
0.8 0.8 0.8
0.584314 0.584314 0.584314
0.592157 0.592157 0.592157
0.607843 0.607843 0.607843
0.627451 0.627451 0.627451
0.658824 0.658824 0.658824
0.698039 0.698039 0.698039
0.717647 0.717647 0.717647
0.72549 0.72549 0.72549
0.807843 0.807843 0.807843
0.607843 0.607843 0.607843
0.615686 0.615686 0.615686
0.627451 0.627451 0.627451
0.647059 0.647059 0.647059
0.678431 0.678431 0.678431
0.709804 0.709804 0.709804
0.729412 0.729412 0.729412
0.741176 0.741176 0.741176
0.819608 0.819608 0.819608
0.639216 0.639216 0.639216
0.65098 0.65098 0.65098
0.662745 0.662745 0.662745
0.678431 0.678431 0.678431
0.701961 0.701961 0.701961
0.733333 0.733333 0.733333
0.752941 0.752941 0.752941
0.772549 0.772549 0.772549
0.835294 0.835294 0.835294
0.647059 0.647059 0.647059
0.654902 0.654902 0.654902
0.67451 0.67451 0.67451
0.709804 0.709804 0.709804
0.737255 0.737255 0.737255
0.760784 0.760784 0.760784
0.780392 0.780392 0.780392
0.807843 0.807843 0.807843
0.862745 0.862745 0.862745
0.705882 0.705882 0.705882
0.709804 0.709804 0.709804
0.717647 0.717647 0.717647
0.733333 0.733333 0.733333
0.756863 0.756863 0.756863
0.792157 0.792157 0.792157
0.815686 0.815686 0.815686
0.847059 0.847059 0.847059
0.878431 0.878431 0.878431
0.760784 0.760784 0.760784
0.764706 0.764706 0.764706
0.772549 0.772549 0.772549
0.784314 0.784314 0.784314
0.803922 0.803922 0.803922
0.827451 0.827451 0.827451
0.854902 0.854902 0.854902
0.882353 0.882353 0.882353
0.905882 0.905882 0.905882
0.858824 0.858824 0.858824
0.862745 0.862745 0.862745
0.866667 0.866667 0.866667
0.87451 0.87451 0.87451
0.882353 0.882353 0.882353
0.894118 0.894118 0.894118
0.901961 0.901961 0.901961
0.921569 0.921569 0.921569
0.94902 0.94902 0.94902
0.929412 0.929412 0.929412
0.929412 0.929412 0.929412
0.933333 0.933333 0.933333
0.937255 0.937255 0.937255
0.941176 0.941176 0.941176
0.945098 0.945098 0.945098
0.94902 0.94902 0.94902
0.956863 0.956863 0.956863
0.968627 0.968627 0.968627
0.729412 0.729412 0.729412
0.733333 0.733333 0.733333
0.741176 0.741176 0.741176
0.756863 0.756863 0.756863
0.776471 0.776471 0.776471
0.8 0.8 0.8
0.823529 0.823529 0.823529
0.835294 0.835294 0.835294
0.835294 0.835294 0.835294
0.733333 0.733333 0.733333
0.737255 0.737255 0.737255
0.745098 0.745098 0.745098
0.760784 0.760784 0.760784
0.780392 0.780392 0.780392
0.803922 0.803922 0.803922
0.827451 0.827451 0.827451
0.839216 0.839216 0.839216
0.839216 0.839216 0.839216
0.745098 0.745098 0.745098
0.74902 0.74902 0.74902
0.756863 0.756863 0.756863
0.772549 0.772549 0.772549
0.788235 0.788235 0.788235
0.811765 0.811765 0.811765
0.835294 0.835294 0.835294
0.847059 0.847059 0.847059
0.847059 0.847059 0.847059
0.764706 0.764706 0.764706
0.768627 0.768627 0.768627
0.776471 0.776471 0.776471
0.788235 0.788235 0.788235
0.803922 0.803922 0.803922
0.823529 0.823529 0.823529
0.847059 0.847059 0.847059
0.854902 0.854902 0.854902
0.858824 0.858824 0.858824
0.776471 0.776471 0.776471
0.780392 0.780392 0.780392
0.792157 0.792157 0.792157
0.807843 0.807843 0.807843
0.823529 0.823529 0.823529
0.839216 0.839216 0.839216
0.858824 0.858824 0.858824
0.870588 0.870588 0.870588
0.87451 0.87451 0.87451
0.788235 0.788235 0.788235
0.792157 0.792157 0.792157
0.796078 0.796078 0.796078
0.811765 0.811765 0.811765
0.839216 0.839216 0.839216
0.858824 0.858824 0.858824
0.878431 0.878431 0.878431
0.890196 0.890196 0.890196
0.901961 0.901961 0.901961
0.831373 0.831373 0.831373
0.831373 0.831373 0.831373
0.835294 0.835294 0.835294
0.843137 0.843137 0.843137
0.854902 0.854902 0.854902
0.870588 0.870588 0.870588
0.898039 0.898039 0.898039
0.909804 0.909804 0.909804
0.929412 0.929412 0.929412
0.870588 0.870588 0.870588
0.870588 0.870588 0.870588
0.878431 0.878431 0.878431
0.882353 0.882353 0.882353
0.890196 0.890196 0.890196
0.901961 0.901961 0.901961
0.917647 0.917647 0.917647
0.937255 0.937255 0.937255
0.94902 0.94902 0.94902
0.937255 0.937255 0.937255
0.937255 0.937255 0.937255
0.937255 0.937255 0.937255
0.941176 0.941176 0.941176
0.945098 0.945098 0.945098
0.952941 0.952941 0.952941
0.956863 0.956863 0.956863
0.964706 0.964706 0.964706
0.968627 0.968627 0.968627
0.858824 0.858824 0.858824
0.862745 0.862745 0.862745
0.866667 0.866667 0.866667
0.87451 0.87451 0.87451
0.886275 0.886275 0.886275
0.898039 0.898039 0.898039
0.909804 0.909804 0.909804
0.921569 0.921569 0.921569
0.92549 0.92549 0.92549
0.862745 0.862745 0.862745
0.866667 0.866667 0.866667
0.870588 0.870588 0.870588
0.878431 0.878431 0.878431
0.886275 0.886275 0.886275
0.898039 0.898039 0.898039
0.909804 0.909804 0.909804
0.921569 0.921569 0.921569
0.92549 0.92549 0.92549
0.870588 0.870588 0.870588
0.870588 0.870588 0.870588
0.87451 0.87451 0.87451
0.882353 0.882353 0.882353
0.890196 0.890196 0.890196
0.901961 0.901961 0.901961
0.913725 0.913725 0.913725
0.92549 0.92549 0.92549
0.929412 0.929412 0.929412
0.878431 0.878431 0.878431
0.878431 0.878431 0.878431
0.882353 0.882353 0.882353
0.890196 0.890196 0.890196
0.898039 0.898039 0.898039
0.905882 0.905882 0.905882
0.917647 0.917647 0.917647
0.929412 0.929412 0.929412
0.933333 0.933333 0.933333
0.886275 0.886275 0.886275
0.886275 0.886275 0.886275
0.890196 0.890196 0.890196
0.898039 0.898039 0.898039
0.905882 0.905882 0.905882
0.913725 0.913725 0.913725
0.92549 0.92549 0.92549
0.937255 0.937255 0.937255
0.941176 0.941176 0.941176
0.882353 0.882353 0.882353
0.886275 0.886275 0.886275
0.894118 0.894118 0.894118
0.901961 0.901961 0.901961
0.913725 0.913725 0.913725
0.921569 0.921569 0.921569
0.933333 0.933333 0.933333
0.941176 0.941176 0.941176
0.94902 0.94902 0.94902
0.901961 0.901961 0.901961
0.901961 0.901961 0.901961
0.901961 0.901961 0.901961
0.905882 0.905882 0.905882
0.913725 0.913725 0.913725
0.929412 0.929412 0.929412
0.941176 0.941176 0.941176
0.952941 0.952941 0.952941
0.956863 0.956863 0.956863
0.92549 0.92549 0.92549
0.929412 0.929412 0.929412
0.929412 0.929412 0.929412
0.933333 0.933333 0.933333
0.937255 0.937255 0.937255
0.941176 0.941176 0.941176
0.94902 0.94902 0.94902
0.960784 0.960784 0.960784
0.964706 0.964706 0.964706
0.94902 0.94902 0.94902
0.94902 0.94902 0.94902
0.94902 0.94902 0.94902
0.94902 0.94902 0.94902
0.952941 0.952941 0.952941
0.956863 0.956863 0.956863
0.960784 0.960784 0.960784
0.968627 0.968627 0.968627
0.972549 0.972549 0.972549
