example-Advanced/bin/data/ofxGpuLutCube/LUT/Dramatic-44.cube
TITLE "Generated by 3D LUT Creator (c) Oleg Sharonov"
LUT_3D_SIZE 5
0.0612 0.0433 0.0425
0.1279 0.0569 0.0471
0.2722 0.0608 0.0614
0.4754 0.1183 0.0841
0.6040 0.1829 0.0808
0.0590 0.1286 0.0761
0.1296 0.1328 0.0576
0.2317 0.1629 0.0714
0.3969 0.2130 0.0898
0.6188 0.2989 0.1004
0.0501 0.2583 0.1437
0.0966 0.2808 0.0775
0.3127 0.2929 0.0962
0.4820 0.3257 0.1126
0.6775 0.4514 0.1197
0.1146 0.4687 0.2785
0.1696 0.5214 0.1991
0.3763 0.4683 0.1119
0.5758 0.5330 0.1174
0.7309 0.5871 0.2831
0.2433 0.6176 0.4254
0.2745 0.6328 0.4511
0.5031 0.7023 0.3506
0.6694 0.7161 0.3450
0.7657 0.7593 0.4135
0.0615 0.0667 0.1457
0.1217 0.0731 0.1503
0.2503 0.0677 0.1117
0.5456 0.1096 0.0826
0.6191 0.1973 0.1209
0.0531 0.1822 0.1633
0.0540 0.2091 0.2207
0.3276 0.1853 0.1415
0.5213 0.2141 0.1702
0.6572 0.3422 0.2254
0.0443 0.2808 0.2510
0.0674 0.3411 0.2341
0.3485 0.3556 0.1187
0.5956 0.4233 0.2054
0.7004 0.4830 0.3477
0.1334 0.4910 0.3223
0.1597 0.5061 0.3115
0.3287 0.5569 0.2715
0.6330 0.6200 0.2819
0.7405 0.6019 0.4019
0.2659 0.6416 0.4641
0.3029 0.6618 0.5100
0.4482 0.7082 0.5327
0.6770 0.7257 0.4375
0.7752 0.7689 0.4816
0.0779 0.1162 0.3311
0.1291 0.1227 0.3057
0.2315 0.1311 0.2689
0.4262 0.2042 0.2612
0.6208 0.3253 0.3899
0.0458 0.2844 0.2857
0.0874 0.1987 0.3890
0.2322 0.1632 0.4196
0.4991 0.2895 0.3172
0.7094 0.4166 0.4378
0.0984 0.3912 0.3617
0.1055 0.4019 0.3929
0.2263 0.4181 0.4693
0.5892 0.4906 0.4682
0.7399 0.5035 0.5132
0.1801 0.5456 0.4602
0.2112 0.5711 0.4681
0.3413 0.6141 0.5355
0.6521 0.6291 0.5059
0.7851 0.6907 0.5785
0.3296 0.6992 0.5864
0.3751 0.7175 0.5980
0.4813 0.7788 0.6496
0.6878 0.8027 0.6284
0.8166 0.8500 0.6512
0.0962 0.1281 0.6012
0.2087 0.1272 0.5382
0.3764 0.1779 0.5439
0.6254 0.3153 0.5275
0.7235 0.4025 0.5727
0.0988 0.3787 0.5133
0.1658 0.3012 0.5789
0.3985 0.3005 0.6149
0.6236 0.3857 0.5545
0.7237 0.4610 0.5934
0.1490 0.5242 0.5573
0.2062 0.5443 0.5756
0.4005 0.5217 0.6318
0.6806 0.5118 0.6417
0.7626 0.5783 0.6637
0.2809 0.6473 0.6423
0.3321 0.6654 0.6419
0.4485 0.7168 0.7000
0.6692 0.7456 0.7417
0.8120 0.7898 0.7616
0.4288 0.7841 0.7597
0.4622 0.8122 0.7787
0.5390 0.8597 0.8245
0.6846 0.8894 0.8568
0.8535 0.9001 0.8516
0.2486 0.3160 0.7729
0.4117 0.2830 0.7681
0.5944 0.3490 0.7463
0.7111 0.3853 0.7155
0.8074 0.4464 0.7640
0.2443 0.5095 0.7098
0.3630 0.4148 0.7647
0.5697 0.3960 0.7989
0.7316 0.4158 0.7673
0.8379 0.5062 0.8085
0.3120 0.6362 0.7047
0.3748 0.6421 0.7125
0.5376 0.6015 0.8334
0.7349 0.5449 0.8650
0.8519 0.6429 0.8216
0.4108 0.7472 0.7885
0.4402 0.7669 0.8043
0.5365 0.8183 0.8508
0.6919 0.8363 0.8883
0.8860 0.8138 0.9034
0.5405 0.8799 0.9018
0.5829 0.8892 0.9092
0.6572 0.9103 0.9281
0.7543 0.9300 0.9483
0.8870 0.9451 0.9684
