example-Advanced/bin/data/ofxGpuLutCube/LUT/Dramatic-48.cube
#Generated by Picture Instruments - Look Creator
TITLE "Kodak Ektachrome 64++"
LUT_3D_SIZE 9
0.105882 0.109804 0.117647
0.129412 0.113725 0.109804
0.172549 0.117647 0.113725
0.231373 0.121569 0.105882
0.321569 0.129412 0.105882
0.431373 0.12549 0.0823529
0.568627 0.141176 0.0627451
0.701961 0.152941 0.0196078
0.823529 0.172549 0.00392157
0.105882 0.145098 0.113725
0.137255 0.14902 0.121569
0.180392 0.145098 0.109804
0.247059 0.14902 0.105882
0.337255 0.152941 0.0901961
0.470588 0.176471 0.0784314
0.588235 0.180392 0.0392157
0.72549 0.203922 0.0117647
0.839216 0.219608 0
0.117647 0.211765 0.141176
0.141176 0.215686 0.137255
0.196078 0.215686 0.129412
0.286275 0.235294 0.129412
0.392157 0.235294 0.0980392
0.513725 0.25098 0.0823529
0.627451 0.254902 0.0235294
0.74902 0.282353 0
0.854902 0.294118 0
0.113725 0.317647 0.160784
0.145098 0.32549 0.156863
0.203922 0.32549 0.160784
0.294118 0.329412 0.141176
0.415686 0.34902 0.113725
0.556863 0.364706 0.0784314
0.686275 0.372549 0.0196078
0.792157 0.380392 0.00392157
0.890196 0.392157 0
0.109804 0.458824 0.192157
0.141176 0.466667 0.180392
0.219608 0.458824 0.180392
0.305882 0.454902 0.168627
0.415686 0.458824 0.141176
0.560784 0.478431 0.0862745
0.698039 0.494118 0.0313725
0.823529 0.498039 0.00392157
0.92549 0.501961 0
0.12549 0.596078 0.235294
0.141176 0.596078 0.215686
0.231373 0.596078 0.219608
0.32549 0.584314 0.211765
0.439216 0.588235 0.2
0.560784 0.592157 0.160784
0.705882 0.611765 0.0705882
0.827451 0.615686 0.0235294
0.92549 0.619608 0.00392157
0.207843 0.72549 0.309804
0.215686 0.733333 0.294118
0.266667 0.713725 0.270588
0.368627 0.717647 0.282353
0.458824 0.701961 0.270588
0.580392 0.709804 0.247059
0.682353 0.701961 0.196078
0.819608 0.72549 0.113725
0.929412 0.737255 0.0705882
0.321569 0.839216 0.403922
0.313725 0.831373 0.380392
0.356863 0.835294 0.380392
0.431373 0.835294 0.376471
0.509804 0.823529 0.368627
0.603922 0.819608 0.360784
0.705882 0.823529 0.337255
0.811765 0.835294 0.301961
0.921569 0.843137 0.243137
0.509804 0.960784 0.560784
0.494118 0.94902 0.541176
0.521569 0.952941 0.541176
0.568627 0.952941 0.541176
0.635294 0.952941 0.552941
0.701961 0.94902 0.560784
0.780392 0.952941 0.560784
0.854902 0.956863 0.545098
0.929412 0.964706 0.529412
0.105882 0.105882 0.145098
0.141176 0.121569 0.14902
0.172549 0.117647 0.133333
0.243137 0.133333 0.141176
0.333333 0.137255 0.129412
0.447059 0.137255 0.113725
0.576471 0.14902 0.0823529
0.709804 0.168627 0.0235294
0.831373 0.192157 0
0.117647 0.156863 0.160784
0.145098 0.14902 0.156863
0.184314 0.152941 0.145098
0.254902 0.156863 0.141176
0.352941 0.164706 0.133333
0.470588 0.168627 0.117647
0.588235 0.172549 0.0745098
0.721569 0.2 0.0156863
0.835294 0.223529 0.00392157
0.129412 0.223529 0.172549
0.14902 0.219608 0.164706
0.2 0.227451 0.164706
0.294118 0.235294 0.156863
0.403922 0.239216 0.141176
0.513725 0.239216 0.113725
0.631373 0.254902 0.0745098
0.74902 0.270588 0.0156863
0.862745 0.298039 0
0.129412 0.32549 0.196078
0.152941 0.337255 0.192157
0.211765 0.329412 0.184314
0.298039 0.333333 0.164706
0.431373 0.352941 0.14902
0.564706 0.360784 0.12549
0.686275 0.360784 0.0705882
0.792157 0.372549 0.0117647
0.886275 0.384314 0
0.14902 0.470588 0.239216
0.160784 0.478431 0.219608
0.215686 0.458824 0.2
0.313725 0.466667 0.203922
0.423529 0.462745 0.172549
0.564706 0.482353 0.129412
0.701961 0.490196 0.0901961
0.827451 0.498039 0.0392157
0.913725 0.494118 0
0.172549 0.596078 0.278431
0.180392 0.603922 0.266667
0.231373 0.596078 0.243137
0.329412 0.588235 0.239216
0.447059 0.588235 0.227451
0.572549 0.6 0.2
0.713725 0.615686 0.129412
0.835294 0.623529 0.101961
0.929412 0.615686 0.0352941
0.235294 0.721569 0.341176
0.243137 0.72549 0.329412
0.278431 0.721569 0.305882
0.368627 0.713725 0.301961
0.466667 0.705882 0.298039
0.572549 0.705882 0.266667
0.698039 0.713725 0.239216
0.831373 0.733333 0.168627
0.933333 0.741176 0.145098
0.333333 0.827451 0.423529
0.333333 0.827451 0.407843
0.360784 0.835294 0.392157
0.435294 0.831373 0.392157
0.52549 0.831373 0.4
0.611765 0.823529 0.388235
0.709804 0.823529 0.356863
0.807843 0.827451 0.321569
0.917647 0.847059 0.27451
0.513725 0.94902 0.572549
0.513725 0.94902 0.560784
0.517647 0.94902 0.545098
0.576471 0.956863 0.560784
0.639216 0.956863 0.564706
0.709804 0.952941 0.576471
0.780392 0.956863 0.572549
0.862745 0.964706 0.568627
0.937255 0.968627 0.552941
0.133333 0.121569 0.227451
0.141176 0.109804 0.203922
0.188235 0.12549 0.2
0.254902 0.12549 0.196078
0.333333 0.0941176 0.164706
0.439216 0.0980392 0.156863
0.568627 0.101961 0.145098
0.713725 0.129412 0.117647
0.823529 0.145098 0.0235294
0.117647 0.14902 0.223529
0.14902 0.152941 0.223529
0.2 0.156863 0.211765
0.270588 0.160784 0.207843
0.356863 0.156863 0.188235
0.466667 0.14902 0.172549
0.6 0.160784 0.156863
0.729412 0.176471 0.117647
0.831373 0.188235 0.027451
0.129412 0.223529 0.239216
0.156863 0.227451 0.239216
0.215686 0.231373 0.235294
0.301961 0.231373 0.223529
0.4 0.227451 0.203922
0.509804 0.227451 0.184314
0.631373 0.235294 0.160784
0.752941 0.25098 0.117647
0.858824 0.270588 0.0392157
0.141176 0.341176 0.270588
0.168627 0.345098 0.266667
0.239216 0.360784 0.266667
0.329412 0.352941 0.247059
0.45098 0.356863 0.223529
0.576471 0.352941 0.207843
0.678431 0.352941 0.172549
0.792157 0.364706 0.141176
0.878431 0.364706 0.0431373
0.160784 0.478431 0.309804
0.188235 0.486275 0.305882
0.243137 0.486275 0.286275
0.333333 0.478431 0.278431
0.447059 0.478431 0.25098
0.592157 0.494118 0.227451
0.717647 0.490196 0.203922
0.835294 0.490196 0.176471
0.921569 0.490196 0.117647
0.196078 0.603922 0.34902
0.231373 0.615686 0.352941
0.270588 0.611765 0.32549
0.356863 0.607843 0.309804
0.462745 0.596078 0.298039
0.584314 0.603922 0.27451
0.729412 0.623529 0.235294
0.835294 0.619608 0.215686
0.933333 0.611765 0.192157
0.262745 0.717647 0.4
0.294118 0.72549 0.407843
0.32549 0.729412 0.384314
0.380392 0.713725 0.356863
0.486275 0.717647 0.360784
0.588235 0.709804 0.341176
0.705882 0.717647 0.309804
0.843137 0.741176 0.258824
0.937255 0.741176 0.25098
0.368627 0.827451 0.478431
0.4 0.839216 0.490196
0.4 0.835294 0.458824
0.447059 0.831373 0.439216
0.537255 0.835294 0.443137
0.615686 0.819608 0.431373
0.717647 0.831373 0.415686
0.819608 0.839216 0.384314
0.933333 0.858824 0.345098
0.54902 0.952941 0.619608
0.54902 0.952941 0.611765
0.552941 0.94902 0.592157
0.588235 0.956863 0.588235
0.647059 0.956863 0.596078
0.713725 0.94902 0.6
0.784314 0.956863 0.603922
0.866667 0.964706 0.6
0.941176 0.972549 0.588235
0.137255 0.117647 0.341176
0.164706 0.113725 0.329412
0.223529 0.117647 0.317647
0.290196 0.121569 0.298039
0.396078 0.113725 0.298039
0.490196 0.0509804 0.270588
0.576471 0.00392157 0.211765
0.694118 0.0196078 0.2
0.819608 0.0470588 0.172549
0.129412 0.152941 0.337255
0.164706 0.152941 0.337255
0.227451 0.152941 0.329412
0.298039 0.156863 0.309804
0.407843 0.160784 0.313725
0.498039 0.105882 0.270588
0.584314 0.0627451 0.227451
0.709804 0.0745098 0.207843
0.839216 0.109804 0.172549
0.0980392 0.215686 0.341176
0.141176 0.223529 0.34902
0.235294 0.231373 0.352941
0.333333 0.243137 0.337255
0.431373 0.243137 0.329412
0.509804 0.2 0.270588
0.615686 0.203922 0.25098
0.74902 0.223529 0.231373
0.862745 0.231373 0.188235
0.121569 0.341176 0.364706
0.160784 0.352941 0.372549
0.239216 0.360784 0.372549
0.372549 0.376471 0.384314
0.470588 0.360784 0.34902
0.580392 0.360784 0.333333
0.678431 0.34902 0.294118
0.780392 0.341176 0.254902
0.886275 0.352941 0.211765
0.156863 0.486275 0.4
0.196078 0.494118 0.411765
0.27451 0.501961 0.407843
0.380392 0.505882 0.4
0.494118 0.505882 0.384314
0.623529 0.505882 0.364706
0.74902 0.505882 0.352941
0.823529 0.482353 0.301961
0.913725 0.47451 0.254902
0.219608 0.615686 0.443137
0.247059 0.619608 0.447059
0.317647 0.623529 0.439216
0.392157 0.611765 0.419608
0.494118 0.611765 0.415686
0.603922 0.607843 0.384314
0.741176 0.627451 0.368627
0.843137 0.615686 0.345098
0.941176 0.619608 0.333333
0.266667 0.721569 0.47451
0.309804 0.733333 0.490196
0.364706 0.733333 0.482353
0.431373 0.733333 0.466667
0.509804 0.721569 0.447059
0.615686 0.721569 0.443137
0.713725 0.717647 0.411765
0.847059 0.745098 0.376471
0.941176 0.741176 0.368627
0.352941 0.831373 0.529412
0.384314 0.839216 0.533333
0.443137 0.839216 0.545098
0.494118 0.839216 0.533333
0.552941 0.835294 0.513725
0.643137 0.835294 0.517647
0.737255 0.839216 0.498039
0.819608 0.835294 0.462745
0.941176 0.866667 0.431373
0.517647 0.956863 0.639216
0.533333 0.94902 0.639216
0.588235 0.956863 0.658824
0.611765 0.956863 0.647059
0.654902 0.956863 0.635294
0.721569 0.952941 0.643137
0.796078 0.956863 0.65098
0.866667 0.964706 0.639216
0.941176 0.972549 0.631373
0.133333 0.0980392 0.458824
0.176471 0.0980392 0.462745
0.247059 0.0901961 0.458824
0.337255 0.0901961 0.443137
0.419608 0.0823529 0.423529
0.537255 0.0784314 0.419608
0.639216 0.0392157 0.396078
0.733333 0 0.345098
0.815686 0 0.270588
0.137255 0.145098 0.462745
0.164706 0.133333 0.458824
0.247059 0.137255 0.466667
0.34902 0.145098 0.458824
0.435294 0.141176 0.435294
0.556863 0.156863 0.439216
0.647059 0.0980392 0.4
0.74902 0.0235294 0.352941
0.831373 0 0.290196
0.0941176 0.211765 0.470588
0.152941 0.219608 0.478431
0.243137 0.219608 0.482353
0.352941 0.227451 0.47451
0.462745 0.243137 0.462745
0.572549 0.262745 0.45098
0.662745 0.223529 0.411765
0.745098 0.14902 0.341176
0.839216 0.160784 0.305882
0.0745098 0.333333 0.490196
0.12549 0.333333 0.494118
0.223529 0.337255 0.501961
0.376471 0.360784 0.505882
0.501961 0.380392 0.501961
0.6 0.388235 0.482353
0.662745 0.329412 0.411765
0.74902 0.309804 0.364706
0.870588 0.309804 0.329412
0.152941 0.478431 0.517647
0.192157 0.486275 0.521569
0.290196 0.505882 0.533333
0.403922 0.513725 0.541176
0.541176 0.521569 0.537255
0.635294 0.509804 0.513725
0.721569 0.490196 0.47451
0.807843 0.466667 0.419608
0.898039 0.454902 0.368627
0.223529 0.619608 0.54902
0.254902 0.623529 0.552941
0.333333 0.635294 0.556863
0.431373 0.631373 0.556863
0.54902 0.643137 0.556863
0.654902 0.639216 0.541176
0.768627 0.639216 0.529412
0.862745 0.631373 0.513725
0.941176 0.611765 0.466667
0.282353 0.733333 0.572549
0.301961 0.733333 0.572549
0.356863 0.729412 0.568627
0.454902 0.741176 0.572549
0.564706 0.741176 0.580392
0.627451 0.717647 0.545098
0.745098 0.737255 0.545098
0.854902 0.741176 0.513725
0.94902 0.741176 0.509804
0.321569 0.843137 0.6
0.34902 0.847059 0.6
0.407843 0.843137 0.603922
0.505882 0.839216 0.607843
0.588235 0.839216 0.611765
0.658824 0.839216 0.6
0.733333 0.831373 0.580392
0.827451 0.831373 0.556863
0.94902 0.870588 0.537255
0.45098 0.956863 0.666667
0.478431 0.964706 0.67451
0.533333 0.960784 0.686275
0.619608 0.960784 0.701961
0.682353 0.956863 0.705882
0.737255 0.960784 0.698039
0.807843 0.964706 0.713725
0.87451 0.968627 0.698039
0.941176 0.972549 0.686275
0.168627 0.0823529 0.584314
0.211765 0.0745098 0.6
0.27451 0.0392157 0.596078
0.364706 0.0156863 0.584314
0.470588 0.027451 0.576471
0.568627 0.0313725 0.560784
0.67451 0.0901961 0.552941
0.768627 0.14902 0.537255
0.862745 0.0941176 0.501961
0.160784 0.129412 0.588235
0.203922 0.129412 0.603922
0.270588 0.113725 0.6
0.380392 0.101961 0.603922
0.494118 0.12549 0.6
0.588235 0.117647 0.580392
0.690196 0.176471 0.568627
0.784314 0.203922 0.54902
0.87451 0.160784 0.513725
0.12549 0.203922 0.592157
0.168627 0.196078 0.596078
0.262745 0.203922 0.607843
0.372549 0.207843 0.611765
0.498039 0.231373 0.603922
0.592157 0.239216 0.584314
0.698039 0.286275 0.580392
0.784314 0.286275 0.552941
0.87451 0.247059 0.509804
0.0313725 0.301961 0.607843
0.117647 0.313725 0.627451
0.262745 0.333333 0.631373
0.384314 0.337255 0.627451
0.513725 0.360784 0.623529
0.627451 0.388235 0.619608
0.721569 0.423529 0.607843
0.796078 0.388235 0.568627
0.870588 0.32549 0.494118
0.101961 0.454902 0.627451
0.176471 0.466667 0.639216
0.258824 0.466667 0.639216
0.368627 0.462745 0.635294
0.545098 0.505882 0.658824
0.658824 0.529412 0.65098
0.737255 0.529412 0.631373
0.788235 0.458824 0.54902
0.87451 0.435294 0.498039
0.239216 0.607843 0.662745
0.270588 0.611765 0.662745
0.341176 0.619608 0.666667
0.443137 0.631373 0.678431
0.560784 0.631373 0.670588
0.698039 0.658824 0.690196
0.772549 0.647059 0.666667
0.839216 0.611765 0.607843
0.917647 0.592157 0.560784
0.317647 0.74902 0.698039
0.333333 0.745098 0.690196
0.384314 0.745098 0.686275
0.470588 0.74902 0.686275
0.584314 0.74902 0.694118
0.701961 0.756863 0.698039
0.764706 0.745098 0.670588
0.866667 0.74902 0.666667
0.94902 0.752941 0.662745
0.356863 0.862745 0.713725
0.376471 0.854902 0.701961
0.431373 0.862745 0.709804
0.490196 0.847059 0.698039
0.6 0.858824 0.709804
0.701961 0.847059 0.713725
0.760784 0.839216 0.694118
0.854902 0.85098 0.678431
0.94902 0.866667 0.662745
0.407843 0.976471 0.737255
0.427451 0.972549 0.741176
0.466667 0.976471 0.737255
0.552941 0.968627 0.745098
0.662745 0.960784 0.752941
0.756863 0.960784 0.772549
0.815686 0.960784 0.768627
0.886275 0.968627 0.768627
0.945098 0.972549 0.752941
0.219608 0.027451 0.709804
0.254902 0.0235294 0.721569
0.321569 0.0117647 0.72549
0.415686 0.00784314 0.729412
0.513725 0.00392157 0.717647
0.607843 0.0117647 0.705882
0.717647 0.0666667 0.705882
0.788235 0.2 0.670588
0.886275 0.329412 0.690196
0.207843 0.0941176 0.717647
0.25098 0.0980392 0.733333
0.321569 0.0823529 0.737255
0.407843 0.0431373 0.737255
0.521569 0.054902 0.733333
0.623529 0.0941176 0.721569
0.729412 0.156863 0.717647
0.819608 0.270588 0.701961
0.901961 0.364706 0.701961
0.2 0.196078 0.721569
0.239216 0.2 0.741176
0.305882 0.196078 0.737255
0.411765 0.2 0.745098
0.521569 0.207843 0.737255
0.631373 0.239216 0.729412
0.737255 0.278431 0.72549
0.811765 0.345098 0.698039
0.890196 0.403922 0.698039
0.160784 0.305882 0.729412
0.219608 0.313725 0.745098
0.305882 0.321569 0.745098
0.415686 0.329412 0.752941
0.52549 0.337255 0.745098
0.654902 0.384314 0.745098
0.737255 0.403922 0.729412
0.815686 0.454902 0.709804
0.894118 0.482353 0.709804
0.101961 0.431373 0.745098
0.156863 0.431373 0.745098
0.258824 0.435294 0.74902
0.407843 0.458824 0.756863
0.537255 0.47451 0.752941
0.67451 0.517647 0.764706
0.768627 0.545098 0.760784
0.835294 0.572549 0.741176
0.901961 0.552941 0.721569
0.215686 0.576471 0.752941
0.254902 0.584314 0.764706
0.317647 0.584314 0.760784
0.403922 0.580392 0.756863
0.533333 0.6 0.772549
0.690196 0.635294 0.776471
0.792157 0.67451 0.784314
0.847059 0.666667 0.768627
0.898039 0.603922 0.694118
0.329412 0.713725 0.780392
0.364706 0.72549 0.792157
0.411765 0.72549 0.788235
0.490196 0.729412 0.788235
0.592157 0.737255 0.788235
0.705882 0.752941 0.8
0.823529 0.784314 0.815686
0.866667 0.752941 0.772549
0.92549 0.72549 0.733333
0.396078 0.854902 0.807843
0.415686 0.858824 0.807843
0.462745 0.862745 0.811765
0.521569 0.85098 0.8
0.611765 0.862745 0.807843
0.705882 0.854902 0.796078
0.807843 0.862745 0.803922
0.870588 0.858824 0.792157
0.952941 0.870588 0.784314
0.470588 0.976471 0.843137
0.47451 0.972549 0.835294
0.505882 0.968627 0.831373
0.560784 0.976471 0.831373
0.631373 0.968627 0.823529
0.713725 0.968627 0.815686
0.815686 0.960784 0.827451
0.886275 0.968627 0.831373
0.956863 0.972549 0.827451
0.294118 0.0117647 0.819608
0.309804 0.00784314 0.823529
0.372549 0.00784314 0.835294
0.447059 0 0.835294
0.541176 0.00392157 0.831373
0.643137 0.0313725 0.831373
0.74902 0.137255 0.827451
0.843137 0.227451 0.827451
0.890196 0.333333 0.792157
0.286275 0.0745098 0.831373
0.317647 0.0705882 0.85098
0.376471 0.0588235 0.854902
0.45098 0.0352941 0.85098
0.54902 0.0352941 0.85098
0.662745 0.12549 0.85098
0.760784 0.207843 0.843137
0.843137 0.262745 0.831373
0.894118 0.360784 0.796078
0.270588 0.184314 0.827451
0.309804 0.196078 0.854902
0.376471 0.196078 0.854902
0.447059 0.184314 0.847059
0.54902 0.192157 0.85098
0.658824 0.247059 0.85098
0.760784 0.305882 0.843137
0.843137 0.345098 0.831373
0.905882 0.435294 0.815686
0.270588 0.309804 0.847059
0.305882 0.317647 0.862745
0.376471 0.32549 0.866667
0.454902 0.32549 0.862745
0.552941 0.333333 0.858824
0.662745 0.364706 0.85098
0.768627 0.419608 0.85098
0.858824 0.458824 0.847059
0.913725 0.52549 0.823529
0.196078 0.411765 0.847059
0.243137 0.419608 0.854902
0.352941 0.443137 0.858824
0.45098 0.454902 0.870588
0.564706 0.466667 0.866667
0.67451 0.490196 0.866667
0.772549 0.533333 0.85098
0.862745 0.564706 0.854902
0.909804 0.607843 0.835294
0.215686 0.541176 0.847059
0.262745 0.560784 0.866667
0.317647 0.556863 0.866667
0.419608 0.560784 0.870588
0.556863 0.584314 0.870588
0.682353 0.607843 0.866667
0.792157 0.643137 0.866667
0.870588 0.666667 0.858824
0.92549 0.705882 0.854902
0.321569 0.686275 0.862745
0.356863 0.698039 0.878431
0.403922 0.698039 0.878431
0.470588 0.694118 0.870588
0.568627 0.701961 0.878431
0.666667 0.713725 0.878431
0.807843 0.752941 0.890196
0.890196 0.780392 0.878431
0.937255 0.788235 0.870588
0.427451 0.815686 0.878431
0.45098 0.823529 0.886275
0.494118 0.831373 0.890196
0.556863 0.839216 0.898039
0.623529 0.831373 0.886275
0.713725 0.839216 0.882353
0.807843 0.858824 0.890196
0.909804 0.890196 0.905882
0.956863 0.866667 0.878431
0.521569 0.972549 0.933333
0.541176 0.976471 0.941176
0.564706 0.972549 0.937255
0.6 0.964706 0.921569
0.666667 0.972549 0.92549
0.733333 0.976471 0.913725
0.811765 0.972549 0.901961
0.905882 0.976471 0.909804
0.972549 0.980392 0.905882
0.380392 0.0666667 0.921569
0.403922 0.0627451 0.933333
0.443137 0.054902 0.933333
0.505882 0.0470588 0.937255
0.580392 0.0352941 0.933333
0.67451 0.152941 0.933333
0.788235 0.282353 0.941176
0.862745 0.341176 0.929412
0.941176 0.407843 0.929412
0.392157 0.141176 0.94902
0.407843 0.129412 0.952941
0.454902 0.137255 0.956863
0.517647 0.12549 0.956863
0.596078 0.133333 0.956863
0.690196 0.211765 0.94902
0.788235 0.309804 0.941176
0.87451 0.372549 0.941176
0.94902 0.431373 0.933333
0.384314 0.227451 0.941176
0.407843 0.231373 0.956863
0.454902 0.235294 0.956863
0.509804 0.235294 0.952941
0.6 0.25098 0.956863
0.690196 0.294118 0.94902
0.792157 0.380392 0.94902
0.886275 0.439216 0.952941
0.941176 0.470588 0.933333
0.384314 0.337255 0.94902
0.403922 0.341176 0.952941
0.454902 0.34902 0.956863
0.52549 0.356863 0.960784
0.6 0.364706 0.952941
0.698039 0.396078 0.956863
0.8 0.466667 0.952941
0.882353 0.513725 0.945098
0.94902 0.54902 0.937255
0.376471 0.45098 0.945098
0.407843 0.462745 0.964706
0.45098 0.466667 0.964706
0.513725 0.466667 0.956863
0.596078 0.47451 0.952941
0.690196 0.490196 0.952941
0.8 0.545098 0.952941
0.886275 0.592157 0.94902
0.952941 0.623529 0.945098
0.364706 0.560784 0.960784
0.388235 0.568627 0.964706
0.427451 0.560784 0.952941
0.521569 0.588235 0.964706
0.603922 0.588235 0.960784
0.705882 0.607843 0.960784
0.8 0.635294 0.952941
0.890196 0.682353 0.952941
0.960784 0.713725 0.956863
0.427451 0.694118 0.968627
0.443137 0.701961 0.976471
0.47451 0.694118 0.972549
0.517647 0.690196 0.968627
0.592157 0.690196 0.964706
0.698039 0.709804 0.964706
0.815686 0.741176 0.976471
0.894118 0.772549 0.960784
0.960784 0.8 0.956863
0.521569 0.831373 0.980392
0.52549 0.827451 0.980392
0.556863 0.827451 0.980392
0.6 0.831373 0.980392
0.647059 0.827451 0.980392
0.717647 0.831373 0.980392
0.8 0.843137 0.976471
0.898039 0.862745 0.972549
0.972549 0.894118 0.968627
0.627451 0.952941 0.988235
0.635294 0.952941 0.988235
0.647059 0.94902 0.988235
0.690196 0.956863 0.988235
0.717647 0.956863 0.988235
0.776471 0.960784 0.988235
0.847059 0.972549 0.988235
0.905882 0.976471 0.988235
0.984314 0.984314 0.988235
