example-Advanced/bin/data/ofxGpuLutCube/LUT/Dramatic-12.cube
#Generated by Picture Instruments - Look Creator
TITLE "Agfa Vista 800 Night-Tungsten+"
LUT_3D_SIZE 9
0.0196078 0.12549 0.235294
0.0509804 0.121569 0.231373
0.12549 0.137255 0.247059
0.223529 0.129412 0.25098
0.34902 0.0745098 0.243137
0.533333 0.00392157 0.25098
0.733333 0 0.258824
0.870588 0 0.243137
0.94902 0 0.258824
0.0509804 0.180392 0.258824
0.0784314 0.168627 0.243137
0.156863 0.160784 0.231373
0.239216 0.152941 0.231373
0.392157 0.141176 0.247059
0.568627 0.0705882 0.247059
0.745098 0.0196078 0.247059
0.890196 0.0156863 0.247059
0.960784 0.0235294 0.262745
0.0862745 0.278431 0.282353
0.121569 0.266667 0.27451
0.196078 0.266667 0.262745
0.32549 0.27451 0.25098
0.454902 0.262745 0.227451
0.603922 0.239216 0.207843
0.780392 0.262745 0.227451
0.901961 0.262745 0.227451
0.972549 0.27451 0.25098
0.156863 0.447059 0.317647
0.192157 0.443137 0.309804
0.262745 0.423529 0.298039
0.376471 0.427451 0.258824
0.564706 0.458824 0.243137
0.67451 0.435294 0.188235
0.827451 0.47451 0.172549
0.921569 0.466667 0.176471
0.964706 0.447059 0.188235
0.298039 0.639216 0.364706
0.341176 0.654902 0.376471
0.403922 0.639216 0.364706
0.498039 0.631373 0.337255
0.623529 0.635294 0.286275
0.788235 0.658824 0.243137
0.870588 0.639216 0.180392
0.941176 0.627451 0.101961
0.976471 0.607843 0.121569
0.513725 0.807843 0.482353
0.521569 0.803922 0.47451
0.54902 0.780392 0.45098
0.619608 0.776471 0.431373
0.701961 0.780392 0.4
0.807843 0.784314 0.345098
0.901961 0.784314 0.270588
0.952941 0.756863 0.2
0.980392 0.733333 0.101961
0.698039 0.890196 0.631373
0.698039 0.890196 0.619608
0.709804 0.878431 0.6
0.729412 0.870588 0.580392
0.792157 0.886275 0.572549
0.827451 0.862745 0.505882
0.909804 0.878431 0.458824
0.964706 0.870588 0.380392
0.980392 0.843137 0.305882
0.827451 0.929412 0.756863
0.819608 0.921569 0.745098
0.827451 0.929412 0.745098
0.843137 0.933333 0.741176
0.854902 0.929412 0.721569
0.843137 0.898039 0.666667
0.901961 0.921569 0.658824
0.937255 0.913725 0.6
0.976471 0.913725 0.533333
0.890196 0.945098 0.831373
0.886275 0.945098 0.823529
0.890196 0.941176 0.823529
0.898039 0.945098 0.823529
0.905882 0.945098 0.819608
0.921569 0.94902 0.823529
0.917647 0.937255 0.8
0.941176 0.94902 0.803922
0.968627 0.956863 0.792157
0.0313725 0.145098 0.266667
0.0509804 0.133333 0.254902
0.129412 0.129412 0.25098
0.231373 0.133333 0.247059
0.392157 0.137255 0.258824
0.564706 0.0588235 0.25098
0.741176 0.0117647 0.247059
0.870588 0.00392157 0.235294
0.956863 0.00392157 0.258824
0.0392157 0.172549 0.270588
0.0901961 0.180392 0.27451
0.172549 0.184314 0.27451
0.258824 0.168627 0.25098
0.423529 0.176471 0.262745
0.584314 0.12549 0.239216
0.745098 0.0705882 0.231373
0.87451 0.0392157 0.227451
0.952941 0.0470588 0.247059
0.101961 0.282353 0.309804
0.12549 0.270588 0.298039
0.207843 0.278431 0.294118
0.337255 0.282353 0.278431
0.47451 0.270588 0.258824
0.635294 0.270588 0.235294
0.796078 0.301961 0.223529
0.905882 0.294118 0.219608
0.972549 0.294118 0.243137
0.168627 0.443137 0.329412
0.207843 0.454902 0.337255
0.278431 0.435294 0.329412
0.407843 0.454902 0.305882
0.572549 0.462745 0.27451
0.705882 0.458824 0.235294
0.827451 0.466667 0.192157
0.921569 0.482353 0.168627
0.960784 0.45098 0.180392
0.329412 0.654902 0.403922
0.345098 0.643137 0.388235
0.4 0.631373 0.372549
0.501961 0.631373 0.360784
0.639216 0.647059 0.321569
0.764706 0.639216 0.25098
0.870588 0.635294 0.211765
0.952941 0.631373 0.160784
0.980392 0.619608 0.145098
0.52549 0.807843 0.509804
0.529412 0.796078 0.494118
0.560784 0.784314 0.47451
0.615686 0.768627 0.45098
0.698039 0.772549 0.419608
0.803922 0.776471 0.368627
0.913725 0.792157 0.317647
0.956863 0.760784 0.243137
0.980392 0.745098 0.160784
0.701961 0.894118 0.639216
0.713725 0.890196 0.643137
0.709804 0.870588 0.615686
0.74902 0.882353 0.611765
0.780392 0.866667 0.580392
0.847059 0.886275 0.54902
0.901961 0.87451 0.486275
0.964706 0.87451 0.419608
0.984314 0.847059 0.341176
0.827451 0.929412 0.760784
0.815686 0.917647 0.74902
0.827451 0.921569 0.74902
0.835294 0.921569 0.741176
0.85098 0.921569 0.72549
0.858824 0.909804 0.698039
0.905882 0.92549 0.682353
0.952941 0.929412 0.639216
0.984314 0.937255 0.584314
0.909804 0.952941 0.85098
0.901961 0.952941 0.843137
0.890196 0.941176 0.823529
0.909804 0.952941 0.839216
0.917647 0.952941 0.835294
0.933333 0.956863 0.835294
0.929412 0.94902 0.819608
0.952941 0.960784 0.823529
0.964706 0.952941 0.8
0.027451 0.164706 0.32549
0.0745098 0.164706 0.321569
0.121569 0.141176 0.286275
0.254902 0.152941 0.309804
0.396078 0.0823529 0.286275
0.580392 0.0431373 0.282353
0.760784 0.0313725 0.266667
0.913725 0.0941176 0.254902
0.964706 0.0470588 0.254902
0.0509804 0.203922 0.333333
0.0941176 0.2 0.32549
0.172549 0.2 0.321569
0.282353 0.192157 0.321569
0.423529 0.14902 0.298039
0.603922 0.121569 0.290196
0.768627 0.113725 0.262745
0.901961 0.176471 0.231373
0.968627 0.164706 0.254902
0.117647 0.298039 0.360784
0.141176 0.286275 0.34902
0.223529 0.286275 0.345098
0.321569 0.266667 0.32549
0.478431 0.262745 0.313725
0.658824 0.278431 0.305882
0.796078 0.294118 0.270588
0.917647 0.333333 0.227451
0.976471 0.333333 0.235294
0.235294 0.486275 0.419608
0.258824 0.482353 0.411765
0.305882 0.458824 0.384314
0.427451 0.466667 0.368627
0.572549 0.45098 0.329412
0.705882 0.45098 0.301961
0.827451 0.454902 0.266667
0.92549 0.47451 0.219608
0.984314 0.486275 0.203922
0.403922 0.686275 0.498039
0.419608 0.682353 0.482353
0.431373 0.643137 0.439216
0.517647 0.631373 0.419608
0.635294 0.639216 0.380392
0.764706 0.635294 0.32549
0.890196 0.647059 0.305882
0.945098 0.623529 0.243137
0.984314 0.627451 0.203922
0.572549 0.811765 0.576471
0.596078 0.815686 0.576471
0.603922 0.803922 0.54902
0.647059 0.784314 0.52549
0.717647 0.780392 0.494118
0.807843 0.784314 0.447059
0.913725 0.788235 0.392157
0.94902 0.74902 0.317647
0.980392 0.72549 0.235294
0.733333 0.886275 0.686275
0.741176 0.886275 0.686275
0.745098 0.886275 0.67451
0.760784 0.87451 0.654902
0.788235 0.866667 0.623529
0.831373 0.858824 0.592157
0.909804 0.882353 0.564706
0.964706 0.878431 0.498039
0.984314 0.854902 0.423529
0.827451 0.917647 0.768627
0.839216 0.92549 0.776471
0.843137 0.929412 0.776471
0.843137 0.917647 0.760784
0.858824 0.917647 0.74902
0.886275 0.92549 0.741176
0.917647 0.929412 0.72549
0.960784 0.945098 0.698039
0.980392 0.929412 0.631373
0.909804 0.94902 0.854902
0.905882 0.94902 0.85098
0.909804 0.94902 0.85098
0.917647 0.956863 0.854902
0.917647 0.94902 0.847059
0.933333 0.956863 0.847059
0.941176 0.952941 0.839216
0.960784 0.964706 0.839216
0.964706 0.952941 0.811765
0.00784314 0.180392 0.419608
0.0588235 0.172549 0.403922
0.2 0.188235 0.403922
0.305882 0.180392 0.396078
0.486275 0.109804 0.4
0.686275 0.0156863 0.4
0.823529 0 0.34902
0.92549 0.0470588 0.333333
0.968627 0.117647 0.27451
0.0431373 0.231373 0.415686
0.0980392 0.223529 0.411765
0.219608 0.235294 0.411765
0.309804 0.215686 0.392157
0.505882 0.211765 0.423529
0.666667 0.0862745 0.392157
0.803922 0.00392157 0.341176
0.905882 0.12549 0.32549
0.968627 0.188235 0.270588
0.0941176 0.317647 0.423529
0.172549 0.337255 0.443137
0.254902 0.321569 0.431373
0.368627 0.317647 0.419608
0.52549 0.305882 0.419608
0.670588 0.247059 0.380392
0.811765 0.294118 0.376471
0.913725 0.309804 0.333333
0.976471 0.337255 0.286275
0.25098 0.494118 0.486275
0.266667 0.482353 0.470588
0.372549 0.509804 0.494118
0.462745 0.482353 0.466667
0.592157 0.470588 0.45098
0.72549 0.462745 0.427451
0.847059 0.47451 0.4
0.933333 0.470588 0.34902
0.972549 0.47451 0.294118
0.439216 0.686275 0.572549
0.470588 0.690196 0.576471
0.517647 0.686275 0.568627
0.556863 0.65098 0.517647
0.670588 0.662745 0.501961
0.784314 0.65098 0.458824
0.87451 0.631373 0.419608
0.933333 0.611765 0.364706
0.976471 0.607843 0.313725
0.607843 0.807843 0.647059
0.639216 0.823529 0.658824
0.658824 0.807843 0.647059
0.701961 0.815686 0.635294
0.717647 0.772549 0.572549
0.811765 0.788235 0.545098
0.894118 0.776471 0.494118
0.964706 0.772549 0.45098
0.980392 0.737255 0.368627
0.74902 0.886275 0.729412
0.760784 0.886275 0.733333
0.768627 0.878431 0.721569
0.784314 0.878431 0.713725
0.811765 0.87451 0.698039
0.839216 0.866667 0.662745
0.890196 0.866667 0.623529
0.956863 0.87451 0.584314
0.976471 0.843137 0.505882
0.862745 0.937255 0.819608
0.843137 0.917647 0.8
0.854902 0.921569 0.803922
0.854902 0.917647 0.788235
0.870588 0.92549 0.788235
0.898039 0.929412 0.780392
0.905882 0.917647 0.74902
0.937255 0.917647 0.717647
0.972549 0.92549 0.694118
0.917647 0.952941 0.866667
0.913725 0.94902 0.858824
0.905882 0.941176 0.85098
0.921569 0.952941 0.866667
0.905882 0.941176 0.843137
0.929412 0.952941 0.854902
0.941176 0.952941 0.85098
0.960784 0.964706 0.862745
0.972549 0.956863 0.831373
0.027451 0.227451 0.552941
0.101961 0.227451 0.545098
0.231373 0.211765 0.517647
0.388235 0.231373 0.517647
0.517647 0.2 0.517647
0.694118 0.152941 0.533333
0.843137 0.117647 0.533333
0.933333 0.0470588 0.482353
0.976471 0.00784314 0.415686
0.0588235 0.270588 0.541176
0.121569 0.262745 0.52549
0.235294 0.25098 0.501961
0.388235 0.27451 0.513725
0.501961 0.239216 0.501961
0.686275 0.235294 0.533333
0.831373 0.2 0.521569
0.933333 0.137255 0.482353
0.976471 0.054902 0.407843
0.141176 0.360784 0.52549
0.196078 0.360784 0.52549
0.27451 0.345098 0.533333
0.411765 0.352941 0.521569
0.537255 0.352941 0.52549
0.698039 0.360784 0.537255
0.831373 0.34902 0.529412
0.92549 0.309804 0.478431
0.972549 0.341176 0.439216
0.243137 0.498039 0.564706
0.290196 0.517647 0.572549
0.34902 0.494118 0.556863
0.478431 0.498039 0.572549
0.6 0.505882 0.560784
0.745098 0.521569 0.580392
0.854902 0.501961 0.54902
0.933333 0.52549 0.529412
0.968627 0.490196 0.458824
0.439216 0.67451 0.635294
0.470588 0.678431 0.639216
0.517647 0.67451 0.639216
0.584314 0.662745 0.619608
0.694118 0.678431 0.635294
0.780392 0.654902 0.603922
0.866667 0.65098 0.572549
0.929412 0.631373 0.529412
0.976471 0.615686 0.47451
0.647059 0.811765 0.72549
0.686275 0.835294 0.745098
0.698039 0.819608 0.729412
0.745098 0.819608 0.733333
0.756863 0.792157 0.686275
0.819608 0.796078 0.670588
0.890196 0.780392 0.623529
0.952941 0.768627 0.580392
0.980392 0.756863 0.537255
0.788235 0.901961 0.792157
0.780392 0.882353 0.776471
0.792157 0.882353 0.780392
0.815686 0.890196 0.780392
0.827451 0.878431 0.760784
0.847059 0.862745 0.733333
0.898039 0.878431 0.721569
0.956863 0.878431 0.694118
0.980392 0.858824 0.631373
0.870588 0.937255 0.843137
0.862745 0.933333 0.831373
0.858824 0.921569 0.819608
0.882353 0.929412 0.835294
0.890196 0.929412 0.827451
0.905882 0.929412 0.815686
0.917647 0.921569 0.8
0.94902 0.933333 0.784314
0.972549 0.929412 0.760784
0.92549 0.960784 0.882353
0.917647 0.952941 0.87451
0.921569 0.952941 0.87451
0.92549 0.952941 0.87451
0.929412 0.952941 0.87451
0.945098 0.960784 0.878431
0.94902 0.956863 0.87451
0.941176 0.94902 0.85098
0.968627 0.960784 0.858824
0.0705882 0.27451 0.658824
0.168627 0.278431 0.670588
0.317647 0.286275 0.678431
0.454902 0.282353 0.662745
0.588235 0.294118 0.65098
0.713725 0.270588 0.662745
0.843137 0.298039 0.67451
0.92549 0.352941 0.658824
0.976471 0.356863 0.627451
0.0627451 0.286275 0.619608
0.172549 0.305882 0.647059
0.305882 0.317647 0.654902
0.443137 0.317647 0.65098
0.568627 0.321569 0.631373
0.682353 0.298039 0.635294
0.843137 0.34902 0.670588
0.913725 0.384314 0.65098
0.972549 0.384314 0.623529
0.196078 0.396078 0.635294
0.239216 0.4 0.658824
0.313725 0.384314 0.643137
0.454902 0.396078 0.65098
0.580392 0.407843 0.639216
0.694118 0.403922 0.643137
0.831373 0.447059 0.670588
0.921569 0.47451 0.666667
0.960784 0.45098 0.615686
0.266667 0.521569 0.654902
0.317647 0.529412 0.662745
0.415686 0.545098 0.682353
0.501961 0.521569 0.678431
0.635294 0.541176 0.67451
0.741176 0.556863 0.682353
0.843137 0.592157 0.698039
0.921569 0.596078 0.686275
0.968627 0.572549 0.643137
0.439216 0.670588 0.709804
0.454902 0.666667 0.705882
0.513725 0.682353 0.717647
0.568627 0.662745 0.701961
0.678431 0.666667 0.709804
0.8 0.709804 0.741176
0.87451 0.721569 0.741176
0.929412 0.698039 0.705882
0.968627 0.694118 0.682353
0.639216 0.8 0.768627
0.658824 0.807843 0.776471
0.682353 0.803922 0.772549
0.729412 0.807843 0.772549
0.772549 0.8 0.768627
0.831373 0.803922 0.764706
0.878431 0.792157 0.745098
0.945098 0.8 0.741176
0.964706 0.772549 0.694118
0.807843 0.898039 0.835294
0.835294 0.917647 0.858824
0.831373 0.898039 0.835294
0.862745 0.913725 0.847059
0.866667 0.901961 0.835294
0.870588 0.87451 0.803922
0.905882 0.882353 0.796078
0.937255 0.866667 0.764706
0.964706 0.85098 0.72549
0.882353 0.933333 0.866667
0.87451 0.92549 0.858824
0.878431 0.929412 0.858824
0.894118 0.933333 0.862745
0.909804 0.941176 0.866667
0.917647 0.937255 0.858824
0.909804 0.917647 0.831373
0.94902 0.933333 0.831373
0.972549 0.933333 0.819608
0.917647 0.952941 0.882353
0.921569 0.956863 0.890196
0.941176 0.968627 0.905882
0.917647 0.94902 0.882353
0.937255 0.956863 0.894118
0.937255 0.952941 0.890196
0.952941 0.960784 0.898039
0.952941 0.952941 0.87451
0.964706 0.956863 0.866667
0.270588 0.368627 0.8
0.309804 0.360784 0.792157
0.4 0.364706 0.792157
0.498039 0.352941 0.768627
0.647059 0.392157 0.792157
0.745098 0.411765 0.776471
0.847059 0.4 0.784314
0.917647 0.454902 0.772549
0.960784 0.54902 0.768627
0.247059 0.376471 0.772549
0.305882 0.388235 0.784314
0.388235 0.384314 0.776471
0.505882 0.392157 0.776471
0.623529 0.407843 0.772549
0.733333 0.427451 0.760784
0.811765 0.4 0.752941
0.894118 0.462745 0.752941
0.960784 0.580392 0.780392
0.298039 0.462745 0.776471
0.305882 0.443137 0.764706
0.4 0.447059 0.768627
0.52549 0.47451 0.784314
0.639216 0.482353 0.768627
0.760784 0.521569 0.784314
0.839216 0.509804 0.776471
0.909804 0.560784 0.772549
0.952941 0.623529 0.772549
0.407843 0.596078 0.788235
0.415686 0.572549 0.772549
0.466667 0.568627 0.768627
0.54902 0.560784 0.776471
0.678431 0.6 0.8
0.768627 0.615686 0.788235
0.839216 0.615686 0.776471
0.913725 0.666667 0.788235
0.960784 0.705882 0.792157
0.466667 0.690196 0.796078
0.458824 0.670588 0.772549
0.521569 0.694118 0.8
0.596078 0.67451 0.776471
0.701961 0.690196 0.796078
0.8 0.713725 0.796078
0.847059 0.713725 0.780392
0.913725 0.756863 0.8
0.94902 0.760784 0.796078
0.639216 0.8 0.815686
0.643137 0.788235 0.811765
0.686275 0.807843 0.827451
0.694118 0.788235 0.803922
0.756863 0.8 0.815686
0.823529 0.8 0.815686
0.878431 0.815686 0.819608
0.921569 0.831373 0.823529
0.956863 0.827451 0.819608
0.788235 0.878431 0.847059
0.776471 0.866667 0.835294
0.8 0.878431 0.843137
0.823529 0.886275 0.85098
0.847059 0.882353 0.85098
0.890196 0.894118 0.862745
0.913725 0.886275 0.847059
0.945098 0.890196 0.85098
0.964706 0.882353 0.835294
0.901961 0.945098 0.898039
0.890196 0.937255 0.886275
0.898039 0.937255 0.886275
0.913725 0.945098 0.894118
0.921569 0.941176 0.894118
0.92549 0.933333 0.882353
0.921569 0.92549 0.870588
0.952941 0.937255 0.870588
0.968627 0.92549 0.85098
0.933333 0.956863 0.905882
0.929412 0.956863 0.905882
0.937255 0.960784 0.905882
0.929412 0.952941 0.898039
0.941176 0.956863 0.905882
0.941176 0.952941 0.898039
0.94902 0.956863 0.898039
0.94902 0.952941 0.886275
0.968627 0.956863 0.886275
0.466667 0.501961 0.878431
0.490196 0.505882 0.878431
0.541176 0.509804 0.878431
0.615686 0.517647 0.87451
0.701961 0.533333 0.870588
0.780392 0.556863 0.858824
0.847059 0.568627 0.854902
0.92549 0.564706 0.870588
0.945098 0.584314 0.835294
0.454902 0.513725 0.87451
0.490196 0.521569 0.882353
0.529412 0.513725 0.870588
0.592157 0.513725 0.854902
0.698039 0.545098 0.866667
0.784314 0.572549 0.866667
0.839216 0.580392 0.85098
0.898039 0.556863 0.839216
0.941176 0.603922 0.831373
0.458824 0.54902 0.858824
0.490196 0.556863 0.862745
0.541176 0.560784 0.862745
0.615686 0.568627 0.858824
0.705882 0.588235 0.858824
0.792157 0.619608 0.862745
0.854902 0.639216 0.854902
0.933333 0.647059 0.878431
0.94902 0.670588 0.843137
0.552941 0.65098 0.862745
0.568627 0.654902 0.870588
0.588235 0.647059 0.870588
0.643137 0.647059 0.866667
0.733333 0.666667 0.870588
0.784314 0.670588 0.843137
0.854902 0.698039 0.843137
0.921569 0.709804 0.862745
0.941176 0.729412 0.847059
0.572549 0.729412 0.866667
0.568627 0.701961 0.839216
0.631373 0.72549 0.858824
0.701961 0.737255 0.866667
0.741176 0.72549 0.854902
0.811765 0.74902 0.854902
0.886275 0.788235 0.870588
0.937255 0.8 0.882353
0.945098 0.796078 0.858824
0.67451 0.815686 0.878431
0.678431 0.807843 0.866667
0.678431 0.792157 0.854902
0.694118 0.784314 0.854902
0.760784 0.792157 0.858824
0.835294 0.811765 0.866667
0.882353 0.823529 0.862745
0.917647 0.835294 0.862745
0.960784 0.866667 0.878431
0.807843 0.890196 0.894118
0.8 0.878431 0.882353
0.807843 0.878431 0.878431
0.827451 0.890196 0.890196
0.835294 0.87451 0.878431
0.854902 0.870588 0.87451
0.901961 0.878431 0.878431
0.92549 0.882353 0.87451
0.952941 0.901961 0.886275
0.878431 0.929412 0.898039
0.886275 0.933333 0.901961
0.898039 0.941176 0.909804
0.890196 0.92549 0.894118
0.909804 0.933333 0.905882
0.913725 0.92549 0.894118
0.92549 0.92549 0.890196
0.956863 0.941176 0.905882
0.952941 0.909804 0.870588
0.921569 0.94902 0.901961
0.937255 0.960784 0.921569
0.933333 0.956863 0.913725
0.937255 0.956863 0.913725
0.933333 0.94902 0.905882
0.968627 0.972549 0.941176
0.94902 0.956863 0.909804
0.960784 0.960784 0.913725
0.968627 0.960784 0.909804
0.694118 0.690196 0.92549
0.705882 0.698039 0.917647
0.729412 0.698039 0.913725
0.772549 0.717647 0.929412
0.792157 0.701961 0.905882
0.839216 0.721569 0.909804
0.882353 0.741176 0.905882
0.92549 0.74902 0.909804
0.952941 0.717647 0.901961
0.694118 0.701961 0.92549
0.705882 0.705882 0.921569
0.72549 0.698039 0.913725
0.752941 0.705882 0.909804
0.796078 0.713725 0.905882
0.839216 0.729412 0.909804
0.87451 0.733333 0.894118
0.913725 0.745098 0.898039
0.937255 0.713725 0.886275
0.701961 0.709804 0.901961
0.713725 0.721569 0.913725
0.741176 0.733333 0.917647
0.780392 0.745098 0.921569
0.796078 0.72549 0.894118
0.85098 0.760784 0.913725
0.890196 0.768627 0.905882
0.909804 0.760784 0.890196
0.952941 0.760784 0.901961
0.737255 0.760784 0.905882
0.756863 0.772549 0.921569
0.745098 0.752941 0.905882
0.784314 0.768627 0.905882
0.815686 0.772549 0.905882
0.847059 0.784314 0.898039
0.894118 0.8 0.901961
0.929412 0.815686 0.905882
0.941176 0.780392 0.890196
0.760784 0.807843 0.913725
0.780392 0.823529 0.92549
0.784314 0.811765 0.905882
0.803922 0.811765 0.905882
0.819608 0.803922 0.898039
0.858824 0.811765 0.898039
0.901961 0.839216 0.905882
0.933333 0.85098 0.909804
0.945098 0.827451 0.894118
0.756863 0.831373 0.898039
0.784314 0.854902 0.917647
0.796078 0.85098 0.917647
0.807843 0.847059 0.905882
0.843137 0.85098 0.901961
0.862745 0.847059 0.901961
0.913725 0.87451 0.917647
0.937255 0.882353 0.909804
0.94902 0.870588 0.901961
0.839216 0.894118 0.905882
0.85098 0.905882 0.917647
0.847059 0.890196 0.905882
0.843137 0.890196 0.901961
0.866667 0.901961 0.921569
0.870588 0.882353 0.901961
0.909804 0.890196 0.909804
0.933333 0.898039 0.901961
0.956863 0.909804 0.913725
0.901961 0.937255 0.913725
0.898039 0.929412 0.909804
0.901961 0.937255 0.913725
0.909804 0.933333 0.917647
0.913725 0.933333 0.921569
0.909804 0.929412 0.913725
0.913725 0.921569 0.905882
0.945098 0.933333 0.913725
0.960784 0.92549 0.905882
0.945098 0.960784 0.929412
0.941176 0.960784 0.92549
0.929412 0.952941 0.909804
0.94902 0.960784 0.929412
0.94902 0.960784 0.92549
0.956863 0.964706 0.929412
0.956863 0.956863 0.917647
0.960784 0.956863 0.92549
0.972549 0.960784 0.921569
