example-Advanced/bin/data/ofxGpuLutCube/LUT/Dramatic-42.cube
#Generated by Picture Instruments - Look Creator
TITLE "Ilford HP5 +"
LUT_3D_SIZE 5
0.152941 0.152941 0.152941
0.176471 0.176471 0.176471
0.278431 0.278431 0.278431
0.415686 0.415686 0.415686
0.615686 0.615686 0.615686
0.219608 0.219608 0.219608
0.266667 0.266667 0.266667
0.384314 0.384314 0.384314
0.498039 0.498039 0.498039
0.682353 0.682353 0.682353
0.392157 0.392157 0.392157
0.396078 0.396078 0.396078
0.498039 0.498039 0.498039
0.662745 0.662745 0.662745
0.811765 0.811765 0.811765
0.635294 0.635294 0.635294
0.635294 0.635294 0.635294
0.682353 0.682353 0.682353
0.780392 0.780392 0.780392
0.894118 0.894118 0.894118
0.890196 0.890196 0.890196
0.890196 0.890196 0.890196
0.894118 0.894118 0.894118
0.933333 0.933333 0.933333
0.960784 0.960784 0.960784
0.2 0.2 0.2
0.243137 0.243137 0.243137
0.32549 0.32549 0.32549
0.431373 0.431373 0.431373
0.627451 0.627451 0.627451
0.266667 0.266667 0.266667
0.305882 0.305882 0.305882
0.384314 0.384314 0.384314
0.501961 0.501961 0.501961
0.686275 0.686275 0.686275
0.45098 0.45098 0.45098
0.45098 0.45098 0.45098
0.52549 0.52549 0.52549
0.678431 0.678431 0.678431
0.811765 0.811765 0.811765
0.670588 0.670588 0.670588
0.670588 0.670588 0.670588
0.698039 0.698039 0.698039
0.788235 0.788235 0.788235
0.898039 0.898039 0.898039
0.894118 0.894118 0.894118
0.898039 0.898039 0.898039
0.901961 0.901961 0.901961
0.933333 0.933333 0.933333
0.960784 0.960784 0.960784
0.356863 0.356863 0.356863
0.388235 0.388235 0.388235
0.447059 0.447059 0.447059
0.568627 0.568627 0.568627
0.705882 0.705882 0.705882
0.403922 0.403922 0.403922
0.431373 0.431373 0.431373
0.486275 0.486275 0.486275
0.6 0.6 0.6
0.721569 0.721569 0.721569
0.490196 0.490196 0.490196
0.517647 0.517647 0.517647
0.592157 0.592157 0.592157
0.682353 0.682353 0.682353
0.8 0.8 0.8
0.733333 0.733333 0.733333
0.745098 0.745098 0.745098
0.752941 0.752941 0.752941
0.811765 0.811765 0.811765
0.905882 0.905882 0.905882
0.913725 0.913725 0.913725
0.913725 0.913725 0.913725
0.917647 0.917647 0.917647
0.937255 0.937255 0.937255
0.960784 0.960784 0.960784
0.576471 0.576471 0.576471
0.6 0.6 0.6
0.654902 0.654902 0.654902
0.709804 0.709804 0.709804
0.8 0.8 0.8
0.607843 0.607843 0.607843
0.627451 0.627451 0.627451
0.678431 0.678431 0.678431
0.729412 0.729412 0.729412
0.819608 0.819608 0.819608
0.647059 0.647059 0.647059
0.67451 0.67451 0.67451
0.737255 0.737255 0.737255
0.780392 0.780392 0.780392
0.862745 0.862745 0.862745
0.760784 0.760784 0.760784
0.772549 0.772549 0.772549
0.803922 0.803922 0.803922
0.854902 0.854902 0.854902
0.905882 0.905882 0.905882
0.929412 0.929412 0.929412
0.933333 0.933333 0.933333
0.941176 0.941176 0.941176
0.94902 0.94902 0.94902
0.968627 0.968627 0.968627
0.858824 0.858824 0.858824
0.866667 0.866667 0.866667
0.886275 0.886275 0.886275
0.909804 0.909804 0.909804
0.92549 0.92549 0.92549
0.870588 0.870588 0.870588
0.87451 0.87451 0.87451
0.890196 0.890196 0.890196
0.913725 0.913725 0.913725
0.929412 0.929412 0.929412
0.886275 0.886275 0.886275
0.890196 0.890196 0.890196
0.905882 0.905882 0.905882
0.92549 0.92549 0.92549
0.941176 0.941176 0.941176
0.901961 0.901961 0.901961
0.901961 0.901961 0.901961
0.913725 0.913725 0.913725
0.941176 0.941176 0.941176
0.956863 0.956863 0.956863
0.94902 0.94902 0.94902
0.94902 0.94902 0.94902
0.952941 0.952941 0.952941
0.960784 0.960784 0.960784
0.972549 0.972549 0.972549
