example-Advanced/bin/data/ofxGpuLutCube/LUT/Dramatic-42.cube
#Generated by Picture Instruments - Look Creator
TITLE "Ilford HP5 +"
LUT_3D_SIZE 17
0.152941 0.152941 0.152941
0.152941 0.152941 0.152941
0.156863 0.156863 0.156863
0.164706 0.164706 0.164706
0.176471 0.176471 0.176471
0.196078 0.196078 0.196078
0.219608 0.219608 0.219608
0.247059 0.247059 0.247059
0.278431 0.278431 0.278431
0.309804 0.309804 0.309804
0.341176 0.341176 0.341176
0.376471 0.376471 0.376471
0.415686 0.415686 0.415686
0.458824 0.458824 0.458824
0.509804 0.509804 0.509804
0.564706 0.564706 0.564706
0.615686 0.615686 0.615686
0.156863 0.156863 0.156863
0.156863 0.156863 0.156863
0.168627 0.168627 0.168627
0.180392 0.180392 0.180392
0.196078 0.196078 0.196078
0.211765 0.211765 0.211765
0.235294 0.235294 0.235294
0.262745 0.262745 0.262745
0.290196 0.290196 0.290196
0.321569 0.321569 0.321569
0.352941 0.352941 0.352941
0.388235 0.388235 0.388235
0.423529 0.423529 0.423529
0.466667 0.466667 0.466667
0.517647 0.517647 0.517647
0.572549 0.572549 0.572549
0.623529 0.623529 0.623529
0.164706 0.164706 0.164706
0.168627 0.168627 0.168627
0.180392 0.180392 0.180392
0.203922 0.203922 0.203922
0.223529 0.223529 0.223529
0.239216 0.239216 0.239216
0.262745 0.262745 0.262745
0.286275 0.286275 0.286275
0.309804 0.309804 0.309804
0.341176 0.341176 0.341176
0.368627 0.368627 0.368627
0.403922 0.403922 0.403922
0.439216 0.439216 0.439216
0.482353 0.482353 0.482353
0.533333 0.533333 0.533333
0.584314 0.584314 0.584314
0.639216 0.639216 0.639216
0.188235 0.188235 0.188235
0.188235 0.188235 0.188235
0.2 0.2 0.2
0.219608 0.219608 0.219608
0.25098 0.25098 0.25098
0.27451 0.27451 0.27451
0.298039 0.298039 0.298039
0.317647 0.317647 0.317647
0.341176 0.341176 0.341176
0.368627 0.368627 0.368627
0.396078 0.396078 0.396078
0.427451 0.427451 0.427451
0.466667 0.466667 0.466667
0.505882 0.505882 0.505882
0.552941 0.552941 0.552941
0.607843 0.607843 0.607843
0.654902 0.654902 0.654902
0.219608 0.219608 0.219608
0.219608 0.219608 0.219608
0.223529 0.223529 0.223529
0.243137 0.243137 0.243137
0.266667 0.266667 0.266667
0.301961 0.301961 0.301961
0.32549 0.32549 0.32549
0.356863 0.356863 0.356863
0.384314 0.384314 0.384314
0.407843 0.407843 0.407843
0.435294 0.435294 0.435294
0.462745 0.462745 0.462745
0.498039 0.498039 0.498039
0.537255 0.537255 0.537255
0.584314 0.584314 0.584314
0.635294 0.635294 0.635294
0.682353 0.682353 0.682353
0.258824 0.258824 0.258824
0.258824 0.258824 0.258824
0.258824 0.258824 0.258824
0.270588 0.270588 0.270588
0.290196 0.290196 0.290196
0.317647 0.317647 0.317647
0.356863 0.356863 0.356863
0.384314 0.384314 0.384314
0.415686 0.415686 0.415686
0.45098 0.45098 0.45098
0.478431 0.478431 0.478431
0.505882 0.505882 0.505882
0.537255 0.537255 0.537255
0.576471 0.576471 0.576471
0.619608 0.619608 0.619608
0.670588 0.670588 0.670588
0.709804 0.709804 0.709804
0.301961 0.301961 0.301961
0.301961 0.301961 0.301961
0.301961 0.301961 0.301961
0.305882 0.305882 0.305882
0.321569 0.321569 0.321569
0.345098 0.345098 0.345098
0.372549 0.372549 0.372549
0.415686 0.415686 0.415686
0.447059 0.447059 0.447059
0.482353 0.482353 0.482353
0.517647 0.517647 0.517647
0.556863 0.556863 0.556863
0.588235 0.588235 0.588235
0.623529 0.623529 0.623529
0.662745 0.662745 0.662745
0.705882 0.705882 0.705882
0.745098 0.745098 0.745098
0.345098 0.345098 0.345098
0.345098 0.345098 0.345098
0.345098 0.345098 0.345098
0.345098 0.345098 0.345098
0.356863 0.356863 0.356863
0.380392 0.380392 0.380392
0.403922 0.403922 0.403922
0.435294 0.435294 0.435294
0.47451 0.47451 0.47451
0.517647 0.517647 0.517647
0.54902 0.54902 0.54902
0.588235 0.588235 0.588235
0.631373 0.631373 0.631373
0.670588 0.670588 0.670588
0.705882 0.705882 0.705882
0.745098 0.745098 0.745098
0.776471 0.776471 0.776471
0.392157 0.392157 0.392157
0.392157 0.392157 0.392157
0.392157 0.392157 0.392157
0.392157 0.392157 0.392157
0.396078 0.396078 0.396078
0.415686 0.415686 0.415686
0.439216 0.439216 0.439216
0.466667 0.466667 0.466667
0.498039 0.498039 0.498039
0.533333 0.533333 0.533333
0.584314 0.584314 0.584314
0.623529 0.623529 0.623529
0.662745 0.662745 0.662745
0.701961 0.701961 0.701961
0.745098 0.745098 0.745098
0.780392 0.780392 0.780392
0.811765 0.811765 0.811765
0.443137 0.443137 0.443137
0.443137 0.443137 0.443137
0.443137 0.443137 0.443137
0.443137 0.443137 0.443137
0.443137 0.443137 0.443137
0.454902 0.454902 0.454902
0.478431 0.478431 0.478431
0.501961 0.501961 0.501961
0.533333 0.533333 0.533333
0.564706 0.564706 0.564706
0.6 0.6 0.6
0.658824 0.658824 0.658824
0.694118 0.694118 0.694118
0.733333 0.733333 0.733333
0.772549 0.772549 0.772549
0.807843 0.807843 0.807843
0.839216 0.839216 0.839216
0.498039 0.498039 0.498039
0.498039 0.498039 0.498039
0.501961 0.501961 0.501961
0.501961 0.501961 0.501961
0.501961 0.501961 0.501961
0.501961 0.501961 0.501961
0.52549 0.52549 0.52549
0.54902 0.54902 0.54902
0.576471 0.576471 0.576471
0.607843 0.607843 0.607843
0.639216 0.639216 0.639216
0.67451 0.67451 0.67451
0.729412 0.729412 0.729412
0.760784 0.760784 0.760784
0.796078 0.796078 0.796078
0.831373 0.831373 0.831373
0.858824 0.858824 0.858824
0.564706 0.564706 0.564706
0.564706 0.564706 0.564706
0.564706 0.564706 0.564706
0.564706 0.564706 0.564706
0.564706 0.564706 0.564706
0.564706 0.564706 0.564706
0.576471 0.576471 0.576471
0.6 0.6 0.6
0.627451 0.627451 0.627451
0.654902 0.654902 0.654902
0.682353 0.682353 0.682353
0.713725 0.713725 0.713725
0.741176 0.741176 0.741176
0.792157 0.792157 0.792157
0.823529 0.823529 0.823529
0.85098 0.85098 0.85098
0.87451 0.87451 0.87451
0.635294 0.635294 0.635294
0.635294 0.635294 0.635294
0.635294 0.635294 0.635294
0.635294 0.635294 0.635294
0.635294 0.635294 0.635294
0.639216 0.639216 0.639216
0.639216 0.639216 0.639216
0.658824 0.658824 0.658824
0.682353 0.682353 0.682353
0.705882 0.705882 0.705882
0.733333 0.733333 0.733333
0.756863 0.756863 0.756863
0.780392 0.780392 0.780392
0.803922 0.803922 0.803922
0.843137 0.843137 0.843137
0.87451 0.87451 0.87451
0.894118 0.894118 0.894118
0.709804 0.709804 0.709804
0.705882 0.705882 0.705882
0.709804 0.709804 0.709804
0.709804 0.709804 0.709804
0.709804 0.709804 0.709804
0.709804 0.709804 0.709804
0.709804 0.709804 0.709804
0.721569 0.721569 0.721569
0.737255 0.737255 0.737255
0.756863 0.756863 0.756863
0.780392 0.780392 0.780392
0.8 0.8 0.8
0.819608 0.819608 0.819608
0.839216 0.839216 0.839216
0.858824 0.858824 0.858824
0.890196 0.890196 0.890196
0.909804 0.909804 0.909804
0.776471 0.776471 0.776471
0.776471 0.776471 0.776471
0.776471 0.776471 0.776471
0.776471 0.776471 0.776471
0.776471 0.776471 0.776471
0.776471 0.776471 0.776471
0.780392 0.780392 0.780392
0.780392 0.780392 0.780392
0.796078 0.796078 0.796078
0.811765 0.811765 0.811765
0.827451 0.827451 0.827451
0.843137 0.843137 0.843137
0.858824 0.858824 0.858824
0.87451 0.87451 0.87451
0.890196 0.890196 0.890196
0.905882 0.905882 0.905882
0.921569 0.921569 0.921569
0.839216 0.839216 0.839216
0.839216 0.839216 0.839216
0.839216 0.839216 0.839216
0.839216 0.839216 0.839216
0.839216 0.839216 0.839216
0.839216 0.839216 0.839216
0.843137 0.843137 0.843137
0.843137 0.843137 0.843137
0.85098 0.85098 0.85098
0.862745 0.862745 0.862745
0.87451 0.87451 0.87451
0.886275 0.886275 0.886275
0.898039 0.898039 0.898039
0.909804 0.909804 0.909804
0.921569 0.921569 0.921569
0.933333 0.933333 0.933333
0.937255 0.937255 0.937255
0.890196 0.890196 0.890196
0.890196 0.890196 0.890196
0.890196 0.890196 0.890196
0.890196 0.890196 0.890196
0.890196 0.890196 0.890196
0.890196 0.890196 0.890196
0.890196 0.890196 0.890196
0.894118 0.894118 0.894118
0.894118 0.894118 0.894118
0.905882 0.905882 0.905882
0.913725 0.913725 0.913725
0.921569 0.921569 0.921569
0.933333 0.933333 0.933333
0.941176 0.941176 0.941176
0.94902 0.94902 0.94902
0.956863 0.956863 0.956863
0.960784 0.960784 0.960784
0.156863 0.156863 0.156863
0.156863 0.156863 0.156863
0.160784 0.160784 0.160784
0.168627 0.168627 0.168627
0.184314 0.184314 0.184314
0.203922 0.203922 0.203922
0.227451 0.227451 0.227451
0.254902 0.254902 0.254902
0.282353 0.282353 0.282353
0.313725 0.313725 0.313725
0.34902 0.34902 0.34902
0.380392 0.380392 0.380392
0.419608 0.419608 0.419608
0.462745 0.462745 0.462745
0.509804 0.509804 0.509804
0.568627 0.568627 0.568627
0.619608 0.619608 0.619608
0.156863 0.156863 0.156863
0.160784 0.160784 0.160784
0.168627 0.168627 0.168627
0.180392 0.180392 0.180392
0.2 0.2 0.2
0.219608 0.219608 0.219608
0.239216 0.239216 0.239216
0.266667 0.266667 0.266667
0.294118 0.294118 0.294118
0.32549 0.32549 0.32549
0.356863 0.356863 0.356863
0.392157 0.392157 0.392157
0.427451 0.427451 0.427451
0.470588 0.470588 0.470588
0.517647 0.517647 0.517647
0.572549 0.572549 0.572549
0.627451 0.627451 0.627451
0.176471 0.176471 0.176471
0.176471 0.176471 0.176471
0.188235 0.188235 0.188235
0.207843 0.207843 0.207843
0.227451 0.227451 0.227451
0.243137 0.243137 0.243137
0.266667 0.266667 0.266667
0.290196 0.290196 0.290196
0.313725 0.313725 0.313725
0.345098 0.345098 0.345098
0.372549 0.372549 0.372549
0.407843 0.407843 0.407843
0.443137 0.443137 0.443137
0.486275 0.486275 0.486275
0.533333 0.533333 0.533333
0.588235 0.588235 0.588235
0.639216 0.639216 0.639216
0.203922 0.203922 0.203922
0.203922 0.203922 0.203922
0.207843 0.207843 0.207843
0.227451 0.227451 0.227451
0.254902 0.254902 0.254902
0.278431 0.278431 0.278431
0.301961 0.301961 0.301961
0.321569 0.321569 0.321569
0.345098 0.345098 0.345098
0.372549 0.372549 0.372549
0.4 0.4 0.4
0.431373 0.431373 0.431373
0.466667 0.466667 0.466667
0.505882 0.505882 0.505882
0.556863 0.556863 0.556863
0.607843 0.607843 0.607843
0.658824 0.658824 0.658824
0.231373 0.231373 0.231373
0.235294 0.235294 0.235294
0.235294 0.235294 0.235294
0.25098 0.25098 0.25098
0.270588 0.270588 0.270588
0.305882 0.305882 0.305882
0.333333 0.333333 0.333333
0.360784 0.360784 0.360784
0.384314 0.384314 0.384314
0.407843 0.407843 0.407843
0.435294 0.435294 0.435294
0.466667 0.466667 0.466667
0.498039 0.498039 0.498039
0.537255 0.537255 0.537255
0.584314 0.584314 0.584314
0.635294 0.635294 0.635294
0.682353 0.682353 0.682353
0.270588 0.270588 0.270588
0.270588 0.270588 0.270588
0.270588 0.270588 0.270588
0.278431 0.278431 0.278431
0.298039 0.298039 0.298039
0.321569 0.321569 0.321569
0.360784 0.360784 0.360784
0.388235 0.388235 0.388235
0.419608 0.419608 0.419608
0.454902 0.454902 0.454902
0.478431 0.478431 0.478431
0.505882 0.505882 0.505882
0.541176 0.541176 0.541176
0.576471 0.576471 0.576471
0.623529 0.623529 0.623529
0.670588 0.670588 0.670588
0.713725 0.713725 0.713725
0.309804 0.309804 0.309804
0.309804 0.309804 0.309804
0.309804 0.309804 0.309804
0.309804 0.309804 0.309804
0.329412 0.329412 0.329412
0.352941 0.352941 0.352941
0.376471 0.376471 0.376471
0.419608 0.419608 0.419608
0.45098 0.45098 0.45098
0.486275 0.486275 0.486275
0.517647 0.517647 0.517647
0.556863 0.556863 0.556863
0.588235 0.588235 0.588235
0.623529 0.623529 0.623529
0.662745 0.662745 0.662745
0.705882 0.705882 0.705882
0.745098 0.745098 0.745098
0.352941 0.352941 0.352941
0.352941 0.352941 0.352941
0.352941 0.352941 0.352941
0.356863 0.356863 0.356863
0.364706 0.364706 0.364706
0.384314 0.384314 0.384314
0.407843 0.407843 0.407843
0.439216 0.439216 0.439216
0.478431 0.478431 0.478431
0.517647 0.517647 0.517647
0.552941 0.552941 0.552941
0.588235 0.588235 0.588235
0.631373 0.631373 0.631373
0.67451 0.67451 0.67451
0.705882 0.705882 0.705882
0.745098 0.745098 0.745098
0.776471 0.776471 0.776471
0.4 0.4 0.4
0.4 0.4 0.4
0.4 0.4 0.4
0.4 0.4 0.4
0.403922 0.403922 0.403922
0.419608 0.419608 0.419608
0.443137 0.443137 0.443137
0.470588 0.470588 0.470588
0.498039 0.498039 0.498039
0.537255 0.537255 0.537255
0.588235 0.588235 0.588235
0.623529 0.623529 0.623529
0.662745 0.662745 0.662745
0.705882 0.705882 0.705882
0.745098 0.745098 0.745098
0.784314 0.784314 0.784314
0.811765 0.811765 0.811765
0.447059 0.447059 0.447059
0.447059 0.447059 0.447059
0.45098 0.45098 0.45098
0.45098 0.45098 0.45098
0.45098 0.45098 0.45098
0.458824 0.458824 0.458824
0.478431 0.478431 0.478431
0.505882 0.505882 0.505882
0.533333 0.533333 0.533333
0.568627 0.568627 0.568627
0.603922 0.603922 0.603922
0.662745 0.662745 0.662745
0.698039 0.698039 0.698039
0.733333 0.733333 0.733333
0.772549 0.772549 0.772549
0.807843 0.807843 0.807843
0.839216 0.839216 0.839216
0.505882 0.505882 0.505882
0.505882 0.505882 0.505882
0.505882 0.505882 0.505882
0.505882 0.505882 0.505882
0.505882 0.505882 0.505882
0.505882 0.505882 0.505882
0.52549 0.52549 0.52549
0.54902 0.54902 0.54902
0.576471 0.576471 0.576471
0.607843 0.607843 0.607843
0.643137 0.643137 0.643137
0.67451 0.67451 0.67451
0.729412 0.729412 0.729412
0.764706 0.764706 0.764706
0.796078 0.796078 0.796078
0.831373 0.831373 0.831373
0.858824 0.858824 0.858824
0.568627 0.568627 0.568627
0.568627 0.568627 0.568627
0.568627 0.568627 0.568627
0.568627 0.568627 0.568627
0.568627 0.568627 0.568627
0.572549 0.572549 0.572549
0.580392 0.580392 0.580392
0.603922 0.603922 0.603922
0.627451 0.627451 0.627451
0.654902 0.654902 0.654902
0.686275 0.686275 0.686275
0.713725 0.713725 0.713725
0.741176 0.741176 0.741176
0.792157 0.792157 0.792157
0.823529 0.823529 0.823529
0.85098 0.85098 0.85098
0.87451 0.87451 0.87451
0.639216 0.639216 0.639216
0.639216 0.639216 0.639216
0.639216 0.639216 0.639216
0.639216 0.639216 0.639216
0.639216 0.639216 0.639216
0.643137 0.643137 0.643137
0.643137 0.643137 0.643137
0.662745 0.662745 0.662745
0.682353 0.682353 0.682353
0.705882 0.705882 0.705882
0.733333 0.733333 0.733333
0.756863 0.756863 0.756863
0.780392 0.780392 0.780392
0.803922 0.803922 0.803922
0.843137 0.843137 0.843137
0.87451 0.87451 0.87451
0.894118 0.894118 0.894118
0.709804 0.709804 0.709804
0.709804 0.709804 0.709804
0.709804 0.709804 0.709804
0.709804 0.709804 0.709804
0.709804 0.709804 0.709804
0.713725 0.713725 0.713725
0.713725 0.713725 0.713725
0.721569 0.721569 0.721569
0.741176 0.741176 0.741176
0.760784 0.760784 0.760784
0.780392 0.780392 0.780392
0.8 0.8 0.8
0.819608 0.819608 0.819608
0.839216 0.839216 0.839216
0.858824 0.858824 0.858824
0.890196 0.890196 0.890196
0.909804 0.909804 0.909804
0.776471 0.776471 0.776471
0.776471 0.776471 0.776471
0.776471 0.776471 0.776471
0.780392 0.780392 0.780392
0.780392 0.780392 0.780392
0.780392 0.780392 0.780392
0.780392 0.780392 0.780392
0.780392 0.780392 0.780392
0.796078 0.796078 0.796078
0.811765 0.811765 0.811765
0.827451 0.827451 0.827451
0.843137 0.843137 0.843137
0.858824 0.858824 0.858824
0.87451 0.87451 0.87451
0.890196 0.890196 0.890196
0.905882 0.905882 0.905882
0.921569 0.921569 0.921569
0.839216 0.839216 0.839216
0.839216 0.839216 0.839216
0.839216 0.839216 0.839216
0.839216 0.839216 0.839216
0.839216 0.839216 0.839216
0.843137 0.843137 0.843137
0.843137 0.843137 0.843137
0.843137 0.843137 0.843137
0.85098 0.85098 0.85098
0.862745 0.862745 0.862745
0.87451 0.87451 0.87451
0.886275 0.886275 0.886275
0.898039 0.898039 0.898039
0.909804 0.909804 0.909804
0.921569 0.921569 0.921569
0.933333 0.933333 0.933333
0.937255 0.937255 0.937255
0.890196 0.890196 0.890196
0.890196 0.890196 0.890196
0.890196 0.890196 0.890196
0.890196 0.890196 0.890196
0.890196 0.890196 0.890196
0.890196 0.890196 0.890196
0.894118 0.894118 0.894118
0.894118 0.894118 0.894118
0.894118 0.894118 0.894118
0.905882 0.905882 0.905882
0.913725 0.913725 0.913725
0.921569 0.921569 0.921569
0.933333 0.933333 0.933333
0.941176 0.941176 0.941176
0.94902 0.94902 0.94902
0.956863 0.956863 0.956863
0.960784 0.960784 0.960784
0.160784 0.160784 0.160784
0.164706 0.164706 0.164706
0.172549 0.172549 0.172549
0.184314 0.184314 0.184314
0.2 0.2 0.2
0.215686 0.215686 0.215686
0.235294 0.235294 0.235294
0.258824 0.258824 0.258824
0.290196 0.290196 0.290196
0.317647 0.317647 0.317647
0.352941 0.352941 0.352941
0.388235 0.388235 0.388235
0.423529 0.423529 0.423529
0.466667 0.466667 0.466667
0.513725 0.513725 0.513725
0.568627 0.568627 0.568627
0.623529 0.623529 0.623529
0.164706 0.164706 0.164706
0.176471 0.176471 0.176471
0.184314 0.184314 0.184314
0.196078 0.196078 0.196078
0.211765 0.211765 0.211765
0.223529 0.223529 0.223529
0.247059 0.247059 0.247059
0.270588 0.270588 0.270588
0.298039 0.298039 0.298039
0.329412 0.329412 0.329412
0.360784 0.360784 0.360784
0.396078 0.396078 0.396078
0.431373 0.431373 0.431373
0.47451 0.47451 0.47451
0.521569 0.521569 0.521569
0.576471 0.576471 0.576471
0.627451 0.627451 0.627451
0.180392 0.180392 0.180392
0.188235 0.188235 0.188235
0.2 0.2 0.2
0.211765 0.211765 0.211765
0.227451 0.227451 0.227451
0.247059 0.247059 0.247059
0.266667 0.266667 0.266667
0.294118 0.294118 0.294118
0.317647 0.317647 0.317647
0.345098 0.345098 0.345098
0.376471 0.376471 0.376471
0.411765 0.411765 0.411765
0.447059 0.447059 0.447059
0.490196 0.490196 0.490196
0.537255 0.537255 0.537255
0.588235 0.588235 0.588235
0.639216 0.639216 0.639216
0.215686 0.215686 0.215686
0.219608 0.219608 0.219608
0.223529 0.223529 0.223529
0.235294 0.235294 0.235294
0.258824 0.258824 0.258824
0.282353 0.282353 0.282353
0.301961 0.301961 0.301961
0.321569 0.321569 0.321569
0.34902 0.34902 0.34902
0.372549 0.372549 0.372549
0.403922 0.403922 0.403922
0.435294 0.435294 0.435294
0.470588 0.470588 0.470588
0.509804 0.509804 0.509804
0.556863 0.556863 0.556863
0.607843 0.607843 0.607843
0.658824 0.658824 0.658824
0.254902 0.254902 0.254902
0.25098 0.25098 0.25098
0.25098 0.25098 0.25098
0.258824 0.258824 0.258824
0.278431 0.278431 0.278431
0.309804 0.309804 0.309804
0.337255 0.337255 0.337255
0.364706 0.364706 0.364706
0.388235 0.388235 0.388235
0.411765 0.411765 0.411765
0.435294 0.435294 0.435294
0.466667 0.466667 0.466667
0.501961 0.501961 0.501961
0.541176 0.541176 0.541176
0.588235 0.588235 0.588235
0.639216 0.639216 0.639216
0.682353 0.682353 0.682353
0.286275 0.286275 0.286275
0.286275 0.286275 0.286275
0.286275 0.286275 0.286275
0.290196 0.290196 0.290196
0.305882 0.305882 0.305882
0.329412 0.329412 0.329412
0.364706 0.364706 0.364706
0.396078 0.396078 0.396078
0.427451 0.427451 0.427451
0.454902 0.454902 0.454902
0.482353 0.482353 0.482353
0.509804 0.509804 0.509804
0.541176 0.541176 0.541176
0.580392 0.580392 0.580392
0.623529 0.623529 0.623529
0.670588 0.670588 0.670588
0.713725 0.713725 0.713725
0.32549 0.32549 0.32549
0.32549 0.32549 0.32549
0.32549 0.32549 0.32549
0.32549 0.32549 0.32549
0.337255 0.337255 0.337255
0.356863 0.356863 0.356863
0.384314 0.384314 0.384314
0.427451 0.427451 0.427451
0.454902 0.454902 0.454902
0.490196 0.490196 0.490196
0.52549 0.52549 0.52549
0.556863 0.556863 0.556863
0.588235 0.588235 0.588235
0.623529 0.623529 0.623529
0.666667 0.666667 0.666667
0.705882 0.705882 0.705882
0.745098 0.745098 0.745098
0.364706 0.364706 0.364706
0.368627 0.368627 0.368627
0.368627 0.368627 0.368627
0.368627 0.368627 0.368627
0.372549 0.372549 0.372549
0.392157 0.392157 0.392157
0.415686 0.415686 0.415686
0.443137 0.443137 0.443137
0.482353 0.482353 0.482353
0.521569 0.521569 0.521569
0.556863 0.556863 0.556863
0.592157 0.592157 0.592157
0.635294 0.635294 0.635294
0.67451 0.67451 0.67451
0.709804 0.709804 0.709804
0.745098 0.745098 0.745098
0.776471 0.776471 0.776471
0.411765 0.411765 0.411765
0.411765 0.411765 0.411765
0.411765 0.411765 0.411765
0.411765 0.411765 0.411765
0.411765 0.411765 0.411765
0.427451 0.427451 0.427451
0.447059 0.447059 0.447059
0.47451 0.47451 0.47451
0.505882 0.505882 0.505882
0.545098 0.545098 0.545098
0.592157 0.592157 0.592157
0.627451 0.627451 0.627451
0.666667 0.666667 0.666667
0.705882 0.705882 0.705882
0.74902 0.74902 0.74902
0.784314 0.784314 0.784314
0.811765 0.811765 0.811765
0.458824 0.458824 0.458824
0.458824 0.458824 0.458824
0.458824 0.458824 0.458824
0.458824 0.458824 0.458824
0.458824 0.458824 0.458824
0.466667 0.466667 0.466667
0.486275 0.486275 0.486275
0.509804 0.509804 0.509804
0.541176 0.541176 0.541176
0.572549 0.572549 0.572549
0.607843 0.607843 0.607843
0.662745 0.662745 0.662745
0.698039 0.698039 0.698039
0.737255 0.737255 0.737255
0.772549 0.772549 0.772549
0.811765 0.811765 0.811765
0.839216 0.839216 0.839216
0.513725 0.513725 0.513725
0.513725 0.513725 0.513725
0.513725 0.513725 0.513725
0.513725 0.513725 0.513725
0.513725 0.513725 0.513725
0.517647 0.517647 0.517647
0.533333 0.533333 0.533333
0.556863 0.556863 0.556863
0.584314 0.584314 0.584314
0.615686 0.615686 0.615686
0.647059 0.647059 0.647059
0.678431 0.678431 0.678431
0.733333 0.733333 0.733333
0.764706 0.764706 0.764706
0.8 0.8 0.8
0.831373 0.831373 0.831373
0.858824 0.858824 0.858824
0.576471 0.576471 0.576471
0.576471 0.576471 0.576471
0.576471 0.576471 0.576471
0.576471 0.576471 0.576471
0.580392 0.580392 0.580392
0.580392 0.580392 0.580392
0.588235 0.588235 0.588235
0.607843 0.607843 0.607843
0.635294 0.635294 0.635294
0.658824 0.658824 0.658824
0.686275 0.686275 0.686275
0.717647 0.717647 0.717647
0.745098 0.745098 0.745098
0.792157 0.792157 0.792157
0.823529 0.823529 0.823529
0.854902 0.854902 0.854902
0.878431 0.878431 0.878431
0.647059 0.647059 0.647059
0.647059 0.647059 0.647059
0.647059 0.647059 0.647059
0.647059 0.647059 0.647059
0.647059 0.647059 0.647059
0.647059 0.647059 0.647059
0.65098 0.65098 0.65098
0.666667 0.666667 0.666667
0.686275 0.686275 0.686275
0.709804 0.709804 0.709804
0.733333 0.733333 0.733333
0.756863 0.756863 0.756863
0.784314 0.784314 0.784314
0.807843 0.807843 0.807843
0.847059 0.847059 0.847059
0.87451 0.87451 0.87451
0.894118 0.894118 0.894118
0.713725 0.713725 0.713725
0.713725 0.713725 0.713725
0.713725 0.713725 0.713725
0.717647 0.717647 0.717647
0.717647 0.717647 0.717647
0.717647 0.717647 0.717647
0.717647 0.717647 0.717647
0.72549 0.72549 0.72549
0.741176 0.741176 0.741176
0.760784 0.760784 0.760784
0.780392 0.780392 0.780392
0.8 0.8 0.8
0.823529 0.823529 0.823529
0.839216 0.839216 0.839216
0.858824 0.858824 0.858824
0.890196 0.890196 0.890196
0.909804 0.909804 0.909804
0.780392 0.780392 0.780392
0.780392 0.780392 0.780392
0.780392 0.780392 0.780392
0.780392 0.780392 0.780392
0.780392 0.780392 0.780392
0.784314 0.784314 0.784314
0.784314 0.784314 0.784314
0.784314 0.784314 0.784314
0.796078 0.796078 0.796078
0.811765 0.811765 0.811765
0.827451 0.827451 0.827451
0.847059 0.847059 0.847059
0.862745 0.862745 0.862745
0.878431 0.878431 0.878431
0.890196 0.890196 0.890196
0.905882 0.905882 0.905882
0.921569 0.921569 0.921569
0.843137 0.843137 0.843137
0.843137 0.843137 0.843137
0.843137 0.843137 0.843137
0.843137 0.843137 0.843137
0.843137 0.843137 0.843137
0.843137 0.843137 0.843137
0.843137 0.843137 0.843137
0.847059 0.847059 0.847059
0.85098 0.85098 0.85098
0.862745 0.862745 0.862745
0.87451 0.87451 0.87451
0.886275 0.886275 0.886275
0.901961 0.901961 0.901961
0.913725 0.913725 0.913725
0.921569 0.921569 0.921569
0.933333 0.933333 0.933333
0.941176 0.941176 0.941176
0.890196 0.890196 0.890196
0.890196 0.890196 0.890196
0.890196 0.890196 0.890196
0.890196 0.890196 0.890196
0.894118 0.894118 0.894118
0.894118 0.894118 0.894118
0.894118 0.894118 0.894118
0.894118 0.894118 0.894118
0.898039 0.898039 0.898039
0.905882 0.905882 0.905882
0.913725 0.913725 0.913725
0.921569 0.921569 0.921569
0.933333 0.933333 0.933333
0.941176 0.941176 0.941176
0.94902 0.94902 0.94902
0.956863 0.956863 0.956863
0.960784 0.960784 0.960784
0.176471 0.176471 0.176471
0.180392 0.180392 0.180392
0.192157 0.192157 0.192157
0.203922 0.203922 0.203922
0.215686 0.215686 0.215686
0.243137 0.243137 0.243137
0.258824 0.258824 0.258824
0.278431 0.278431 0.278431
0.301961 0.301961 0.301961
0.32549 0.32549 0.32549
0.356863 0.356863 0.356863
0.388235 0.388235 0.388235
0.427451 0.427451 0.427451
0.470588 0.470588 0.470588
0.517647 0.517647 0.517647
0.572549 0.572549 0.572549
0.623529 0.623529 0.623529
0.188235 0.188235 0.188235
0.196078 0.196078 0.196078
0.203922 0.203922 0.203922
0.215686 0.215686 0.215686
0.227451 0.227451 0.227451
0.25098 0.25098 0.25098
0.266667 0.266667 0.266667
0.286275 0.286275 0.286275
0.305882 0.305882 0.305882
0.333333 0.333333 0.333333
0.364706 0.364706 0.364706
0.4 0.4 0.4
0.435294 0.435294 0.435294
0.478431 0.478431 0.478431
0.52549 0.52549 0.52549
0.580392 0.580392 0.580392
