example-Advanced/bin/data/ofxGpuLutCube/LUT/Dramatic-48.cube
#Generated by Picture Instruments - Look Creator
TITLE "Kodak Ektachrome 64++"
LUT_3D_SIZE 17
0.105882 0.109804 0.117647
0.113725 0.113725 0.113725
0.129412 0.113725 0.109804
0.152941 0.113725 0.109804
0.172549 0.117647 0.113725
0.207843 0.12549 0.121569
0.231373 0.121569 0.105882
0.27451 0.12549 0.105882
0.321569 0.129412 0.105882
0.384314 0.137255 0.101961
0.431373 0.12549 0.0823529
0.501961 0.137255 0.0745098
0.568627 0.141176 0.0627451
0.639216 0.145098 0.0392157
0.701961 0.152941 0.0196078
0.764706 0.160784 0.00392157
0.823529 0.172549 0.00392157
0.0980392 0.117647 0.109804
0.12549 0.133333 0.121569
0.129412 0.12549 0.109804
0.160784 0.129412 0.117647
0.172549 0.121569 0.105882
0.2 0.12549 0.101961
0.239216 0.129412 0.105882
0.286275 0.141176 0.105882
0.333333 0.141176 0.0980392
0.392157 0.14902 0.0980392
0.447059 0.141176 0.0784314
0.501961 0.141176 0.054902
0.580392 0.152941 0.0509804
0.639216 0.14902 0.0235294
0.709804 0.168627 0.0117647
0.772549 0.180392 0.00784314
0.835294 0.2 0
0.105882 0.145098 0.113725
0.121569 0.14902 0.121569
0.137255 0.14902 0.121569
0.160784 0.14902 0.113725
0.180392 0.145098 0.109804
0.215686 0.14902 0.109804
0.247059 0.14902 0.105882
0.298039 0.160784 0.105882
0.337255 0.152941 0.0901961
0.415686 0.176471 0.101961
0.470588 0.176471 0.0784314
0.521569 0.172549 0.0509804
0.588235 0.180392 0.0392157
0.65098 0.184314 0.0117647
0.72549 0.203922 0.0117647
0.784314 0.215686 0.00392157
0.839216 0.219608 0
0.121569 0.184314 0.137255
0.12549 0.180392 0.129412
0.137255 0.176471 0.133333
0.164706 0.180392 0.12549
0.192157 0.180392 0.121569
0.227451 0.180392 0.117647
0.262745 0.180392 0.105882
0.317647 0.192157 0.113725
0.368627 0.192157 0.101961
0.431373 0.203922 0.0980392
0.498039 0.215686 0.0901961
0.545098 0.211765 0.054902
0.603922 0.215686 0.0235294
0.67451 0.231373 0.00784314
0.737255 0.243137 0.00392157
0.788235 0.243137 0.00392157
0.847059 0.254902 0
0.117647 0.211765 0.141176
0.129412 0.219608 0.141176
0.141176 0.215686 0.137255
0.160784 0.211765 0.133333
0.196078 0.215686 0.129412
0.235294 0.227451 0.129412
0.286275 0.235294 0.129412
0.337255 0.235294 0.117647
0.392157 0.235294 0.0980392
0.447059 0.235294 0.0862745
0.513725 0.25098 0.0823529
0.572549 0.254902 0.054902
0.627451 0.254902 0.0235294
0.694118 0.270588 0.0117647
0.74902 0.282353 0
0.8 0.286275 0
0.854902 0.294118 0
0.117647 0.258824 0.14902
0.141176 0.278431 0.160784
0.141176 0.262745 0.141176
0.168627 0.266667 0.14902
0.2 0.266667 0.145098
0.239216 0.270588 0.137255
0.286275 0.27451 0.12549
0.345098 0.286275 0.121569
0.411765 0.294118 0.109804
0.482353 0.301961 0.0980392
0.545098 0.301961 0.0784314
0.596078 0.298039 0.0392157
0.65098 0.305882 0.0156863
0.713725 0.317647 0.00392157
0.760784 0.321569 0
0.827451 0.341176 0
0.882353 0.356863 0
0.113725 0.317647 0.160784
0.113725 0.317647 0.14902
0.145098 0.32549 0.156863
0.164706 0.317647 0.145098
0.203922 0.32549 0.160784
0.247059 0.333333 0.152941
0.294118 0.329412 0.141176
0.34902 0.337255 0.12549
0.415686 0.34902 0.113725
0.482353 0.352941 0.0901961
0.556863 0.364706 0.0784314
0.631373 0.368627 0.0509804
0.686275 0.372549 0.0196078
0.737255 0.372549 0.00392157
0.792157 0.380392 0.00392157
0.835294 0.380392 0
0.890196 0.392157 0
0.109804 0.388235 0.172549
0.129412 0.403922 0.176471
0.145098 0.396078 0.172549
0.172549 0.392157 0.164706
0.203922 0.384314 0.160784
0.258824 0.396078 0.168627
0.294118 0.388235 0.152941
0.352941 0.396078 0.141176
0.407843 0.396078 0.121569
0.494118 0.423529 0.109804
0.556863 0.419608 0.0784314
0.631373 0.431373 0.054902
0.698039 0.435294 0.0235294
0.760784 0.435294 0.00392157
0.811765 0.435294 0
0.854902 0.435294 0
0.905882 0.443137 0
0.109804 0.458824 0.192157
0.117647 0.466667 0.184314
0.141176 0.466667 0.180392
0.184314 0.466667 0.184314
0.219608 0.458824 0.180392
0.254902 0.454902 0.176471
0.305882 0.454902 0.168627
0.360784 0.458824 0.156863
0.415686 0.458824 0.141176
0.478431 0.458824 0.117647
0.560784 0.478431 0.0862745
0.627451 0.486275 0.054902
0.698039 0.494118 0.0313725
0.760784 0.494118 0.0117647
0.823529 0.498039 0.00392157
0.882353 0.501961 0
0.92549 0.501961 0
0.113725 0.52549 0.207843
0.121569 0.533333 0.203922
0.141176 0.533333 0.2
0.180392 0.529412 0.196078
0.227451 0.533333 0.2
0.262745 0.517647 0.188235
0.309804 0.517647 0.192157
0.360784 0.517647 0.176471
0.431373 0.529412 0.172549
0.494118 0.533333 0.156863
0.54902 0.529412 0.12549
0.631373 0.545098 0.0705882
0.705882 0.556863 0.0509804
0.760784 0.552941 0.0156863
0.831373 0.564706 0.0156863
0.878431 0.556863 0
0.92549 0.556863 0
0.12549 0.596078 0.235294
0.137255 0.6 0.231373
0.141176 0.596078 0.215686
0.184314 0.596078 0.215686
0.231373 0.596078 0.219608
0.27451 0.588235 0.211765
0.32549 0.584314 0.211765
0.380392 0.580392 0.207843
0.439216 0.588235 0.2
0.501961 0.592157 0.180392
0.560784 0.592157 0.160784
0.623529 0.592157 0.133333
0.705882 0.611765 0.0705882
0.768627 0.619608 0.0509804
0.827451 0.615686 0.0235294
0.886275 0.623529 0.0156863
0.92549 0.619608 0.00392157
0.160784 0.662745 0.266667
0.160784 0.666667 0.262745
0.168627 0.666667 0.247059
0.203922 0.658824 0.247059
0.247059 0.658824 0.243137
0.294118 0.654902 0.243137
0.337255 0.647059 0.235294
0.388235 0.647059 0.235294
0.439216 0.639216 0.223529
0.513725 0.654902 0.223529
0.568627 0.647059 0.2
0.627451 0.647059 0.172549
0.678431 0.647059 0.137255
0.768627 0.670588 0.0745098
0.827451 0.67451 0.0627451
0.882353 0.678431 0.0392157
0.92549 0.678431 0.0196078
0.207843 0.72549 0.309804
0.207843 0.72549 0.298039
0.215686 0.733333 0.294118
0.231373 0.717647 0.278431
0.266667 0.713725 0.270588
0.313725 0.713725 0.27451
0.368627 0.717647 0.282353
0.411765 0.713725 0.27451
0.458824 0.701961 0.270588
0.517647 0.705882 0.262745
0.580392 0.709804 0.247059
0.623529 0.701961 0.219608
0.682353 0.701961 0.196078
0.74902 0.709804 0.176471
0.819608 0.72549 0.113725
0.882353 0.733333 0.0862745
0.929412 0.737255 0.0705882
0.258824 0.788235 0.352941
0.254902 0.780392 0.341176
0.258824 0.780392 0.329412
0.27451 0.780392 0.321569
0.309804 0.780392 0.32549
0.356863 0.784314 0.329412
0.388235 0.768627 0.317647
0.435294 0.764706 0.317647
0.490196 0.776471 0.321569
0.537255 0.768627 0.317647
0.588235 0.764706 0.301961
0.639216 0.764706 0.282353
0.682353 0.756863 0.254902
0.756863 0.768627 0.247059
0.811765 0.776471 0.223529
0.878431 0.788235 0.172549
0.937255 0.803922 0.152941
0.321569 0.839216 0.403922
0.321569 0.835294 0.396078
0.313725 0.831373 0.380392
0.333333 0.839216 0.376471
0.356863 0.835294 0.380392
0.392157 0.835294 0.376471
0.431373 0.835294 0.376471
0.470588 0.827451 0.368627
0.509804 0.823529 0.368627
0.564706 0.831373 0.376471
0.603922 0.819608 0.360784
0.65098 0.823529 0.352941
0.705882 0.823529 0.337255
0.768627 0.835294 0.329412
0.811765 0.835294 0.301961
0.862745 0.835294 0.27451
0.921569 0.843137 0.243137
0.407843 0.901961 0.478431
0.4 0.894118 0.462745
0.4 0.898039 0.454902
0.403922 0.894118 0.447059
0.419608 0.882353 0.435294
0.454902 0.898039 0.45098
0.486275 0.886275 0.447059
0.513725 0.882353 0.435294
0.560784 0.890196 0.45098
0.603922 0.886275 0.447059
0.647059 0.890196 0.454902
0.678431 0.886275 0.443137
0.733333 0.890196 0.439216
0.784314 0.898039 0.431373
0.823529 0.898039 0.403922
0.87451 0.901961 0.392157
0.917647 0.901961 0.372549
0.509804 0.960784 0.560784
0.498039 0.952941 0.545098
0.494118 0.94902 0.541176
0.509804 0.956863 0.545098
0.521569 0.952941 0.541176
0.537255 0.94902 0.533333
0.568627 0.952941 0.541176
0.607843 0.956863 0.54902
0.635294 0.952941 0.552941
0.662745 0.945098 0.54902
0.701961 0.94902 0.560784
0.741176 0.952941 0.564706
0.780392 0.952941 0.560784
0.815686 0.956863 0.552941
0.854902 0.956863 0.545098
0.894118 0.964706 0.541176
0.929412 0.964706 0.529412
0.105882 0.109804 0.129412
0.117647 0.113725 0.133333
0.141176 0.121569 0.137255
0.152941 0.117647 0.121569
0.184314 0.129412 0.129412
0.203922 0.129412 0.12549
0.235294 0.12549 0.113725
0.278431 0.133333 0.113725
0.32549 0.133333 0.105882
0.384314 0.141176 0.101961
0.443137 0.141176 0.0901961
0.501961 0.141176 0.0705882
0.568627 0.14902 0.0509804
0.635294 0.14902 0.027451
0.705882 0.164706 0.0117647
0.772549 0.176471 0.00392157
0.839216 0.192157 0.00392157
0.109804 0.133333 0.133333
0.121569 0.12549 0.133333
0.137255 0.129412 0.133333
0.152941 0.129412 0.129412
0.180392 0.137255 0.129412
0.207843 0.133333 0.117647
0.243137 0.133333 0.117647
0.290196 0.145098 0.113725
0.337255 0.145098 0.109804
0.396078 0.14902 0.101961
0.454902 0.152941 0.0941176
0.517647 0.156863 0.0745098
0.580392 0.160784 0.0470588
0.65098 0.172549 0.0235294
0.717647 0.180392 0.0117647
0.772549 0.188235 0.00392157
0.831373 0.196078 0
0.109804 0.14902 0.133333
0.133333 0.156863 0.141176
0.141176 0.14902 0.129412
0.164706 0.152941 0.133333
0.192157 0.156863 0.137255
0.215686 0.14902 0.121569
0.25098 0.152941 0.121569
0.309804 0.164706 0.129412
0.34902 0.164706 0.109804
0.415686 0.176471 0.109804
0.466667 0.168627 0.0862745
0.529412 0.176471 0.0745098
0.596078 0.188235 0.054902
0.662745 0.2 0.027451
0.721569 0.203922 0.00392157
0.780392 0.215686 0.00392157
0.839216 0.227451 0.00392157
0.117647 0.180392 0.141176
0.133333 0.184314 0.14902
0.145098 0.184314 0.14902
0.160784 0.172549 0.137255
0.188235 0.180392 0.133333
0.231373 0.184314 0.129412
0.27451 0.188235 0.133333
0.32549 0.196078 0.129412
0.368627 0.192157 0.113725
0.431373 0.203922 0.109804
0.482353 0.2 0.0901961
0.537255 0.2 0.0627451
0.607843 0.215686 0.0431373
0.67451 0.227451 0.0196078
0.741176 0.247059 0.00784314
0.784314 0.243137 0
0.843137 0.254902 0
0.121569 0.215686 0.152941
0.133333 0.223529 0.152941
0.14902 0.219608 0.152941
0.164706 0.215686 0.145098
0.203922 0.219608 0.14902
0.231373 0.223529 0.133333
0.286275 0.231373 0.133333
0.341176 0.235294 0.129412
0.4 0.239216 0.121569
0.454902 0.243137 0.109804
0.513725 0.247059 0.0941176
0.568627 0.25098 0.0745098
0.631373 0.258824 0.0431373
0.694118 0.270588 0.0196078
0.74902 0.278431 0.00784314
0.807843 0.290196 0
0.862745 0.301961 0
0.133333 0.270588 0.172549
0.133333 0.270588 0.164706
0.152941 0.27451 0.164706
0.172549 0.270588 0.156863
0.2 0.262745 0.152941
0.243137 0.270588 0.14902
0.290196 0.278431 0.133333
0.345098 0.286275 0.129412
0.403922 0.282353 0.109804
0.482353 0.294118 0.105882
0.537255 0.294118 0.0823529
0.6 0.301961 0.0705882
0.662745 0.313725 0.0470588
0.709804 0.313725 0.0117647
0.772549 0.32549 0.00392157
0.815686 0.329412 0
0.866667 0.337255 0
0.12549 0.321569 0.176471
0.137255 0.333333 0.180392
0.152941 0.333333 0.172549
0.172549 0.32549 0.164706
0.2 0.321569 0.160784
0.243137 0.32549 0.156863
0.301961 0.337255 0.156863
0.352941 0.341176 0.137255
0.423529 0.352941 0.12549
0.494118 0.360784 0.113725
0.556863 0.360784 0.0941176
0.627451 0.364706 0.0627451
0.686275 0.364706 0.0392157
0.737255 0.368627 0.00784314
0.788235 0.372549 0
0.835294 0.380392 0
0.886275 0.388235 0
0.129412 0.396078 0.192157
0.133333 0.4 0.188235
0.145098 0.4 0.180392
0.180392 0.4 0.180392
0.211765 0.396078 0.180392
0.25098 0.388235 0.172549
0.305882 0.4 0.172549
0.356863 0.396078 0.156863
0.427451 0.415686 0.14902
0.486275 0.411765 0.105882
0.556863 0.415686 0.0901961
0.635294 0.431373 0.0745098
0.698039 0.427451 0.0352941
0.764706 0.435294 0.0196078
0.815686 0.435294 0.00784314
0.858824 0.439216 0
0.905882 0.443137 0
0.121569 0.458824 0.203922
0.129412 0.466667 0.203922
0.133333 0.462745 0.188235
0.176471 0.462745 0.188235
0.211765 0.454902 0.180392
0.258824 0.458824 0.188235
0.313725 0.466667 0.188235
0.364706 0.466667 0.176471
0.423529 0.466667 0.160784
0.482353 0.462745 0.133333
0.564706 0.482353 0.101961
0.639216 0.494118 0.0862745
0.701961 0.494118 0.054902
0.764706 0.494118 0.0196078
0.819608 0.490196 0.00392157
0.87451 0.494118 0
0.913725 0.494118 0
0.121569 0.521569 0.219608
0.137255 0.537255 0.223529
0.145098 0.537255 0.211765
0.180392 0.533333 0.207843
0.215686 0.521569 0.196078
0.270588 0.52549 0.203922
0.317647 0.521569 0.203922
0.368627 0.521569 0.192157
0.431373 0.52549 0.180392
0.494118 0.529412 0.160784
0.560784 0.537255 0.14902
0.639216 0.54902 0.0941176
0.698039 0.545098 0.0588235
0.772549 0.560784 0.0509804
0.827451 0.560784 0.0235294
0.87451 0.552941 0.00784314
0.921569 0.552941 0.00392157
0.137255 0.588235 0.247059
0.14902 0.6 0.243137
0.14902 0.596078 0.227451
0.180392 0.592157 0.223529
0.239216 0.6 0.231373
0.282353 0.592157 0.227451
0.337255 0.596078 0.227451
0.372549 0.580392 0.215686
0.447059 0.592157 0.215686
0.501961 0.588235 0.196078
0.560784 0.588235 0.168627
0.627451 0.596078 0.152941
0.713725 0.615686 0.101961
0.764706 0.611765 0.0627451
0.835294 0.623529 0.0588235
0.886275 0.623529 0.027451
0.921569 0.611765 0.00392157
0.164706 0.654902 0.27451
0.180392 0.666667 0.278431
0.176471 0.662745 0.262745
0.203922 0.662745 0.254902
0.239216 0.65098 0.247059
0.301961 0.662745 0.254902
0.345098 0.654902 0.25098
0.396078 0.65098 0.25098
0.454902 0.654902 0.247059
0.505882 0.647059 0.227451
0.576471 0.654902 0.215686
0.627451 0.647059 0.184314
0.698039 0.658824 0.172549
0.772549 0.67451 0.105882
0.823529 0.670588 0.0666667
0.882353 0.67451 0.0588235
0.929412 0.678431 0.0431373
0.203922 0.713725 0.309804
0.211765 0.721569 0.309804
0.215686 0.721569 0.298039
0.239216 0.72549 0.294118
0.266667 0.713725 0.278431
0.317647 0.717647 0.286275
0.372549 0.713725 0.290196
0.415686 0.713725 0.286275
0.462745 0.705882 0.282353
0.521569 0.709804 0.27451
0.568627 0.698039 0.247059
0.635294 0.709804 0.239216
0.694118 0.713725 0.219608
0.752941 0.713725 0.196078
0.835294 0.737255 0.152941
0.886275 0.737255 0.105882
0.937255 0.745098 0.113725
0.262745 0.776471 0.356863
0.270588 0.784314 0.360784
0.258824 0.772549 0.337255
0.27451 0.780392 0.329412
0.309804 0.772549 0.32549
0.34902 0.776471 0.329412
0.384314 0.764706 0.321569
0.447059 0.776471 0.333333
0.490196 0.768627 0.329412
0.537255 0.764706 0.32549
0.592157 0.764706 0.309804
0.639216 0.760784 0.290196
0.694118 0.768627 0.27451
0.772549 0.784314 0.270588
0.803922 0.768627 0.223529
0.878431 0.788235 0.188235
0.933333 0.803922 0.164706
0.317647 0.827451 0.403922
0.321569 0.831373 0.403922
0.337255 0.847059 0.407843
0.32549 0.831373 0.376471
0.352941 0.827451 0.376471
0.392157 0.835294 0.380392
0.431373 0.831373 0.380392
0.470588 0.823529 0.376471
0.52549 0.831373 0.384314
0.556863 0.823529 0.372549
0.611765 0.823529 0.376471
0.658824 0.827451 0.364706
0.713725 0.831373 0.352941
0.756863 0.823529 0.321569
0.819608 0.843137 0.317647
0.870588 0.843137 0.290196
0.929412 0.854902 0.266667
0.403922 0.894118 0.47451
0.396078 0.890196 0.466667
0.407843 0.898039 0.466667
0.407843 0.890196 0.45098
0.427451 0.894118 0.454902
0.45098 0.894118 0.45098
0.490196 0.890196 0.45098
0.529412 0.894118 0.458824
0.568627 0.894118 0.458824
0.607843 0.894118 0.462745
0.643137 0.886275 0.454902
0.690196 0.890196 0.454902
0.729412 0.886275 0.435294
0.788235 0.901961 0.435294
0.827451 0.901961 0.415686
0.882353 0.909804 0.403922
0.917647 0.905882 0.380392
0.513725 0.952941 0.568627
0.509804 0.952941 0.560784
0.509804 0.952941 0.552941
0.509804 0.94902 0.545098
0.529412 0.956863 0.54902
0.54902 0.952941 0.54902
0.564706 0.94902 0.537255
0.603922 0.952941 0.552941
0.635294 0.952941 0.556863
0.67451 0.956863 0.564706
0.709804 0.956863 0.572549
0.741176 0.952941 0.568627
0.784314 0.956863 0.568627
0.811765 0.956863 0.552941
0.862745 0.964706 0.556863
0.898039 0.968627 0.54902
0.929412 0.964706 0.537255
0.105882 0.105882 0.145098
0.109804 0.105882 0.137255
0.141176 0.121569 0.14902
0.156863 0.117647 0.14902
0.172549 0.117647 0.133333
0.203922 0.12549 0.133333
0.243137 0.133333 0.141176
0.282353 0.133333 0.133333
0.333333 0.137255 0.129412
0.384314 0.137255 0.121569
0.447059 0.137255 0.113725
0.509804 0.141176 0.101961
0.576471 0.14902 0.0823529
0.643137 0.156863 0.0509804
0.709804 0.168627 0.0235294
0.768627 0.180392 0
0.831373 0.192157 0
0.113725 0.133333 0.156863
0.12549 0.129412 0.14902
0.141176 0.133333 0.152941
0.156863 0.133333 0.14902
0.176471 0.129412 0.137255
0.207843 0.133333 0.141176
0.25098 0.145098 0.141176
0.294118 0.145098 0.137255
0.341176 0.145098 0.129412
0.396078 0.145098 0.121569
0.45098 0.145098 0.105882
0.517647 0.14902 0.0941176
0.584314 0.156863 0.0784314
0.654902 0.168627 0.0509804
0.717647 0.184314 0.0235294
0.772549 0.192157 0.00392157
0.831373 0.196078 0
0.117647 0.156863 0.160784
0.12549 0.145098 0.156863
0.145098 0.14902 0.156863
0.156863 0.14902 0.152941
0.184314 0.152941 0.145098
0.211765 0.152941 0.141176
0.254902 0.156863 0.141176
0.301961 0.160784 0.137255
0.352941 0.164706 0.133333
0.407843 0.164706 0.121569
0.470588 0.168627 0.117647
0.52549 0.168627 0.0980392
0.588235 0.172549 0.0745098
0.658824 0.188235 0.0431373
0.721569 0.2 0.0156863
0.788235 0.223529 0.00784314
0.835294 0.223529 0.00392157
0.12549 0.188235 0.164706
0.133333 0.180392 0.164706
0.152941 0.188235 0.168627
0.176471 0.184314 0.164706
0.196078 0.184314 0.156863
0.235294 0.184314 0.152941
0.27451 0.188235 0.145098
0.321569 0.188235 0.141176
0.376471 0.196078 0.137255
0.431373 0.2 0.129412
0.490196 0.2 0.117647
0.541176 0.2 0.0980392
0.611765 0.215686 0.0823529
0.678431 0.223529 0.0509804
0.733333 0.227451 0.0156863
0.784314 0.235294 0
0.85098 0.262745 0
0.129412 0.223529 0.172549
0.137255 0.223529 0.176471
0.14902 0.219608 0.164706
0.176471 0.223529 0.168627
0.2 0.227451 0.164706
0.239216 0.227451 0.152941
0.294118 0.235294 0.156863
0.345098 0.235294 0.14902
0.403922 0.239216 0.141176
0.458824 0.239216 0.129412
0.513725 0.239216 0.113725
0.568627 0.243137 0.0980392
0.631373 0.254902 0.0745098
0.701961 0.270588 0.0588235
0.74902 0.270588 0.0156863
0.803922 0.282353 0.00392157
0.862745 0.298039 0
0.12549 0.262745 0.180392
0.145098 0.27451 0.192157
0.14902 0.270588 0.176471
0.180392 0.278431 0.184314
0.2 0.262745 0.164706
0.25098 0.282353 0.176471
0.301961 0.282353 0.156863
0.352941 0.286275 0.152941
0.427451 0.298039 0.14902
0.486275 0.290196 0.129412
0.541176 0.294118 0.117647
0.596078 0.294118 0.0980392
0.65098 0.298039 0.0627451
0.713725 0.309804 0.0392157
0.764706 0.313725 0.00784314
0.823529 0.329412 0.00392157
0.87451 0.337255 0
0.129412 0.32549 0.196078
0.145098 0.333333 0.2
0.152941 0.337255 0.192157
0.172549 0.329412 0.180392
0.211765 0.329412 0.184314
0.254902 0.337255 0.184314
0.298039 0.333333 0.164706
0.372549 0.356863 0.164706
0.431373 0.352941 0.14902
0.490196 0.352941 0.133333
0.564706 0.360784 0.12549
0.635294 0.364706 0.101961
0.686275 0.360784 0.0705882
0.729412 0.360784 0.027451
0.792157 0.372549 0.0117647
0.843137 0.384314 0.00392157
0.886275 0.384314 0
0.133333 0.396078 0.215686
0.152941 0.407843 0.219608
0.152941 0.403922 0.2
0.180392 0.407843 0.2
0.215686 0.4 0.192157
0.262745 0.4 0.2
0.305882 0.4 0.184314
0.360784 0.4 0.168627
0.427451 0.407843 0.156863
0.505882 0.427451 0.14902
0.568627 0.423529 0.12549
0.631373 0.423529 0.101961
0.701961 0.431373 0.0784314
0.768627 0.435294 0.0509804
0.807843 0.431373 0.0156863
0.858824 0.435294 0.00392157
0.901961 0.435294 0
0.14902 0.470588 0.239216
0.145098 0.466667 0.227451
0.160784 0.478431 0.219608
0.184314 0.478431 0.215686
0.215686 0.458824 0.2
0.270588 0.470588 0.211765
0.313725 0.466667 0.203922
0.368627 0.470588 0.192157
0.423529 0.462745 0.172549
0.494118 0.470588 0.160784
0.564706 0.482353 0.129412
0.639216 0.486275 0.113725
0.701961 0.490196 0.0901961
0.772549 0.498039 0.0705882
0.827451 0.498039 0.0392157
0.878431 0.494118 0.0156863
0.913725 0.494118 0
0.164706 0.537255 0.262745
0.160784 0.541176 0.254902
0.168627 0.541176 0.239216
0.184314 0.537255 0.227451
0.227451 0.537255 0.227451
0.270588 0.52549 0.219608
0.32549 0.533333 0.227451
0.376471 0.529412 0.215686
0.431373 0.52549 0.196078
0.494118 0.529412 0.184314
0.556863 0.533333 0.160784
0.643137 0.552941 0.133333
0.713725 0.556863 0.117647
0.772549 0.556863 0.0901961
0.835294 0.564706 0.0705882
0.882353 0.556863 0.027451
0.929412 0.556863 0.0117647
0.172549 0.596078 0.278431
0.160784 0.592157 0.266667
0.180392 0.603922 0.266667
0.196078 0.603922 0.247059
0.231373 0.596078 0.243137
0.290196 0.6 0.247059
0.329412 0.588235 0.239216
0.380392 0.584314 0.235294
0.447059 0.588235 0.227451
0.498039 0.584314 0.203922
0.572549 0.6 0.2
0.635294 0.603922 0.180392
0.713725 0.615686 0.129412
0.768627 0.611765 0.105882
0.835294 0.623529 0.101961
0.878431 0.615686 0.0588235
0.929412 0.615686 0.0352941
0.207843 0.666667 0.317647
0.203922 0.666667 0.305882
0.2 0.662745 0.286275
0.211765 0.666667 0.27451
0.254902 0.662745 0.270588
0.298039 0.658824 0.270588
0.352941 0.658824 0.266667
0.396078 0.647059 0.266667
0.454902 0.65098 0.262745
0.517647 0.654902 0.25098
0.568627 0.654902 0.231373
0.631373 0.654902 0.215686
0.690196 0.65098 0.184314
0.780392 0.678431 0.14902
0.835294 0.682353 0.141176
0.890196 0.682353 0.117647
0.929412 0.678431 0.0823529
0.235294 0.721569 0.341176
0.231373 0.717647 0.329412
0.243137 0.72549 0.329412
0.243137 0.72549 0.309804
0.278431 0.721569 0.305882
0.32549 0.721569 0.305882
0.368627 0.713725 0.301961
0.419608 0.713725 0.301961
0.466667 0.705882 0.298039
0.517647 0.705882 0.282353
0.572549 0.705882 0.266667
0.627451 0.701961 0.25098
0.698039 0.713725 0.239216
0.760784 0.717647 0.219608
0.831373 0.733333 0.168627
0.890196 0.741176 0.156863
0.933333 0.741176 0.145098
0.270588 0.764706 0.372549
0.27451 0.772549 0.368627
0.294118 0.788235 0.372549
0.278431 0.768627 0.341176
0.309804 0.772549 0.341176
0.356863 0.776471 0.341176
0.392157 0.768627 0.337255
0.439216 0.764706 0.333333
0.494118 0.772549 0.345098
0.537255 0.764706 0.337255
0.596078 0.768627 0.329412
0.643137 0.764706 0.305882
0.698039 0.768627 0.294118
0.756863 0.776471 0.27451
0.815686 0.780392 0.258824
0.87451 0.788235 0.211765
0.933333 0.8 0.192157
0.333333 0.827451 0.423529
0.345098 0.839216 0.427451
0.333333 0.827451 0.407843
0.345098 0.835294 0.403922
0.360784 0.835294 0.392157
0.396078 0.835294 0.392157
0.435294 0.831373 0.392157
0.478431 0.827451 0.392157
0.52549 0.831373 0.4
0.568627 0.827451 0.396078
0.611765 0.823529 0.388235
0.658824 0.827451 0.376471
0.709804 0.823529 0.356863
0.760784 0.835294 0.345098
0.807843 0.827451 0.321569
0.866667 0.835294 0.301961
0.917647 0.847059 0.27451
0.411765 0.890196 0.486275
0.419608 0.894118 0.486275
0.419608 0.894118 0.482353
0.415686 0.890196 0.462745
0.435294 0.898039 0.466667
0.462745 0.890196 0.462745
0.494118 0.894118 0.466667
0.52549 0.886275 0.458824
0.572549 0.898039 0.470588
0.607843 0.890196 0.466667
0.647059 0.890196 0.470588
0.686275 0.890196 0.466667
0.741176 0.898039 0.458824
0.780392 0.890196 0.439216
0.831373 0.901961 0.431373
0.870588 0.894118 0.403922
0.913725 0.901961 0.388235
0.513725 0.94902 0.572549
0.517647 0.952941 0.572549
0.513725 0.94902 0.560784
0.521569 0.952941 0.560784
0.517647 0.94902 0.545098
0.545098 0.94902 0.552941
0.576471 0.956863 0.560784
0.603922 0.952941 0.556863
0.639216 0.956863 0.564706
0.67451 0.956863 0.572549
0.709804 0.952941 0.576471
0.745098 0.952941 0.584314
0.780392 0.956863 0.572549
0.823529 0.956863 0.572549
0.862745 0.964706 0.568627
0.901961 0.968627 0.560784
0.937255 0.968627 0.552941
0.113725 0.109804 0.172549
0.12549 0.113725 0.180392
0.141176 0.117647 0.172549
0.156863 0.113725 0.168627
0.184314 0.133333 0.172549
0.203922 0.121569 0.156863
0.235294 0.113725 0.145098
0.27451 0.117647 0.14902
0.333333 0.133333 0.152941
0.388235 0.129412 0.145098
0.447059 0.129412 0.137255
0.509804 0.129412 0.129412
0.572549 0.12549 0.109804
0.647059 0.141176 0.0941176
0.709804 0.14902 0.054902
0.776471 0.172549 0.0235294
0.823529 0.172549 0
0.113725 0.129412 0.176471
0.129412 0.12549 0.180392
0.14902 0.133333 0.188235
0.164706 0.133333 0.176471
0.192157 0.14902 0.180392
0.215686 0.137255 0.172549
0.25098 0.133333 0.152941
0.290196 0.137255 0.156863
0.341176 0.141176 0.156863
0.403922 0.145098 0.14902
0.462745 0.145098 0.141176
0.521569 0.145098 0.129412
0.584314 0.141176 0.109804
0.654902 0.156863 0.0941176
0.717647 0.168627 0.0588235
0.792157 0.2 0.0313725
