example-Advanced/bin/data/ofxGpuLutCube/LUT/Dramatic-50.cube
# (C) 2014 VisionColor & Patchflyer [www.vision-color.com]
# Generator: VC Patchmatch v.2.1.1 [64/53]
# All work and no play makes Jack a dull boy.
# LUT generated from: Kodak Elite Chrome 200_FPE
LUT_3D_SIZE 9
0.035889 0.039857 0.039918
0.043488 0.042298 0.040589
0.081209 0.045411 0.037934
0.138460 0.055268 0.040314
0.204868 0.069642 0.042908
0.277958 0.077882 0.045441
0.351080 0.078065 0.048737
0.395300 0.082124 0.051301
0.397436 0.082460 0.051484
0.036774 0.048096 0.044312
0.063539 0.067018 0.049012
0.124514 0.073976 0.044129
0.169711 0.072969 0.042969
0.226444 0.074098 0.044007
0.293065 0.081941 0.046571
0.358312 0.081636 0.049256
0.400580 0.084657 0.051667
0.402747 0.084779 0.051881
0.031678 0.069032 0.058076
0.042451 0.099611 0.062318
0.193454 0.176059 0.078706
0.300771 0.171084 0.073671
0.369253 0.148257 0.061311
0.401556 0.134218 0.057588
0.439124 0.128359 0.056947
0.467414 0.131014 0.059052
0.467048 0.129274 0.058869
0.030182 0.095186 0.079011
0.034394 0.156497 0.097383
0.081941 0.202029 0.090669
0.421836 0.343923 0.127993
0.540688 0.306035 0.113558
0.561669 0.270710 0.100221
0.560739 0.225513 0.080873
0.564920 0.220203 0.086366
0.561685 0.217395 0.086397
0.033539 0.173831 0.136477
0.033967 0.187167 0.139590
0.038880 0.234775 0.128176
0.228992 0.355459 0.134279
0.694530 0.521981 0.248493
0.751720 0.499199 0.227314
0.786053 0.484886 0.218494
0.795392 0.490105 0.252918
0.796063 0.490684 0.256184
0.037110 0.243565 0.194980
0.037568 0.250858 0.198032
0.041932 0.310063 0.210788
0.082231 0.369085 0.150515
0.663111 0.617380 0.286305
0.886198 0.710796 0.408133
0.916686 0.713115 0.448905
0.918486 0.724468 0.517494
0.918395 0.726268 0.522713
0.043580 0.324681 0.263951
0.044251 0.332860 0.268528
0.049805 0.389532 0.289189
0.076570 0.449744 0.226612
0.598962 0.662882 0.322499
0.906035 0.812253 0.513008
0.934966 0.820005 0.598993
0.931640 0.825864 0.644739
0.931701 0.826871 0.646571
0.034699 0.191287 0.163851
0.054139 0.417334 0.336645
0.069245 0.479286 0.380926
0.158373 0.541283 0.331090
0.646555 0.727916 0.495018
0.895506 0.831601 0.604639
0.932860 0.843015 0.663722
0.933837 0.843717 0.667842
0.933837 0.843717 0.667842
0.037324 0.233921 0.204776
0.058747 0.442542 0.356664
0.075471 0.494362 0.396979
0.183368 0.558373 0.352331
0.651652 0.734142 0.515114
0.897795 0.833402 0.609766
0.933227 0.843290 0.665156
0.933837 0.843717 0.667842
0.933837 0.843717 0.667842
0.036469 0.041535 0.044892
0.044709 0.042817 0.044739
0.087282 0.044526 0.044526
0.132601 0.049561 0.048524
0.189578 0.055512 0.040406
0.265904 0.064729 0.043854
0.343420 0.069917 0.047883
0.390906 0.076783 0.051026
0.394812 0.078309 0.051362
0.035706 0.049683 0.051484
0.053468 0.061372 0.059480
0.108431 0.060151 0.049073
0.158389 0.059754 0.043915
0.223209 0.063172 0.043336
0.286259 0.071412 0.045594
0.352850 0.075654 0.048646
0.396643 0.080018 0.051514
0.399756 0.081056 0.051759
0.030335 0.071046 0.075349
0.037293 0.091981 0.079377
0.163943 0.150668 0.093202
0.277485 0.147616 0.076295
0.348791 0.128328 0.060853
0.393744 0.119112 0.056397
0.431220 0.120119 0.055940
0.463966 0.126345 0.058747
0.464546 0.125551 0.058686
0.031373 0.106813 0.104616
0.033417 0.146273 0.117159
0.059541 0.186954 0.111696
0.400565 0.328969 0.142794
0.535348 0.308293 0.121431
0.547616 0.249409 0.095613
0.557443 0.221790 0.080873
0.562814 0.218402 0.087251
0.560952 0.217029 0.087770
0.034607 0.186984 0.164279
0.034394 0.187198 0.156619
0.037903 0.239689 0.150027
0.201312 0.353841 0.145754
0.682750 0.530587 0.263478
0.760601 0.503273 0.236408
0.786908 0.486137 0.221027
0.799603 0.495933 0.260548
0.801495 0.498344 0.265461
0.039704 0.264012 0.230991
0.039582 0.266300 0.228061
0.037079 0.232013 0.194430
0.073533 0.384833 0.172793
0.699031 0.644587 0.314809
0.895781 0.719356 0.418372
0.918486 0.717800 0.455741
0.919127 0.729290 0.524147
0.919158 0.732006 0.530617
0.048676 0.359686 0.314031
0.047944 0.357702 0.303716
0.051148 0.397070 0.309422
0.073976 0.452399 0.236637
0.590829 0.660655 0.321157
0.905089 0.813107 0.514763
0.935363 0.822416 0.601282
0.932189 0.829465 0.648463
0.932342 0.830961 0.650721
0.064332 0.455177 0.392493
0.061494 0.449805 0.373388
0.072999 0.487129 0.395758
0.151080 0.537530 0.330480
0.637308 0.724132 0.489921
0.894743 0.831052 0.603113
0.932860 0.843046 0.663722
0.933837 0.843717 0.667842
0.933898 0.843595 0.667018
0.076387 0.497292 0.430182
0.066133 0.466773 0.388190
0.077913 0.501457 0.411322
0.174060 0.553429 0.350622
0.641596 0.729747 0.508492
0.896727 0.832792 0.608392
0.933165 0.843259 0.664973
0.933837 0.843717 0.667842
0.933837 0.843687 0.667659
0.031922 0.038911 0.058869
0.047944 0.040864 0.063203
0.089113 0.046143 0.066285
0.142550 0.052308 0.068696
0.226749 0.058106 0.063325
0.281163 0.059602 0.060517
0.352697 0.059419 0.061036
0.391333 0.063783 0.063447
0.392767 0.064637 0.063111
0.031098 0.051514 0.072511
0.047120 0.058045 0.082521
0.107973 0.060853 0.089570
0.174746 0.061616 0.071717
0.237217 0.060670 0.063020
0.305547 0.060731 0.063630
0.356756 0.059327 0.060639
0.394537 0.064820 0.064942
0.396124 0.065705 0.064942
0.030793 0.069886 0.099001
0.035554 0.092927 0.118959
0.119234 0.127413 0.129915
0.240635 0.120058 0.096712
0.306127 0.096132 0.069062
0.352239 0.079774 0.060029
0.393042 0.073548 0.054932
0.428931 0.092897 0.069429
0.432593 0.095705 0.071046
0.034516 0.120912 0.158755
0.035554 0.145907 0.165377
0.047456 0.190799 0.169375
0.356222 0.312490 0.182101
0.489036 0.267521 0.145510
0.491875 0.195209 0.095064
0.500267 0.165621 0.081514
0.528328 0.189807 0.103578
0.529824 0.191730 0.106233
0.037690 0.205692 0.211002
0.039216 0.227878 0.232670
0.041169 0.271962 0.221653
0.131106 0.326986 0.153994
0.659159 0.531136 0.285512
0.743816 0.485512 0.249744
0.749889 0.437064 0.218677
0.793561 0.490806 0.302358
0.799878 0.499626 0.313680
0.045045 0.297459 0.293065
0.045014 0.300328 0.292027
0.049317 0.352270 0.322057
0.066316 0.397101 0.229313
0.584390 0.608835 0.292836
0.901061 0.737133 0.445411
0.923308 0.730205 0.493187
0.920317 0.742031 0.545190
0.920684 0.745937 0.551873
0.057008 0.399664 0.369665
0.055970 0.398779 0.363043
0.061067 0.435828 0.377661
0.087068 0.488441 0.297124
0.600061 0.679545 0.363180
0.906462 0.819883 0.526146
0.935699 0.823209 0.598810
0.934447 0.825071 0.618250
0.934691 0.825803 0.617853
0.088991 0.513512 0.459174
0.081483 0.502831 0.442512
0.091249 0.520348 0.446021
0.153338 0.544335 0.352819
0.656977 0.730449 0.492851
0.910033 0.831144 0.580682
0.934478 0.831205 0.626245
0.935210 0.831388 0.626734
0.935302 0.830259 0.623163
0.104189 0.537316 0.477058
0.089784 0.518212 0.454292
0.100130 0.532494 0.455726
0.171435 0.555840 0.365820
0.666316 0.735058 0.501259
0.912016 0.831876 0.581994
0.934691 0.831724 0.627832
0.935149 0.831815 0.628077
0.935271 0.830686 0.624445
0.031586 0.039948 0.071199
0.047669 0.042145 0.091218
0.085451 0.047120 0.098207
0.145174 0.054139 0.097810
0.221378 0.060121 0.096437
0.307103 0.063539 0.099123
0.381353 0.063539 0.101015
0.412482 0.071595 0.109590
0.414008 0.072297 0.109957
0.031708 0.054780 0.102998
0.037446 0.052308 0.106050
0.086152 0.056428 0.120211
0.182193 0.065003 0.120760
0.261479 0.065431 0.108034
0.326818 0.064179 0.099458
0.385534 0.063539 0.101686
0.414893 0.072358 0.110658
0.416632 0.073426 0.111421
0.033417 0.077913 0.139528
0.034150 0.080232 0.142489
0.072236 0.104372 0.165774
0.248615 0.131014 0.184604
0.333364 0.100404 0.130922
0.381994 0.083192 0.110811
0.413794 0.076539 0.100069
0.442817 0.102205 0.123507
0.445472 0.105196 0.126314
0.036988 0.140230 0.202396
0.036683 0.137270 0.195651
0.050507 0.192325 0.242741
0.278889 0.284382 0.271595
0.448386 0.235080 0.194308
0.453223 0.154314 0.127291
0.454597 0.127932 0.109468
0.527947 0.191073 0.161776
0.532097 0.194888 0.166522
0.040162 0.215641 0.251316
0.041108 0.228229 0.262440
0.050721 0.314382 0.324056
0.099092 0.351492 0.266209
0.616526 0.532174 0.344747
0.696300 0.427893 0.247425
0.674754 0.345068 0.204578
0.771038 0.466972 0.341360
0.777111 0.475914 0.353384
0.049073 0.318914 0.338903
0.049500 0.325200 0.341253
0.059876 0.392706 0.386725
0.074464 0.436744 0.320195
0.477470 0.578744 0.282979
0.897444 0.742687 0.468574
0.919951 0.740551 0.544869
0.920348 0.761929 0.589532
0.920623 0.765438 0.594812
0.069795 0.440436 0.425940
0.069551 0.443091 0.424872
0.084169 0.491585 0.455421
0.117983 0.538628 0.403967
0.543297 0.680674 0.416526
0.906035 0.827359 0.571038
0.935241 0.829190 0.620447
0.934630 0.831662 0.632258
0.934630 0.833982 0.637903
0.119631 0.552850 0.508385
0.116579 0.551568 0.502525
0.126345 0.562432 0.504479
0.179919 0.578546 0.427985
0.640345 0.731121 0.515908
0.918303 0.835874 0.594415
0.934997 0.831998 0.628717
0.935027 0.833402 0.633112
0.934844 0.835416 0.639460
0.136568 0.573053 0.522606
0.127596 0.564843 0.511864
0.133211 0.570642 0.510155
0.185962 0.581598 0.429419
0.651850 0.735454 0.520546
0.920409 0.836393 0.594293
0.935149 0.831907 0.628321
0.935058 0.833036 0.631891
0.934874 0.835050 0.638270
0.031189 0.039368 0.092500
0.032685 0.038697 0.095491
0.062715 0.043458 0.113375
0.139925 0.053101 0.133486
0.230320 0.062318 0.139437
0.323919 0.065583 0.145785
0.392798 0.064149 0.149722
0.417853 0.075563 0.159304
0.419409 0.077211 0.161624
0.031586 0.046632 0.108431
0.032166 0.044312 0.113527
0.056245 0.045838 0.137026
0.168597 0.063355 0.181521
0.305211 0.073854 0.190921
0.339574 0.066102 0.152956
0.395514 0.064881 0.149630
0.420386 0.077729 0.159487
0.422217 0.079683 0.161746
0.034150 0.072969 0.151614
0.034577 0.073152 0.157351
0.044984 0.079042 0.182620
0.191623 0.114839 0.244587
0.370809 0.121798 0.236973
0.405432 0.087251 0.182605
0.421881 0.080079 0.156771
0.464576 0.124117 0.189578
0.469276 0.128573 0.194583
0.036927 0.126406 0.208347
0.037293 0.132784 0.217929
0.042969 0.165438 0.267353
0.174014 0.244709 0.334401
0.477897 0.293233 0.356466
0.493797 0.178759 0.235187
0.477958 0.139742 0.187243
0.575296 0.227985 0.265858
0.586801 0.239857 0.279377
0.041047 0.213138 0.282185
0.041718 0.220935 0.291829
0.049897 0.297292 0.372000
0.142443 0.392935 0.423056
0.531746 0.518502 0.476768
0.651591 0.376257 0.323003
0.624643 0.289479 0.254444
0.748882 0.452781 0.406943
0.755566 0.464744 0.421958
0.053346 0.337346 0.380804
0.054139 0.343114 0.384588
0.070741 0.424506 0.455055
0.132860 0.516960 0.486732
0.310262 0.534371 0.340459
0.839124 0.707286 0.496757
0.906264 0.702907 0.527932
0.910399 0.745647 0.615610
0.912322 0.755566 0.627832
0.089204 0.484810 0.486549
0.096956 0.499001 0.497414
0.137209 0.566155 0.547814
0.235096 0.633509 0.551461
0.425101 0.662745 0.466499
0.886397 0.826551 0.599954
0.933623 0.839811 0.655970
0.929534 0.843626 0.705226
0.928954 0.845640 0.715602
0.157687 0.589929 0.555230
0.168887 0.600549 0.565820
0.194690 0.622797 0.581598
0.336797 0.676768 0.593393
0.648020 0.754345 0.605905
0.915938 0.850828 0.680903
0.929656 0.856809 0.719661
0.929686 0.859586 0.738598
0.928374 0.860868 0.750729
0.166751 0.600244 0.561120
0.173556 0.605463 0.569390
0.197925 0.625788 0.584100
0.341131 0.678019 0.594095
0.670756 0.761456 0.611368
0.917342 0.851530 0.685634
0.929778 0.856901 0.720088
0.929717 0.859586 0.738354
0.928496 0.860838 0.749950
0.030915 0.039368 0.109773
0.031373 0.038209 0.112459
0.054597 0.042023 0.134554
0.124331 0.050385 0.163821
0.242893 0.063203 0.189517
0.348486 0.067384 0.203983
0.405402 0.063905 0.200504
0.434882 0.085328 0.215030
0.436622 0.086549 0.217807
0.031891 0.046906 0.126711
0.031556 0.044648 0.127687
0.048676 0.041505 0.147677
0.152010 0.054322 0.203677
0.273808 0.065736 0.213535
0.360510 0.067384 0.210056
0.408057 0.064851 0.200046
0.439185 0.090242 0.216129
0.441566 0.092317 0.219547
0.035157 0.072480 0.173251
0.035431 0.074098 0.179080
0.038178 0.067292 0.198642
0.128283 0.090303 0.269230
0.360220 0.132570 0.327581
0.440497 0.099641 0.275578
0.447669 0.095521 0.233280
0.516655 0.166018 0.287297
0.526513 0.174838 0.298985
0.038209 0.131228 0.237552
0.038758 0.137026 0.250034
0.043091 0.172366 0.313573
0.100694 0.215045 0.357397
0.401465 0.288411 0.445960
0.562249 0.246662 0.403326
0.564446 0.212467 0.348699
0.659632 0.321508 0.436469
0.669978 0.336675 0.451209
0.041596 0.213901 0.311986
0.042023 0.219669 0.319036
0.047883 0.273762 0.392248
0.095415 0.351736 0.453773
0.367071 0.449058 0.530282
0.701289 0.497307 0.583459
0.741558 0.450462 0.528603
0.812192 0.576715 0.627283
0.817929 0.589319 0.640406
0.055207 0.343603 0.414557
0.056428 0.352880 0.423041
0.070863 0.421820 0.495979
0.157870 0.531945 0.579492
0.445319 0.621332 0.627100
0.748943 0.695827 0.677256
0.815473 0.585763 0.545632
0.871916 0.693141 0.671031
0.875731 0.704158 0.681971
0.120974 0.536965 0.557519
0.145937 0.569131 0.582589
0.217563 0.638331 0.639826
0.409216 0.711849 0.694545
0.594858 0.764187 0.717388
0.690135 0.754986 0.614511
0.913817 0.822843 0.677821
0.915770 0.812680 0.737819
0.915099 0.814237 0.745235
0.210849 0.633234 0.622919
0.220768 0.640314 0.638819
0.280858 0.672786 0.671382
0.493553 0.738033 0.725612
0.740902 0.814725 0.782223
0.819394 0.836789 0.757839
0.892882 0.858640 0.773526
0.924315 0.868162 0.802060
0.924468 0.868009 0.803067
0.213321 0.635401 0.625086
0.222446 0.641413 0.640558
0.285893 0.674983 0.674281
0.501289 0.740597 0.728511
0.749813 0.818021 0.785397
0.826413 0.839902 0.763546
0.894713 0.859953 0.779324
0.923339 0.868589 0.805875
0.924193 0.868681 0.805234
0.031067 0.040497 0.128420
0.030823 0.038758 0.129824
0.048432 0.040986 0.157290
0.117647 0.048920 0.203311
0.243763 0.061769 0.244450
0.370214 0.068788 0.266758
0.425055 0.067567 0.256321
0.459113 0.094636 0.279637
0.460731 0.095735 0.282078
0.031739 0.043671 0.138827
0.031891 0.043854 0.142702
0.043336 0.040162 0.163424
0.113222 0.049134 0.216709
0.255604 0.063386 0.259495
0.380011 0.069032 0.271794
0.426978 0.070222 0.257786
0.462196 0.099458 0.276951
0.465034 0.101900 0.280369
0.036164 0.072175 0.197238
0.036622 0.077180 0.206790
0.035859 0.066499 0.213169
0.094942 0.069215 0.268101
0.306508 0.111452 0.349432
0.466773 0.115541 0.357000
0.493385 0.123507 0.331548
0.561334 0.199283 0.384985
0.569604 0.207980 0.395270
0.040314 0.145205 0.279515
0.040681 0.151553 0.287755
0.044587 0.186252 0.349493
0.067445 0.213077 0.388556
0.290074 0.258381 0.460044
0.574243 0.271870 0.499779
0.661494 0.320012 0.512596
0.711360 0.400259 0.563561
0.719692 0.413687 0.574884
0.043214 0.227024 0.347784
0.043763 0.234623 0.355261
0.049989 0.287007 0.425040
0.069062 0.337545 0.487663
0.245640 0.418418 0.561318
0.679118 0.539330 0.671717
0.807187 0.571679 0.684230
0.839200 0.637919 0.722560
0.843900 0.647532 0.729274
0.056245 0.350134 0.455695
0.059663 0.369635 0.473610
0.073121 0.433051 0.542779
0.135225 0.490211 0.586847
0.425788 0.612848 0.677180
0.667948 0.659800 0.719387
0.840208 0.676143 0.739071
0.889372 0.756527 0.778683
0.891386 0.763394 0.784848
0.130190 0.546654 0.602106
0.175448 0.599512 0.645747
0.259648 0.655451 0.691798
0.425330 0.710567 0.731044
0.584466 0.757076 0.768063
0.714946 0.783261 0.782284
0.857481 0.805142 0.790372
0.902647 0.805600 0.796597
0.905547 0.813535 0.803983
0.228153 0.640375 0.676631
0.224460 0.637201 0.678706
0.295689 0.672786 0.705501
0.517739 0.738460 0.751736
0.740261 0.814817 0.809720
0.802853 0.837461 0.802792
0.862058 0.857176 0.807431
0.919829 0.868955 0.824186
0.920470 0.869688 0.828122
0.226780 0.639338 0.677913
0.223911 0.636683 0.679072
0.301457 0.674922 0.706935
0.527871 0.741634 0.754482
0.746090 0.816983 0.811307
0.809262 0.840360 0.805508
0.865995 0.859220 0.810910
0.919219 0.869657 0.825833
0.920653 0.870573 0.828550
0.031617 0.040162 0.144289
0.031434 0.037415 0.145022
0.048005 0.041016 0.178592
0.116793 0.049348 0.229557
0.249866 0.062562 0.271305
0.376806 0.070253 0.290257
0.437293 0.072358 0.274083
0.449928 0.086458 0.273838
0.459449 0.095216 0.278569
0.032044 0.041260 0.149599
0.032502 0.042145 0.156374
0.041901 0.039612 0.179355
0.105959 0.049012 0.238651
0.254231 0.063447 0.286168
0.386938 0.070832 0.299565
0.436408 0.073243 0.281285
0.470527 0.102968 0.298955
0.472053 0.104463 0.300328
0.037018 0.075105 0.220829
0.037903 0.085176 0.236545
0.037232 0.071351 0.236606
0.080690 0.060395 0.271580
0.268879 0.098634 0.360418
0.452491 0.108675 0.373541
0.519066 0.144137 0.373053
0.577752 0.214420 0.422461
0.583917 0.221744 0.429114
0.042908 0.169345 0.324804
0.043214 0.174594 0.331060
0.046235 0.204562 0.383612
0.061921 0.200565 0.394263
0.245457 0.243641 0.462028
0.572198 0.319631 0.546029
0.693416 0.371389 0.561639
0.727169 0.427512 0.592889
0.732570 0.436515 0.598871
0.045930 0.252689 0.387366
0.046693 0.261906 0.395911
0.052705 0.306111 0.457908
0.090379 0.372305 0.521920
0.409461 0.520088 0.636149
0.742367 0.630182 0.723171
0.831266 0.633341 0.726131
0.849546 0.658640 0.738399
0.852079 0.664836 0.742123
0.059937 0.373449 0.490333
0.066621 0.403143 0.517662
0.091341 0.453101 0.563409
0.275059 0.570977 0.643336
0.619745 0.704219 0.744869
0.788861 0.754543 0.793362
0.852171 0.749142 0.795132
0.895933 0.783261 0.814755
0.897063 0.786831 0.816983
0.138735 0.552636 0.624689
0.175937 0.592584 0.652399
0.253361 0.638239 0.684810
0.439643 0.690303 0.721248
0.638270 0.747463 0.769772
0.755093 0.783902 0.805508
0.852872 0.810788 0.832670
0.903685 0.819669 0.837766
0.906096 0.825589 0.842039
0.217960 0.631647 0.679194
0.219059 0.632380 0.679835
0.305150 0.675837 0.708919
0.531807 0.741634 0.756741
0.732662 0.811856 0.818540
0.789670 0.834287 0.837522
0.857816 0.860594 0.856809
0.919676 0.883696 0.875914
0.921538 0.884978 0.877287
0.219181 0.632654 0.679988
0.219730 0.632959 0.680262
0.312016 0.678462 0.710384
0.541878 0.744533 0.758907
0.740200 0.814328 0.820554
0.795773 0.837186 0.838346
0.861448 0.862608 0.857389
0.920256 0.885466 0.876707
0.921660 0.885679 0.877501
0.031769 0.040070 0.146609
0.031464 0.037385 0.145480
0.048615 0.041108 0.179660
0.119692 0.049622 0.231144
0.253132 0.062898 0.272374
0.377661 0.070283 0.290532
0.438025 0.072969 0.274510
0.454841 0.088960 0.285161
0.463600 0.096742 0.290654
0.032074 0.041016 0.149905
0.032502 0.042054 0.156985
0.042054 0.039582 0.180667
0.108278 0.049256 0.241428
0.257649 0.063813 0.288243
0.389349 0.070893 0.300999
0.437629 0.073945 0.282414
0.471717 0.104005 0.300420
0.473182 0.105501 0.301671
0.037018 0.074708 0.221286
0.038025 0.086152 0.239109
0.037354 0.071321 0.237888
0.081910 0.062196 0.274571
0.271534 0.100740 0.363714
0.454292 0.109590 0.375433
0.523644 0.148745 0.377874
0.581750 0.219181 0.427619
0.587488 0.225925 0.433783
0.043061 0.171420 0.327642
0.043336 0.176791 0.333898
0.046418 0.207156 0.387152
0.062257 0.203037 0.396796
0.247410 0.246967 0.465293
0.576745 0.327596 0.551156
0.700099 0.384421 0.569467
0.731075 0.434043 0.597559
0.735836 0.441917 0.602869
0.046235 0.256107 0.390845
0.046967 0.264973 0.399084
0.053498 0.310628 0.462547
0.095689 0.379934 0.527169
0.440040 0.539712 0.648875
0.753231 0.642420 0.730098
0.833738 0.638682 0.729061
0.851225 0.662791 0.740902
0.853635 0.668711 0.744442
0.060914 0.379278 0.496101
0.068116 0.408881 0.523003
0.094697 0.459266 0.567620
0.294987 0.581842 0.651118
0.631815 0.711391 0.749783
0.793072 0.759243 0.796597
0.853910 0.754299 0.798489
0.895933 0.785641 0.816526
0.897154 0.787289 0.817502
0.140352 0.554650 0.627436
0.179995 0.595300 0.654749
0.259251 0.641291 0.686732
0.450080 0.693477 0.723781
0.648386 0.751339 0.772976
0.762051 0.788510 0.808957
0.856382 0.815183 0.835904
0.903899 0.823331 0.841001
0.906584 0.827420 0.844022
0.217166 0.630671 0.678706
0.218906 0.632136 0.679713
0.309667 0.677333 0.709682
0.537911 0.742824 0.757778
0.735378 0.811917 0.818998
0.792111 0.834165 0.837766
0.860227 0.861112 0.858000
0.919768 0.884337 0.877806
0.921630 0.885649 0.878691
0.219120 0.632593 0.680018
0.220035 0.633112 0.680385
0.316320 0.679774 0.711269
0.547189 0.745937 0.760098
0.741543 0.814725 0.821500
0.795346 0.837034 0.839658
0.861692 0.862913 0.859068
0.920226 0.885771 0.878477
0.921874 0.886442 0.879149
