example-Advanced/bin/data/ofxGpuLutCube/LUT/Dramatic-12.cube
#Generated by Picture Instruments - Look Creator
TITLE "Agfa Vista 800 Night-Tungsten+"
LUT_3D_SIZE 5
0.0196078 0.12549 0.235294
0.12549 0.137255 0.247059
0.34902 0.0745098 0.243137
0.733333 0 0.258824
0.94902 0 0.258824
0.0862745 0.278431 0.282353
0.196078 0.266667 0.262745
0.454902 0.262745 0.227451
0.780392 0.262745 0.227451
0.972549 0.27451 0.25098
0.298039 0.639216 0.364706
0.403922 0.639216 0.364706
0.623529 0.635294 0.286275
0.870588 0.639216 0.180392
0.976471 0.607843 0.121569
0.698039 0.890196 0.631373
0.709804 0.878431 0.6
0.792157 0.886275 0.572549
0.909804 0.878431 0.458824
0.980392 0.843137 0.305882
0.890196 0.945098 0.831373
0.890196 0.941176 0.823529
0.905882 0.945098 0.819608
0.917647 0.937255 0.8
0.968627 0.956863 0.792157
0.027451 0.164706 0.32549
0.121569 0.141176 0.286275
0.396078 0.0823529 0.286275
0.760784 0.0313725 0.266667
0.964706 0.0470588 0.254902
0.117647 0.298039 0.360784
0.223529 0.286275 0.345098
0.478431 0.262745 0.313725
0.796078 0.294118 0.270588
0.976471 0.333333 0.235294
0.403922 0.686275 0.498039
0.431373 0.643137 0.439216
0.635294 0.639216 0.380392
0.890196 0.647059 0.305882
0.984314 0.627451 0.203922
0.733333 0.886275 0.686275
0.745098 0.886275 0.67451
0.788235 0.866667 0.623529
0.909804 0.882353 0.564706
0.984314 0.854902 0.423529
0.909804 0.94902 0.854902
0.909804 0.94902 0.85098
0.917647 0.94902 0.847059
0.941176 0.952941 0.839216
0.964706 0.952941 0.811765
0.027451 0.227451 0.552941
0.231373 0.211765 0.517647
0.517647 0.2 0.517647
0.843137 0.117647 0.533333
0.976471 0.00784314 0.415686
0.141176 0.360784 0.52549
0.27451 0.345098 0.533333
0.537255 0.352941 0.52549
0.831373 0.34902 0.529412
0.972549 0.341176 0.439216
0.439216 0.67451 0.635294
0.517647 0.67451 0.639216
0.694118 0.678431 0.635294
0.866667 0.65098 0.572549
0.976471 0.615686 0.47451
0.788235 0.901961 0.792157
0.792157 0.882353 0.780392
0.827451 0.878431 0.760784
0.898039 0.878431 0.721569
0.980392 0.858824 0.631373
0.92549 0.960784 0.882353
0.921569 0.952941 0.87451
0.929412 0.952941 0.87451
0.94902 0.956863 0.87451
0.968627 0.960784 0.858824
0.270588 0.368627 0.8
0.4 0.364706 0.792157
0.647059 0.392157 0.792157
0.847059 0.4 0.784314
0.960784 0.54902 0.768627
0.298039 0.462745 0.776471
0.4 0.447059 0.768627
0.639216 0.482353 0.768627
0.839216 0.509804 0.776471
0.952941 0.623529 0.772549
0.466667 0.690196 0.796078
0.521569 0.694118 0.8
0.701961 0.690196 0.796078
0.847059 0.713725 0.780392
0.94902 0.760784 0.796078
0.788235 0.878431 0.847059
0.8 0.878431 0.843137
0.847059 0.882353 0.85098
0.913725 0.886275 0.847059
0.964706 0.882353 0.835294
0.933333 0.956863 0.905882
0.937255 0.960784 0.905882
0.941176 0.956863 0.905882
0.94902 0.956863 0.898039
0.968627 0.956863 0.886275
0.694118 0.690196 0.92549
0.729412 0.698039 0.913725
0.792157 0.701961 0.905882
0.882353 0.741176 0.905882
0.952941 0.717647 0.901961
0.701961 0.709804 0.901961
0.741176 0.733333 0.917647
0.796078 0.72549 0.894118
0.890196 0.768627 0.905882
0.952941 0.760784 0.901961
0.760784 0.807843 0.913725
0.784314 0.811765 0.905882
0.819608 0.803922 0.898039
0.901961 0.839216 0.905882
0.945098 0.827451 0.894118
0.839216 0.894118 0.905882
0.847059 0.890196 0.905882
0.866667 0.901961 0.921569
0.909804 0.890196 0.909804
0.956863 0.909804 0.913725
0.945098 0.960784 0.929412
0.929412 0.952941 0.909804
0.94902 0.960784 0.92549
0.956863 0.956863 0.917647
0.972549 0.960784 0.921569
