example-Advanced/bin/data/ofxGpuLutCube/LUT/Hollywood-5.cube
#Generated by Picture Instruments - Look Creator
TITLE "400h+1-"
LUT_3D_SIZE 5
0.0313725 0.0313725 0.0313725
0.207843 0.00392157 0.0196078
0.513725 0 0
0.792157 0 0
0.956863 0.227451 0
0.0784314 0.219608 0.101961
0.215686 0.235294 0.0745098
0.537255 0.254902 0
0.803922 0.294118 0
0.968627 0.384314 0
0.211765 0.529412 0.258824
0.301961 0.552941 0.262745
0.537255 0.54902 0.192157
0.811765 0.596078 0.113725
0.972549 0.623529 0.0470588
0.47451 0.796078 0.509804
0.501961 0.792157 0.494118
0.627451 0.8 0.494118
0.8 0.784314 0.403922
0.968627 0.811765 0.4
0.741176 0.941176 0.760784
0.741176 0.937255 0.745098
0.796078 0.941176 0.764706
0.870588 0.945098 0.764706
0.968627 0.956863 0.745098
0 0.0666667 0.215686
0.192157 0.0392157 0.196078
0.498039 0 0.180392
0.780392 0 0.176471
0.964706 0.25098 0.0980392
0.101961 0.239216 0.243137
0.247059 0.254902 0.25098
0.529412 0.258824 0.231373
0.792157 0.305882 0.203922
0.968627 0.4 0.156863
0.294118 0.537255 0.384314
0.356863 0.54902 0.372549
0.552941 0.556863 0.333333
0.815686 0.603922 0.313725
0.976471 0.635294 0.305882
0.521569 0.780392 0.584314
0.541176 0.788235 0.568627
0.643137 0.796078 0.572549
0.815686 0.792157 0.501961
0.968627 0.823529 0.505882
0.760784 0.937255 0.792157
0.764706 0.941176 0.780392
0.811765 0.945098 0.792157
0.882353 0.952941 0.796078
0.968627 0.964706 0.772549
0 0.121569 0.513725
0.152941 0.117647 0.498039
0.490196 0.109804 0.494118
0.764706 0.219608 0.482353
0.94902 0.294118 0.478431
0 0.278431 0.513725
0.239216 0.286275 0.517647
0.513725 0.298039 0.513725
0.772549 0.356863 0.513725
0.952941 0.411765 0.513725
0.282353 0.54902 0.560784
0.384314 0.560784 0.572549
0.580392 0.580392 0.580392
0.8 0.592157 0.568627
0.956863 0.623529 0.54902
0.52549 0.780392 0.67451
0.572549 0.784314 0.682353
0.682353 0.792157 0.694118
0.811765 0.796078 0.658824
0.964706 0.827451 0.662745
0.752941 0.945098 0.827451
0.780392 0.941176 0.835294
0.831373 0.94902 0.839216
0.894118 0.956863 0.854902
0.968627 0.964706 0.827451
0 0.219608 0.764706
0.196078 0.219608 0.760784
0.490196 0.215686 0.745098
0.74902 0.282353 0.745098
0.913725 0.513725 0.733333
0.0156863 0.345098 0.760784
0.258824 0.345098 0.756863
0.505882 0.345098 0.752941
0.752941 0.4 0.752941
0.917647 0.568627 0.74902
0.298039 0.584314 0.780392
0.384314 0.588235 0.784314
0.568627 0.584314 0.772549
0.772549 0.596078 0.764706
0.92549 0.67451 0.780392
0.513725 0.784314 0.803922
0.560784 0.788235 0.803922
0.678431 0.792157 0.815686
0.827451 0.807843 0.823529
0.956863 0.823529 0.823529
0.737255 0.952941 0.882353
0.756863 0.952941 0.886275
0.811765 0.952941 0.890196
0.901961 0.956863 0.905882
0.968627 0.968627 0.894118
0.380392 0.431373 0.94902
0.458824 0.439216 0.94902
0.615686 0.435294 0.941176
0.788235 0.45098 0.937255
0.937255 0.564706 0.933333
0.415686 0.509804 0.94902
0.482353 0.513725 0.952941
0.619608 0.509804 0.941176
0.792157 0.517647 0.937255
0.937255 0.611765 0.933333
0.388235 0.635294 0.94902
0.47451 0.639216 0.952941
0.647059 0.654902 0.945098
0.803922 0.654902 0.941176
0.937255 0.705882 0.937255
0.552941 0.823529 0.956863
0.588235 0.819608 0.952941
0.678431 0.815686 0.960784
0.815686 0.807843 0.952941
0.94902 0.831373 0.94902
0.737255 0.964706 0.972549
0.752941 0.956863 0.968627
0.803922 0.960784 0.972549
0.882353 0.964706 0.972549
0.972549 0.972549 0.976471
