example-Advanced/bin/data/ofxGpuLutCube/LUT/Hollywood-38.cube
#Generated by Picture Instruments - Look Creator
TITLE "Fujii Velvia 100F++"
LUT_3D_SIZE 5
0.0431373 0.027451 0.0156863
0.137255 0.0117647 0.00784314
0.388235 0 0
0.678431 0 0
0.937255 0 0
0.0705882 0.152941 0
0.176471 0.14902 0
0.482353 0.14902 0
0.752941 0.137255 0
0.960784 0.247059 0
0.0784314 0.533333 0
0.243137 0.533333 0
0.537255 0.513725 0
0.807843 0.533333 0
0.980392 0.603922 0
0.262745 0.878431 0
0.372549 0.866667 0
0.6 0.847059 0
0.839216 0.827451 0
0.980392 0.819608 0
0.486275 0.992157 0
0.537255 0.988235 0
0.682353 0.988235 0
0.878431 0.992157 0
0.988235 0.992157 0
0.054902 0.00784314 0.168627
0.184314 0 0.152941
0.372549 0 0.0823529
0.654902 0 0.00784314
0.92549 0 0
0.0745098 0.160784 0.160784
0.203922 0.160784 0.152941
0.470588 0.0627451 0.0784314
0.737255 0.00784314 0.00392157
0.952941 0.105882 0
0.0862745 0.552941 0.113725
0.254902 0.560784 0.0588235
0.564706 0.533333 0.00392157
0.827451 0.533333 0
0.976471 0.564706 0
0.25098 0.866667 0.0117647
0.380392 0.87451 0.00784314
0.603922 0.858824 0
0.858824 0.839216 0
0.984314 0.831373 0
0.470588 0.988235 0.027451
0.537255 0.992157 0.0235294
0.678431 0.992157 0.0117647
0.870588 0.992157 0
0.984314 0.992157 0
0 0 0.631373
0.192157 0 0.635294
0.541176 0 0.6
0.623529 0 0.380392
0.890196 0 0.286275
0 0.109804 0.592157
0.109804 0.0784314 0.611765
0.576471 0 0.623529
0.705882 0 0.431373
0.94902 0 0.258824
0 0.541176 0.6
0.25098 0.564706 0.615686
0.615686 0.592157 0.631373
0.815686 0.501961 0.482353
0.972549 0.45098 0.278431
0.356863 0.87451 0.615686
0.466667 0.882353 0.623529
0.627451 0.866667 0.572549
0.858824 0.847059 0.470588
0.984314 0.815686 0.270588
0.509804 0.988235 0.588235
0.556863 0.992157 0.572549
0.690196 0.992157 0.556863
0.854902 0.992157 0.47451
0.984314 0.992157 0.0117647
0.0117647 0 0.87451
0.262745 0 0.886275
0.568627 0 0.870588
0.815686 0 0.870588
0.905882 0 0.780392
0 0.00784314 0.878431
0.184314 0 0.898039
0.580392 0 0.905882
0.85098 0 0.905882
0.933333 0.160784 0.807843
0 0.431373 0.843137
0.0235294 0.443137 0.878431
0.572549 0.490196 0.898039
0.854902 0.576471 0.898039
0.929412 0.533333 0.8
0.294118 0.847059 0.878431
0.419608 0.854902 0.886275
0.65098 0.854902 0.882353
0.870588 0.87451 0.894118
0.968627 0.811765 0.803922
0.592157 0.992157 0.886275
0.647059 0.992157 0.886275
0.760784 0.992157 0.878431
0.866667 0.992157 0.866667
0.984314 0.992157 0.792157
0.286275 0 0.941176
0.388235 0 0.952941
0.588235 0 0.941176
0.803922 0 0.956863
0.952941 0 0.964706
0.243137 0 0.964706
0.384314 0 0.992157
0.611765 0 0.988235
0.831373 0 0.988235
0.972549 0.180392 0.988235
0.0862745 0.34902 0.952941
0.329412 0.388235 0.988235
0.6 0.4 0.984314
0.843137 0.494118 0.988235
0.968627 0.627451 0.988235
0.0980392 0.764706 0.980392
0.25098 0.768627 0.988235
0.537255 0.760784 0.984314
0.839216 0.823529 0.988235
0.972549 0.862745 0.988235
0.52549 0.984314 0.984314
0.588235 0.984314 0.988235
0.729412 0.984314 0.992157
0.870588 0.988235 0.992157
0.984314 0.988235 0.992157
