example-Advanced/bin/data/ofxGpuLutCube/LUT/Hollywood-83.cube
TITLE "mon_harry_bw"
# LUT size
# data domain
# LUT data points
# 

# Copyright: (C) Copyright 2015 James Miller
# Created by: James Miller, www.DeLuts.co.uk

LUT_3D_SIZE 8

0.156403 0.146729 0.152985
0.157187 0.147635 0.153691
0.159785 0.150077 0.156023
0.166347 0.156080 0.161844
0.181301 0.170441 0.175324
0.224152 0.211953 0.214412
0.369485 0.357025 0.352121
0.624725 0.613190 0.597046
0.157157 0.147592 0.153643
0.157222 0.147670 0.153708
0.159934 0.150220 0.156180
0.166726 0.156411 0.162218
0.182495 0.171552 0.176426
0.230486 0.218048 0.220245
0.389200 0.377010 0.371294
0.641636 0.630301 0.613473
0.159790 0.150077 0.156028
0.159938 0.150220 0.156184
0.160113 0.150395 0.156346
0.167127 0.156926 0.162563
0.184038 0.173035 0.177843
0.237283 0.224814 0.226554
0.413452 0.401589 0.394876
0.658129 0.646838 0.629565
0.166683 0.156372 0.162157
0.166975 0.156738 0.162410
0.167288 0.157074 0.162694
0.167672 0.157462 0.163042
0.185883 0.174840 0.179509
0.247829 0.235239 0.236367
0.440765 0.429487 0.421849
0.673771 0.662388 0.644910
0.184274 0.173314 0.178065
0.185102 0.174120 0.178793
0.185996 0.174957 0.179627
0.187016 0.175934 0.180551
0.188494 0.177185 0.181780
0.258885 0.246155 0.246674
0.470136 0.459272 0.450766
0.688006 0.676793 0.659132
0.250270 0.237623 0.238661
0.256688 0.243949 0.244577
0.261235 0.248513 0.248932
0.266130 0.253326 0.253422
0.269749 0.256936 0.256853
0.273887 0.261074 0.260817
0.494712 0.484100 0.474662
0.701355 0.690456 0.672547
0.434461 0.422947 0.415536
0.463104 0.452109 0.443778
0.494472 0.483808 0.474269
0.504608 0.493970 0.483961
0.508383 0.497785 0.487627
0.513716 0.503174 0.492789
0.519121 0.508536 0.497964
0.711199 0.700226 0.682495
0.700775 0.689911 0.671967
0.706229 0.695413 0.677573
0.710889 0.699882 0.682142
0.713069 0.702279 0.684361
0.714473 0.703792 0.685826
0.715929 0.705274 0.687308
0.718301 0.707650 0.689828
0.721039 0.710205 0.692383
0.157314 0.147775 0.153800
0.157362 0.147823 0.153865
0.160139 0.150421 0.156385
0.167123 0.156882 0.162541
0.182835 0.171866 0.176727
0.230299 0.217830 0.220071
0.396079 0.383981 0.377938
0.651624 0.640276 0.623195
0.157414 0.147858 0.153900
0.160592 0.150818 0.156778
0.167690 0.157449 0.163051
0.184614 0.173471 0.178314
0.236224 0.223851 0.225660
0.414856 0.403072 0.396349
0.661002 0.649907 0.632956
0.795049 0.785858 0.769527
0.160453 0.150696 0.156669
0.167769 0.157519 0.163160
0.168112 0.157841 0.163465
0.186266 0.175219 0.179827
0.245078 0.232500 0.233843
0.440133 0.428886 0.421347
0.676858 0.665737 0.648468
0.801318 0.792424 0.776341
0.168056 0.157828 0.163431
0.186567 0.175485 0.180084
0.187448 0.176357 0.180921
0.188599 0.177425 0.181937
0.256213 0.243609 0.244337
0.468057 0.457167 0.448861
0.690722 0.679805 0.662231
0.806510 0.797799 0.781864
0.187753 0.176592 0.181183
0.251046 0.238456 0.239498
0.258153 0.245409 0.245998
0.264714 0.252014 0.252267
0.269540 0.256814 0.256792
0.493382 0.482653 0.473057
0.703923 0.693141 0.675528
0.811798 0.803201 0.787454
0.252537 0.239890 0.240827
0.436959 0.425515 0.418113
0.467372 0.456586 0.448164
0.499695 0.488948 0.479134
0.511470 0.500658 0.490243
0.516275 0.505528 0.494781
0.714373 0.703591 0.685939
0.816376 0.807827 0.792371
0.436719 0.425258 0.417808
0.706098 0.695264 0.677699
0.712934 0.702205 0.684579
0.718079 0.707267 0.689715
0.720219 0.709639 0.691894
0.722107 0.711583 0.693865
0.724230 0.713741 0.696058
0.820626 0.812243 0.796958
0.698913 0.687757 0.670022
0.820221 0.811916 0.796605
0.821389 0.812993 0.797760
0.822226 0.813969 0.798685
0.822750 0.814510 0.799229
0.823194 0.814946 0.799709
0.823900 0.815705 0.800559
0.824572 0.816398 0.801274
0.160113 0.150422 0.156372
0.160322 0.150596 0.156555
0.160574 0.150826 0.156773
0.167790 0.157571 0.163152
0.184553 0.173545 0.178275
0.235072 0.222617 0.224492
0.423030 0.411359 0.404362
0.676670 0.665510 0.647844
0.160623 0.150879 0.156825
0.168026 0.157758 0.163378
0.168405 0.158120 0.163723
0.186249 0.175197 0.179810
0.241970 0.229370 0.230948
0.435085 0.423606 0.416251
0.683398 0.672311 0.654995
0.806654 0.797913 0.781974
0.161189 0.151407 0.157353
0.169194 0.158887 0.164455
0.188346 0.177028 0.181636
0.247049 0.234458 0.235648
0.452083 0.440647 0.432513
0.695801 0.684688 0.667066
0.809915 0.801152 0.785474
0.867131 0.860417 0.847656
0.169408 0.159149 0.164660
0.189636 0.178441 0.182922
0.251626 0.238927 0.239960
0.259085 0.246338 0.246935
0.478808 0.467704 0.458518
0.709080 0.698133 0.680433
0.815556 0.807029 0.791504
0.869437 0.862793 0.850193
0.191559 0.180071 0.184579
0.253658 0.240928 0.241834
0.440129 0.428563 0.420907
0.471187 0.460018 0.451142
0.505227 0.494402 0.484174
0.719456 0.708675 0.690922
0.819593 0.811214 0.795920
0.871329 0.864728 0.852373
0.254791 0.241917 0.242759
0.438930 0.427516 0.420118
0.718964 0.708195 0.690443
0.724065 0.713505 0.695679
0.727343 0.716828 0.699049
0.729257 0.718737 0.701033
0.824005 0.815796 0.800633
0.873431 0.866926 0.854780
0.439021 0.427569 0.419974
0.704642 0.693865 0.676304
0.825221 0.816986 0.801893
0.826032 0.817793 0.802782
0.826603 0.818390 0.803432
0.827271 0.819074 0.804116
0.827711 0.819523 0.804613
0.875519 0.869315 0.857095
0.696899 0.685730 0.667938
0.823238 0.815002 0.799748
0.877463 0.871160 0.859096
0.877768 0.871495 0.859410
0.877991 0.871665 0.859658
0.878096 0.871769 0.859763
0.877986 0.871660 0.859658
0.877760 0.871486 0.859397
0.167385 0.157196 0.162798
0.167716 0.157506 0.163112
0.168078 0.157837 0.163448
0.168606 0.158343 0.163906
0.186349 0.175306 0.179953
0.240796 0.228302 0.229946
0.439074 0.427638 0.420109
0.690630 0.679657 0.661843
0.168474 0.158199 0.163788
0.185913 0.174862 0.179500
0.186964 0.175899 0.180485
0.188324 0.177159 0.181702
0.247528 0.234981 0.236162
0.458222 0.447318 0.439244
0.701520 0.690578 0.673091
0.815974 0.807430 0.791966
0.169543 0.159276 0.164782
0.189165 0.177987 0.182495
0.247825 0.235260 0.236424
0.252921 0.240208 0.241163
0.464870 0.453592 0.445020
0.712638 0.701843 0.684099
0.819253 0.810852 0.795537
0.872633 0.866115 0.853821
0.171064 0.160732 0.166168
0.193634 0.182199 0.186523
0.255611 0.242881 0.243587
0.452841 0.441707 0.433881
0.719504 0.708832 0.691167
0.822191 0.813869 0.798597
0.873243 0.866817 0.854549
0.904706 0.899632 0.889687
0.194571 0.183201 0.187369
0.257590 0.244912 0.245479
0.444532 0.433005 0.425005
0.725560 0.714962 0.697370
0.730042 0.719430 0.701813
0.826647 0.818472 0.803502
0.875405 0.869084 0.856929
0.905958 0.900896 0.891074
0.257569 0.244851 0.245383
0.440813 0.429609 0.422058
0.717442 0.706678 0.688952
0.829136 0.821049 0.806252
0.829690 0.821590 0.806828
0.829947 0.821825 0.807077
0.877542 0.871216 0.859232
0.907275 0.902269 0.892600
0.441977 0.430708 0.422978
0.703129 0.692195 0.674757
0.827293 0.819118 0.804182
0.879525 0.873391 0.861494
0.879686 0.873553 0.861690
0.879686 0.873553 0.861690
0.879647 0.873505 0.861633
0.909180 0.904419 0.894828
0.695155 0.683955 0.666151
0.825736 0.817501 0.802421
0.881740 0.875597 0.863879
0.911556 0.906708 0.897309
0.911556 0.906708 0.897326
0.911486 0.906638 0.897216
0.911329 0.906468 0.897034
0.911181 0.906311 0.896890
0.183951 0.172956 0.177769
0.184893 0.173907 0.178602
0.185939 0.174901 0.179587
0.187221 0.176060 0.180655
0.188716 0.177429 0.182020
0.246634 0.234053 0.235247
0.454167 0.442993 0.435076
0.700422 0.689353 0.671600
0.186837 0.175738 0.180385
0.239511 0.227003 0.228681
0.244019 0.231449 0.232832
0.248622 0.236062 0.237196
0.253893 0.241294 0.242175
0.470638 0.459830 0.451494
0.712598 0.701865 0.684278
0.821080 0.812653 0.797394
0.190386 0.179008 0.183541
0.246517 0.233991 0.235217
0.408966 0.397073 0.390660
0.439135 0.427669 0.419913
0.480173 0.469229 0.459882
0.724779 0.714111 0.696455
0.826551 0.818342 0.803371
0.877703 0.871403 0.859362
0.193874 0.182482 0.186733
0.254094 0.241333 0.242223
0.426265 0.414664 0.407484
0.712180 0.701460 0.683821
0.731659 0.721135 0.703504
0.829311 0.821228 0.806414
0.878331 0.872057 0.860160
0.908548 0.903665 0.894047
0.197745 0.186245 0.190299
0.262032 0.249307 0.249725
0.446860 0.435399 0.427442
0.724653 0.714068 0.696450
0.831935 0.823953 0.809296
0.879503 0.873308 0.861420
0.909206 0.904262 0.894763
0.931819 0.928044 0.920458
0.261832 0.249080 0.249473
0.446747 0.435469 0.427743
0.716374 0.705724 0.688010
0.830884 0.822998 0.808158
0.881627 0.875467 0.863774
0.881627 0.875467 0.863774
0.911102 0.906241 0.896903
0.933027 0.929225 0.921805
0.446197 0.434854 0.427089
0.701390 0.690539 0.673069
0.829555 0.821542 0.806654
0.883889 0.877860 0.866355
0.913208 0.908469 0.899318
0.913051 0.908304 0.899122
0.912890 0.908133 0.898939
0.934261 0.930507 0.923187
0.692439 0.681475 0.663661
0.825936 0.817701 0.802638
0.886317 0.880371 0.869084
0.915122 0.910527 0.901433
0.935669 0.932016 0.924831
0.935582 0.931937 0.924770
0.935504 0.931858 0.924683
0.935425 0.931780 0.924596
0.232505 0.219919 0.222077
0.235652 0.223232 0.225054
0.238756 0.226301 0.228032
0.243269 0.230538 0.232056
0.247336 0.234745 0.235949
0.253200 0.240300 0.241255
0.466025 0.455078 0.446786
0.709350 0.698303 0.680559
0.238403 0.225952 0.227644
0.379526 0.367222 0.361834
0.401646 0.389688 0.383445
0.433916 0.422402 0.415157
0.457820 0.446816 0.438795
0.482557 0.471920 0.462860
0.720023 0.709346 0.691764
0.824546 0.816362 0.801234
0.244790 0.232221 0.233516
0.395177 0.383087 0.377145
0.676523 0.665462 0.647940
0.703879 0.693072 0.675324
0.722591 0.711849 0.694135
0.733075 0.722543 0.704856
0.830697 0.822736 0.807914
0.881003 0.874808 0.863037
0.251674 0.239040 0.240016
0.413906 0.402078 0.395442
0.689937 0.678924 0.661320
0.823948 0.815682 0.800550
0.830414 0.822387 0.807561
0.835432 0.827519 0.812923
0.882886 0.876814 0.865217
0.912284 0.907532 0.898172
0.258436 0.245697 0.246246
0.431845 0.420306 0.413047
0.702423 0.691572 0.673833
0.828936 0.820831 0.806026
0.882664 0.876574 0.864959
0.884051 0.878043 0.866521
0.912829 0.908076 0.898930
0.934827 0.931109 0.923889
0.267168 0.254386 0.254382
0.451102 0.439972 0.432098
0.714791 0.704150 0.686380
0.833492 0.825540 0.810835
0.885943 0.880014 0.868674
0.914856 0.910169 0.901075
0.936079 0.932552 0.925306
0.952380 0.949545 0.943944
0.452148 0.440909 0.432931
0.699345 0.688572 0.671081
0.830017 0.821969 0.807129
0.888275 0.882485 0.871259
0.916888 0.912367 0.903386
0.937517 0.933955 0.926849
0.937452 0.933864 0.926776
0.953273 0.950500 0.945029
0.691088 0.680132 0.662336
0.825745 0.817501 0.802456
0.887617 0.881880 0.870597
0.918618 0.914119 0.905417
0.938760 0.935255 0.928253
0.954137 0.951424 0.946023
0.954132 0.951420 0.946019
0.954132 0.951420 0.946019
0.355747 0.343135 0.338802
0.373662 0.361232 0.356188
0.396367 0.384255 0.378217
0.417031 0.405239 0.398424
0.441127 0.429796 0.422219
0.460419 0.449472 0.441228
0.479096 0.468332 0.459534
0.716248 0.705562 0.687666
0.370135 0.357679 0.352757
0.631614 0.620553 0.604701
0.663422 0.652235 0.635450
0.692509 0.681532 0.664145
0.710253 0.699502 0.681989
0.719679 0.709041 0.691454
0.726915 0.716383 0.698817
0.827750 0.819563 0.804640
0.386706 0.374442 0.368770
0.646528 0.635437 0.619010
0.812361 0.803890 0.788186
0.821232 0.812927 0.797651
0.827453 0.819266 0.804343
0.830941 0.822998 0.808210
0.833605 0.825780 0.811035
0.883964 0.877912 0.866403
0.402893 0.390839 0.384556
0.659868 0.648861 0.632062
0.816860 0.808410 0.792895
0.880328 0.874115 0.862296
0.883279 0.877215 0.865675
0.884561 0.878623 0.867105
0.886135 0.880184 0.868805
0.915776 0.911251 0.902195
0.420576 0.408888 0.401982
0.672991 0.661944 0.644950
0.820312 0.811916 0.796648
0.883061 0.876988 0.865422
0.916046 0.911673 0.902645
0.916338 0.911821 0.902788
0.916417 0.911874 0.902823
0.937735 0.934152 0.927089
0.438717 0.427307 0.419712
0.686380 0.675358 0.658028
0.825439 0.817239 0.802159
0.886256 0.880375 0.869040
0.918378 0.913875 0.905060
0.939070 0.935556 0.928632
0.939009 0.935481 0.928554
0.954777 0.952114 0.946760
0.457895 0.446777 0.438612
0.698530 0.687783 0.670231
0.830100 0.822056 0.807203
0.889696 0.883889 0.872777
0.920306 0.915907 0.907301
0.940238 0.936837 0.930049
0.955610 0.952972 0.947793
0.968536 0.966588 0.962769
0.690543 0.679513 0.661739
0.825658 0.817396 0.802342
0.888201 0.882516 0.871242
0.920942 0.916534 0.908094
0.941463 0.938088 0.931414
0.956508 0.953932 0.948857
0.969269 0.967381 0.963658
0.969208 0.967320 0.963579
0.590363 0.579224 0.564453
0.623121 0.611829 0.595599
0.657052 0.645800 0.628579
0.680494 0.669377 0.651760
0.698769 0.687709 0.669895
0.711182 0.700195 0.682430
0.717071 0.706421 0.688520
0.723083 0.712280 0.694489
0.606428 0.595167 0.579716
0.799151 0.790061 0.773939
0.810460 0.801710 0.785997
0.818848 0.810517 0.795096
0.822902 0.814689 0.799439
0.825749 0.817505 0.802438
0.828321 0.820160 0.805302
0.830706 0.822767 0.807931
0.622476 0.611027 0.594896
0.803863 0.795114 0.779049
0.873945 0.867458 0.855325
0.878143 0.871870 0.859842
0.881313 0.875131 0.863399
0.883222 0.877123 0.865574
0.884783 0.878775 0.867331
0.886400 0.880449 0.869180
0.636632 0.625109 0.608533
0.807822 0.799029 0.783177
0.876456 0.870309 0.858128
0.915048 0.910405 0.901350
0.916848 0.912266 0.903381
0.917904 0.913404 0.904620
0.918540 0.914027 0.905317
0.919224 0.914729 0.906049
0.650199 0.638755 0.621769
0.811720 0.803122 0.787397
0.879312 0.873042 0.861101
0.917315 0.912759 0.903879
0.939919 0.936484 0.929622
0.940404 0.937007 0.930202
0.940325 0.936929 0.930128
0.940438 0.937042 0.930285
0.663513 0.652278 0.634852
0.815626 0.807068 0.791578
0.882137 0.876003 0.864349
0.919272 0.914795 0.906141
0.941180 0.937797 0.931087
0.957267 0.954738 0.949707
0.957193 0.954664 0.949633
0.957114 0.954581 0.949555
0.677508 0.666382 0.648708
0.820674 0.812286 0.796997
0.885398 0.879416 0.868033
0.921225 0.916944 0.908399
0.942357 0.939026 0.932465
0.958060 0.955588 0.950697
0.970746 0.968977 0.965354
0.970685 0.968898 0.965293
0.690765 0.679749 0.661957
0.825475 0.817317 0.802268
0.888733 0.883052 0.871826
0.923117 0.918867 0.910431
0.943459 0.940186 0.933777
0.958840 0.956403 0.951617
0.971440 0.969661 0.966099
0.977966 0.976562 0.973694