example-Advanced/bin/data/ofxGpuLutCube/LUT/Hollywood-37.cube
#Generated by Picture Instruments - Look Creator
TITLE "Fujii Velvia 50+++"
LUT_3D_SIZE 5
0.0117647 0.054902 0.0784314
0.0823529 0.0627451 0.0784314
0.309804 0 0.0627451
0.670588 0 0
0.913725 0 0
0.0117647 0.129412 0.0862745
0.105882 0.152941 0.0784314
0.364706 0.168627 0.0313725
0.698039 0.152941 0
0.929412 0.247059 0
0 0.4 0.101961
0.129412 0.388235 0.105882
0.47451 0.501961 0
0.784314 0.521569 0
0.945098 0.541176 0
0.223529 0.717647 0.188235
0.290196 0.705882 0.188235
0.494118 0.717647 0.196078
0.815686 0.788235 0.141176
0.972549 0.807843 0.121569
0.596078 0.941176 0.529412
0.615686 0.933333 0.521569
0.713725 0.933333 0.572549
0.854902 0.945098 0.619608
0.968627 0.964706 0.639216
0 0.054902 0.160784
0.0901961 0.054902 0.152941
0.337255 0 0.152941
0.686275 0.00392157 0.14902
0.929412 0 0.101961
0 0.14902 0.180392
0.121569 0.164706 0.188235
0.392157 0.152941 0.172549
0.717647 0.113725 0.145098
0.933333 0.231373 0.105882
0.0588235 0.454902 0.235294
0.180392 0.447059 0.223529
0.498039 0.513725 0.211765
0.784314 0.521569 0.172549
0.94902 0.545098 0.14902
0.247059 0.733333 0.301961
0.329412 0.72549 0.309804
0.509804 0.72549 0.32549
0.819608 0.792157 0.329412
0.972549 0.811765 0.337255
0.6 0.945098 0.576471
0.631373 0.941176 0.580392
0.72549 0.937255 0.623529
0.85098 0.952941 0.67451
0.964706 0.964706 0.694118
0 0 0.521569
0.0941176 0 0.509804
0.427451 0 0.498039
0.74902 0 0.517647
0.933333 0 0.482353
0 0.133333 0.52549
0.0784314 0.141176 0.52549
0.458824 0.0980392 0.517647
0.752941 0.207843 0.533333
0.937255 0.254902 0.498039
0 0.498039 0.556863
0.196078 0.517647 0.572549
0.54902 0.54902 0.596078
0.780392 0.537255 0.556863
0.937255 0.552941 0.533333
0.337255 0.772549 0.576471
0.431373 0.772549 0.596078
0.572549 0.756863 0.584314
0.815686 0.8 0.615686
0.952941 0.811765 0.619608
0.635294 0.952941 0.717647
0.647059 0.94902 0.705882
0.737255 0.945098 0.72549
0.85098 0.952941 0.768627
0.960784 0.964706 0.788235
0 0 0.839216
0.247059 0 0.835294
0.52549 0 0.827451
0.776471 0 0.827451
0.921569 0.309804 0.815686
0 0.0392157 0.835294
0.227451 0 0.835294
0.537255 0 0.831373
0.784314 0 0.831373
0.917647 0.462745 0.823529
0 0.435294 0.854902
0.160784 0.439216 0.847059
0.568627 0.486275 0.843137
0.8 0.537255 0.839216
0.917647 0.690196 0.85098
0.356863 0.792157 0.85098
0.45098 0.796078 0.85098
0.647059 0.8 0.858824
0.831373 0.823529 0.866667
0.929412 0.815686 0.847059
0.615686 0.968627 0.858824
0.658824 0.964706 0.862745
0.752941 0.960784 0.858824
0.854902 0.952941 0.870588
0.956863 0.968627 0.894118
0.411765 0 0.992157
0.494118 0 0.988235
0.658824 0 0.988235
0.839216 0 0.980392
0.945098 0.266667 0.972549
0.411765 0 0.992157
0.490196 0 0.988235
0.666667 0 0.992157
0.835294 0.101961 0.980392
0.945098 0.407843 0.972549
0.396078 0.427451 0.988235
0.494118 0.443137 0.984314
0.666667 0.458824 0.984314
0.835294 0.517647 0.980392
0.941176 0.631373 0.968627
0.443137 0.74902 0.980392
0.509804 0.74902 0.980392
0.662745 0.752941 0.980392
0.839216 0.788235 0.976471
0.945098 0.827451 0.968627
0.682353 0.964706 0.976471
0.705882 0.964706 0.980392
0.772549 0.964706 0.980392
0.866667 0.968627 0.980392
0.964706 0.968627 0.976471
