example-Advanced/bin/data/ofxGpuLutCube/LUT/Hollywood-38.cube
#Generated by Picture Instruments - Look Creator
TITLE "Fujii Velvia 100F++"
LUT_3D_SIZE 17
0.0431373 0.027451 0.0156863
0.054902 0.027451 0.0156863
0.0745098 0.0235294 0.0156863
0.105882 0.0196078 0.0117647
0.137255 0.0117647 0.00784314
0.184314 0.00392157 0.00392157
0.243137 0.00392157 0
0.305882 0 0
0.388235 0 0
0.45098 0 0
0.529412 0 0
0.607843 0 0
0.678431 0 0
0.74902 0 0
0.815686 0 0
0.878431 0 0
0.937255 0 0
0.0470588 0.0431373 0.0156863
0.0588235 0.0392157 0.0117647
0.0823529 0.0431373 0.0117647
0.109804 0.0431373 0.00784314
0.145098 0.0313725 0.00392157
0.192157 0.027451 0
0.258824 0.0117647 0
0.321569 0 0
0.396078 0 0
0.47451 0 0
0.560784 0 0
0.627451 0 0
0.701961 0 0
0.776471 0 0
0.839216 0.00392157 0
0.894118 0.00784314 0
0.945098 0.0117647 0
0.054902 0.0705882 0.0117647
0.0627451 0.0627451 0.0117647
0.0823529 0.0627451 0.00784314
0.117647 0.0666667 0.00392157
0.156863 0.0666667 0
0.211765 0.054902 0
0.270588 0.0352941 0
0.341176 0.0156863 0
0.419608 0.00392157 0
0.494118 0 0
0.572549 0.00392157 0
0.643137 0 0
0.717647 0 0
0.780392 0 0
0.85098 0.00784314 0
0.898039 0.0117647 0
0.945098 0.0235294 0
0.0666667 0.105882 0.00784314
0.0784314 0.101961 0.00784314
0.0941176 0.0980392 0.00392157
0.12549 0.101961 0
0.160784 0.0901961 0
0.215686 0.0901961 0
0.290196 0.0823529 0
0.372549 0.0666667 0
0.45098 0.0470588 0
0.52549 0.0235294 0
0.596078 0.0156863 0
0.662745 0.0156863 0
0.729412 0.0117647 0
0.8 0.0352941 0
0.85098 0.0509804 0
0.909804 0.0941176 0
0.94902 0.121569 0
0.0705882 0.152941 0
0.0862745 0.152941 0
0.105882 0.152941 0
0.133333 0.14902 0
0.176471 0.14902 0
0.231373 0.145098 0
0.305882 0.14902 0
0.392157 0.152941 0
0.482353 0.14902 0
0.552941 0.137255 0
0.619608 0.12549 0
0.686275 0.121569 0
0.752941 0.137255 0
0.807843 0.14902 0
0.866667 0.184314 0
0.913725 0.215686 0
0.960784 0.247059 0
0.0705882 0.219608 0
0.0901961 0.227451 0
0.109804 0.223529 0
0.14902 0.223529 0
0.192157 0.223529 0
0.25098 0.219608 0
0.309804 0.203922 0
0.396078 0.219608 0
0.490196 0.235294 0
0.588235 0.25098 0
0.658824 0.258824 0
0.713725 0.254902 0
0.780392 0.270588 0
0.827451 0.278431 0
0.878431 0.298039 0
0.92549 0.321569 0
0.964706 0.34902 0
0.0627451 0.309804 0
0.0862745 0.317647 0
0.113725 0.317647 0
0.152941 0.313725 0
0.211765 0.321569 0
0.270588 0.313725 0
0.345098 0.313725 0
0.411765 0.301961 0
0.498039 0.313725 0
0.596078 0.337255 0
0.670588 0.352941 0
0.745098 0.368627 0
0.8 0.376471 0
0.854902 0.388235 0
0.894118 0.396078 0
0.933333 0.411765 0
0.968627 0.431373 0
0.0588235 0.411765 0
0.0784314 0.423529 0
0.121569 0.427451 0
0.168627 0.427451 0
0.231373 0.427451 0
0.298039 0.427451 0
0.368627 0.419608 0
0.447059 0.419608 0
0.509804 0.4 0
0.596078 0.411765 0
0.67451 0.427451 0
0.745098 0.447059 0
0.811765 0.462745 0
0.878431 0.486275 0
0.909804 0.490196 0
0.945098 0.498039 0
0.976471 0.521569 0
0.0784314 0.533333 0
0.0862745 0.537255 0
0.133333 0.541176 0
0.176471 0.529412 0
0.243137 0.533333 0
0.313725 0.533333 0
0.388235 0.529412 0
0.462745 0.521569 0
0.537255 0.513725 0
0.6 0.498039 0
0.67451 0.501961 0
0.74902 0.521569 0
0.807843 0.533333 0
0.878431 0.556863 0
0.92549 0.572549 0
0.960784 0.588235 0
0.980392 0.603922 0
0.0901961 0.635294 0
0.117647 0.643137 0
0.156863 0.635294 0
0.215686 0.639216 0
0.266667 0.635294 0
0.329412 0.627451 0
0.407843 0.627451 0
0.482353 0.623529 0
0.560784 0.619608 0
0.631373 0.611765 0
0.682353 0.588235 0
0.752941 0.592157 0
0.807843 0.6 0
0.87451 0.623529 0
0.917647 0.631373 0
0.956863 0.65098 0
0.976471 0.670588 0
0.141176 0.733333 0
0.164706 0.733333 0
0.203922 0.733333 0
0.243137 0.729412 0
0.294118 0.721569 0
0.356863 0.72549 0
0.431373 0.721569 0
0.498039 0.709804 0
0.572549 0.705882 0
0.643137 0.701961 0
0.705882 0.690196 0
0.768627 0.686275 0
0.819608 0.670588 0
0.878431 0.686275 0
0.921569 0.698039 0
0.952941 0.701961 0
0.976471 0.721569 0
0.2 0.815686 0
0.223529 0.811765 0
0.247059 0.807843 0
0.282353 0.803922 0
0.337255 0.803922 0
0.380392 0.792157 0
0.443137 0.788235 0
0.521569 0.792157 0
0.592157 0.788235 0
0.654902 0.780392 0
0.717647 0.768627 0
0.776471 0.764706 0
0.831373 0.756863 0
0.866667 0.733333 0
0.921569 0.752941 0
0.952941 0.756863 0
0.980392 0.780392 0
0.262745 0.878431 0
0.27451 0.870588 0
0.298039 0.87451 0
0.329412 0.870588 0
0.372549 0.866667 0
0.419608 0.862745 0
0.47451 0.862745 0
0.541176 0.858824 0
0.6 0.847059 0
0.666667 0.843137 0
0.737255 0.843137 0
0.784314 0.831373 0
0.839216 0.827451 0
0.894118 0.823529 0
0.921569 0.803922 0
0.956863 0.807843 0
0.980392 0.819608 0
0.321569 0.92549 0
0.32549 0.917647 0
0.34902 0.921569 0
0.376471 0.921569 0
0.415686 0.917647 0
0.454902 0.913725 0
0.501961 0.913725 0
0.552941 0.901961 0
0.619608 0.901961 0
0.682353 0.901961 0
0.737255 0.890196 0
0.8 0.890196 0
0.85098 0.882353 0
0.901961 0.878431 0
0.945098 0.878431 0
0.964706 0.858824 0
0.976471 0.858824 0
0.384314 0.968627 0
0.380392 0.956863 0
0.4 0.956863 0
0.419608 0.956863 0
0.45098 0.952941 0
0.490196 0.956863 0
0.533333 0.94902 0
0.584314 0.952941 0
0.631373 0.941176 0
0.694118 0.937255 0
0.74902 0.933333 0
0.807843 0.933333 0
0.858824 0.929412 0
0.909804 0.929412 0
0.94902 0.921569 0
0.972549 0.921569 0
0.980392 0.909804 0
0.439216 0.984314 0
0.427451 0.980392 0
0.443137 0.980392 0
0.458824 0.976471 0
0.486275 0.972549 0
0.52549 0.976471 0
0.564706 0.976471 0
0.607843 0.972549 0
0.65098 0.972549 0
0.705882 0.968627 0
0.764706 0.968627 0
0.827451 0.972549 0
0.866667 0.964706 0
0.909804 0.956863 0
0.952941 0.960784 0
0.976471 0.952941 0
0.988235 0.952941 0
0.486275 0.992157 0
0.482353 0.992157 0
0.490196 0.992157 0
0.501961 0.988235 0
0.537255 0.988235 0
0.568627 0.992157 0
0.596078 0.992157 0
0.639216 0.992157 0
0.682353 0.988235 0
0.72549 0.992157 0
0.776471 0.992157 0
0.831373 0.992157 0
0.878431 0.992157 0
0.917647 0.992157 0
0.952941 0.992157 0
0.976471 0.992157 0
0.988235 0.992157 0
0.0470588 0.027451 0.0352941
0.0588235 0.0235294 0.027451
0.0705882 0.0235294 0.027451
0.105882 0.0117647 0.0235294
0.137255 0.0117647 0.0196078
0.180392 0.00392157 0.0117647
0.243137 0.00392157 0.00392157
0.309804 0 0
0.376471 0 0
0.462745 0 0
0.529412 0 0
0.603922 0 0
0.682353 0 0
0.74902 0 0
0.823529 0 0
0.886275 0.00392157 0
0.941176 0.00392157 0
0.0470588 0.0431373 0.0313725
0.0666667 0.0470588 0.0313725
0.0823529 0.0392157 0.027451
0.113725 0.0392157 0.0235294
0.145098 0.027451 0.0156863
0.192157 0.0156863 0.0117647
0.258824 0.0156863 0
0.317647 0.00392157 0
0.4 0 0
0.478431 0 0
0.560784 0 0
0.635294 0 0
0.705882 0 0
0.776471 0 0
0.835294 0 0
0.890196 0.00392157 0
0.94902 0.00392157 0
0.054902 0.0666667 0.027451
0.0705882 0.0705882 0.027451
0.0823529 0.0588235 0.0235294
0.113725 0.0588235 0.0196078
0.160784 0.0588235 0.0156863
0.203922 0.0431373 0.00784314
0.270588 0.027451 0
0.333333 0.00784314 0
0.423529 0.00392157 0
0.494118 0 0
0.572549 0 0
0.643137 0 0
0.713725 0 0
0.784314 0 0
0.843137 0.00784314 0
0.898039 0.0156863 0
0.941176 0.0431373 0
0.0666667 0.105882 0.027451
0.0823529 0.105882 0.027451
0.0980392 0.105882 0.0235294
0.121569 0.0941176 0.0156863
0.168627 0.0941176 0.00784314
0.223529 0.0862745 0
0.301961 0.0823529 0
0.368627 0.054902 0
0.443137 0.0235294 0
0.517647 0.0156863 0
0.596078 0.0156863 0
0.666667 0.0117647 0
0.737255 0.0156863 0
0.792157 0.0196078 0
0.854902 0.054902 0
0.909804 0.0980392 0
0.952941 0.133333 0
0.0745098 0.152941 0.0156863
0.0901961 0.160784 0.0156863
0.101961 0.152941 0.0117647
0.141176 0.156863 0.00784314
0.176471 0.14902 0
0.239216 0.14902 0
0.305882 0.145098 0
0.4 0.14902 0
0.478431 0.141176 0
0.552941 0.121569 0
0.623529 0.113725 0
0.686275 0.101961 0
0.74902 0.109804 0
0.807843 0.137255 0
0.866667 0.172549 0
0.921569 0.219608 0
0.956863 0.239216 0
0.0666667 0.219608 0
0.0862745 0.227451 0
0.113725 0.231373 0
0.145098 0.227451 0
0.196078 0.227451 0
0.254902 0.223529 0
0.317647 0.211765 0
0.407843 0.223529 0
0.498039 0.235294 0
0.588235 0.25098 0
0.658824 0.247059 0
0.721569 0.254902 0
0.772549 0.254902 0
0.827451 0.266667 0
0.882353 0.290196 0
0.92549 0.313725 0
0.960784 0.34902 0
0.0666667 0.317647 0
0.0862745 0.32549 0
0.117647 0.32549 0
0.152941 0.321569 0
0.211765 0.321569 0
0.27451 0.317647 0
0.34902 0.317647 0
0.419608 0.301961 0
0.505882 0.313725 0
0.592157 0.333333 0
0.670588 0.345098 0
0.752941 0.372549 0
0.807843 0.376471 0
0.858824 0.388235 0
0.898039 0.388235 0
0.941176 0.411765 0
0.968627 0.431373 0
0.0588235 0.411765 0
0.0862745 0.435294 0
0.117647 0.431373 0
0.168627 0.431373 0
0.223529 0.423529 0
0.298039 0.431373 0
0.372549 0.427451 0
0.45098 0.423529 0
0.513725 0.403922 0
0.596078 0.407843 0
0.682353 0.431373 0
0.741176 0.439216 0
0.815686 0.462745 0
0.878431 0.486275 0
0.913725 0.486275 0
0.952941 0.498039 0
0.976471 0.521569 0
0.054902 0.517647 0
0.0941176 0.541176 0
0.133333 0.545098 0
0.188235 0.541176 0
0.239216 0.537255 0
0.313725 0.533333 0
0.388235 0.529412 0
0.470588 0.529412 0
0.54902 0.52549 0
0.603922 0.498039 0
0.678431 0.505882 0
0.752941 0.521569 0
0.823529 0.545098 0
0.870588 0.552941 0
0.92549 0.572549 0
0.964706 0.592157 0
0.972549 0.6 0
0.0901961 0.627451 0
0.113725 0.643137 0
0.160784 0.643137 0
0.207843 0.635294 0
0.266667 0.639216 0
0.329412 0.631373 0
0.411765 0.631373 0
0.486275 0.623529 0
0.560784 0.619608 0
0.627451 0.607843 0
0.686275 0.592157 0
0.745098 0.584314 0
0.815686 0.603922 0
0.870588 0.619608 0
0.92549 0.635294 0
0.956863 0.647059 0
0.980392 0.67451 0
0.129412 0.713725 0
0.152941 0.72549 0
0.2 0.733333 0
0.239216 0.729412 0
0.294118 0.721569 0
0.34902 0.721569 0
0.431373 0.721569 0
0.498039 0.709804 0
0.580392 0.713725 0
0.647059 0.705882 0
0.709804 0.694118 0
0.772549 0.690196 0
0.815686 0.666667 0
0.878431 0.686275 0
0.921569 0.694118 0
0.960784 0.709804 0
0.980392 0.721569 0
0.196078 0.8 0
0.207843 0.803922 0
0.243137 0.807843 0
0.278431 0.8 0
0.329412 0.803922 0
0.388235 0.8 0
0.443137 0.792157 0
0.513725 0.788235 0
0.592157 0.788235 0
0.654902 0.780392 0
0.717647 0.772549 0
0.780392 0.768627 0
0.839216 0.760784 0
0.870588 0.737255 0
0.92549 0.752941 0
0.964706 0.768627 0
0.976471 0.776471 0
0.25098 0.862745 0
0.27451 0.870588 0
0.290196 0.866667 0
0.329412 0.866667 0
0.372549 0.866667 0
0.419608 0.862745 0
0.47451 0.862745 0
0.537255 0.858824 0
0.607843 0.858824 0
0.662745 0.843137 0
0.729412 0.835294 0
0.780392 0.827451 0
0.847059 0.831373 0
0.894118 0.823529 0
0.92549 0.803922 0
0.964706 0.811765 0
0.980392 0.823529 0
0.305882 0.909804 0
0.321569 0.917647 0
0.345098 0.917647 0
0.376471 0.921569 0
0.411765 0.917647 0
0.45098 0.913725 0
0.501961 0.913725 0
0.560784 0.913725 0
0.619608 0.901961 0
0.678431 0.898039 0
0.741176 0.894118 0
0.807843 0.894118 0
0.854902 0.886275 0
0.901961 0.882353 0
0.945098 0.878431 0
0.964706 0.858824 0
0.984314 0.866667 0
0.360784 0.94902 0
0.376471 0.956863 0
0.392157 0.956863 0
0.419608 0.956863 0
0.447059 0.952941 0
0.490196 0.952941 0
0.537255 0.956863 0
0.576471 0.94902 0
0.639216 0.945098 0
0.698039 0.941176 0
0.74902 0.933333 0
0.807843 0.933333 0
0.858824 0.929412 0
0.909804 0.929412 0
0.945098 0.921569 0
0.976471 0.921569 0
0.984314 0.909804 0
0.415686 0.976471 0
0.431373 0.984314 0
0.435294 0.972549 0
0.462745 0.980392 0
0.486275 0.980392 0
0.521569 0.976471 0
0.564706 0.980392 0
0.6 0.976471 0
0.654902 0.976471 0
0.713725 0.968627 0
0.764706 0.968627 0
0.815686 0.964706 0
0.866667 0.960784 0
0.913725 0.964706 0
0.945098 0.956863 0
0.972549 0.956863 0
0.988235 0.956863 0
0.470588 0.988235 0
0.470588 0.988235 0
0.486275 0.992157 0
0.505882 0.992157 0
0.537255 0.992157 0
0.564706 0.992157 0
0.596078 0.992157 0
0.639216 0.992157 0
0.678431 0.988235 0
0.737255 0.992157 0
0.780392 0.992157 0
0.827451 0.992157 0
0.87451 0.992157 0
0.917647 0.992157 0
0.94902 0.992157 0
0.976471 0.992157 0
0.984314 0.992157 0
0.0509804 0.0235294 0.0588235
0.0666667 0.0196078 0.054902
0.0823529 0.0117647 0.0509804
0.0980392 0.0196078 0.0431373
0.133333 0.00784314 0.0431373
0.180392 0 0.0352941
0.243137 0 0.027451
0.309804 0 0.0156863
0.384314 0 0
0.454902 0 0
0.529412 0 0
0.6 0 0
0.678431 0 0
0.74902 0 0
0.819608 0 0
0.882353 0 0
0.941176 0 0
0.0509804 0.0431373 0.0588235
0.0627451 0.0392157 0.054902
0.0901961 0.0392157 0.054902
0.101961 0.0392157 0.0470588
0.145098 0.027451 0.0431373
0.192157 0.0156863 0.0352941
0.258824 0.0117647 0.0313725
0.317647 0 0.0117647
0.4 0 0
0.478431 0 0
0.552941 0 0
0.627451 0 0
0.698039 0 0
0.772549 0 0
0.831373 0 0
0.894118 0 0
0.945098 0.0117647 0
0.0588235 0.0666667 0.054902
0.0745098 0.0705882 0.054902
0.0901961 0.0627451 0.0509804
0.117647 0.0627451 0.0509804
0.156863 0.054902 0.0431373
0.211765 0.0431373 0.0392157
0.266667 0.0196078 0.0235294
0.337255 0.00392157 0.00784314
0.415686 0 0
0.490196 0 0
0.568627 0 0
0.639216 0 0
0.713725 0 0
0.776471 0 0
0.847059 0 0
0.898039 0.00784314 0
0.945098 0.0196078 0
0.0705882 0.105882 0.054902
0.0862745 0.105882 0.0588235
0.0941176 0.0980392 0.0509804
0.133333 0.105882 0.0470588
0.172549 0.0941176 0.0392157
0.227451 0.0862745 0.027451
0.294118 0.0705882 0.0156863
0.368627 0.0392157 0
0.439216 0.0235294 0
0.521569 0.0117647 0
0.588235 0.00392157 0
0.658824 0.00392157 0
0.729412 0.00784314 0
0.788235 0.0117647 0
0.854902 0.0313725 0
0.905882 0.0470588 0
0.94902 0.105882 0
0.0823529 0.156863 0.0509804
0.0862745 0.156863 0.0431373
0.101961 0.156863 0.0431373
0.141176 0.156863 0.0431373
0.184314 0.14902 0.027451
0.239216 0.145098 0.0156863
0.317647 0.14902 0
0.407843 0.145098 0
0.482353 0.129412 0
0.552941 0.109804 0
0.623529 0.0823529 0
0.686275 0.0823529 0
0.74902 0.0745098 0
0.811765 0.105882 0
0.862745 0.129412 0
0.913725 0.188235 0
0.956863 0.227451 0
0.0705882 0.231373 0.027451
0.0901961 0.235294 0.0235294
0.121569 0.235294 0.027451
0.14902 0.231373 0.0235294
0.203922 0.235294 0.0156863
0.262745 0.227451 0.00392157
0.32549 0.215686 0
0.411765 0.223529 0
0.505882 0.235294 0
0.592157 0.239216 0
0.654902 0.231373 0
0.721569 0.239216 0
0.776471 0.243137 0
0.827451 0.25098 0
0.870588 0.258824 0
0.92549 0.298039 0
0.964706 0.337255 0
0.054902 0.321569 0.00784314
0.0901961 0.337255 0.00784314
0.113725 0.329412 0.00392157
0.156863 0.329412 0.00784314
0.215686 0.329412 0.00392157
0.282353 0.32549 0
0.352941 0.321569 0
0.423529 0.301961 0
0.513725 0.317647 0
0.603922 0.337255 0
0.678431 0.345098 0
0.752941 0.360784 0
0.803922 0.360784 0
0.847059 0.364706 0
0.898039 0.380392 0
0.933333 0.392157 0
0.968627 0.419608 0
0.054902 0.419608 0
0.0823529 0.443137 0
0.117647 0.435294 0
0.168627 0.435294 0
0.223529 0.431373 0
0.298039 0.431373 0
0.372549 0.427451 0
0.458824 0.427451 0
0.517647 0.4 0
0.6 0.407843 0
0.678431 0.427451 0
0.756863 0.45098 0
0.823529 0.466667 0
0.878431 0.478431 0
0.913725 0.478431 0
0.956863 0.498039 0
0.972549 0.505882 0
0.0509804 0.52549 0
0.0862745 0.54902 0
0.12549 0.545098 0
0.188235 0.54902 0
0.247059 0.545098 0
0.309804 0.533333 0
0.392157 0.533333 0
0.47451 0.533333 0
0.552941 0.52549 0
0.611765 0.501961 0
0.682353 0.505882 0
0.752941 0.521569 0
0.819608 0.537255 0
0.87451 0.54902 0
0.92549 0.568627 0
0.956863 0.580392 0
0.976471 0.592157 0
0.0784314 0.623529 0
0.113725 0.647059 0
0.156863 0.647059 0
0.207843 0.643137 0
0.266667 0.643137 0
0.329412 0.635294 0
0.411765 0.635294 0
0.482353 0.623529 0
0.560784 0.623529 0
0.639216 0.619608 0
0.690196 0.596078 0
0.756863 0.592157 0
0.815686 0.603922 0
0.878431 0.623529 0
0.92549 0.635294 0
0.956863 0.647059 0
0.980392 0.662745 0
0.117647 0.713725 0
0.156863 0.733333 0
0.196078 0.733333 0
0.243137 0.729412 0
0.301961 0.733333 0
0.352941 0.72549 0
0.427451 0.72549 0
0.501961 0.717647 0
0.584314 0.721569 0
0.643137 0.701961 0
0.717647 0.701961 0
0.764706 0.682353 0
0.819608 0.670588 0
0.878431 0.686275 0
0.92549 0.698039 0
0.960784 0.705882 0
0.976471 0.717647 0
0.188235 0.796078 0
0.211765 0.807843 0
0.239216 0.807843 0
0.282353 0.807843 0
0.333333 0.803922 0
0.384314 0.8 0
0.447059 0.8 0
0.509804 0.788235 0
0.596078 0.792157 0
0.658824 0.784314 0
0.721569 0.772549 0
0.780392 0.768627 0
0.839216 0.760784 0
0.87451 0.737255 0
0.92549 0.752941 0
0.960784 0.760784 0
0.984314 0.780392 0
0.247059 0.858824 0
0.266667 0.870588 0
0.294118 0.870588 0
0.329412 0.870588 0
0.368627 0.862745 0
0.415686 0.862745 0
0.47451 0.858824 0
0.533333 0.85098 0
0.6 0.85098 0
0.666667 0.847059 0
0.733333 0.843137 0
0.788235 0.831373 0
0.847059 0.831373 0
0.894118 0.823529 0
0.929412 0.803922 0
0.964706 0.815686 0
0.980392 0.823529 0
0.309804 0.913725 0
0.32549 0.921569 0
0.345098 0.921569 0
0.376471 0.921569 0
0.403922 0.913725 0
0.45098 0.913725 0
0.505882 0.913725 0
0.560784 0.913725 0
0.615686 0.901961 0
0.682353 0.901961 0
0.745098 0.898039 0
0.8 0.890196 0
0.858824 0.890196 0
0.901961 0.878431 0
0.945098 0.882353 0
0.968627 0.858824 0
0.984314 0.858824 0
0.368627 0.952941 0
0.376471 0.956863 0
0.392157 0.960784 0
0.419608 0.956863 0
0.454902 0.956863 0
0.490196 0.956863 0
0.52549 0.945098 0
0.580392 0.94902 0
0.635294 0.945098 0
0.690196 0.937255 0
0.74902 0.937255 0
0.803922 0.933333 0
0.862745 0.929412 0
0.909804 0.929412 0
0.945098 0.921569 0
0.976471 0.917647 0
0.984314 0.905882 0
0.419608 0.976471 0
0.427451 0.984314 0
0.439216 0.976471 0
0.462745 0.980392 0
0.486275 0.976471 0
0.52549 0.980392 0
0.568627 0.980392 0
0.607843 0.980392 0
0.654902 0.972549 0
0.709804 0.972549 0
0.760784 0.968627 0
0.819608 0.968627 0
0.870588 0.968627 0
0.909804 0.960784 0
0.945098 0.956863 0
0.980392 0.960784 0
0.988235 0.956863 0
0.478431 0.988235 0
0.478431 0.992157 0
0.486275 0.992157 0
0.505882 0.992157 0
0.537255 0.992157 0
0.560784 0.992157 0
0.596078 0.992157 0
0.639216 0.992157 0
0.682353 0.992157 0
0.72549 0.992157 0
0.784314 0.992157 0
0.823529 0.992157 0
0.870588 0.992157 0
0.921569 0.992157 0
0.94902 0.992157 0
0.976471 0.992157 0
0.988235 0.992157 0
0.0588235 0.0196078 0.0980392
0.0705882 0.0117647 0.0980392
0.101961 0.00392157 0.101961
0.129412 0 0.0941176
0.145098 0.00784314 0.0784314
0.180392 0.00784314 0.0705882
0.235294 0 0.0627451
0.305882 0 0.0509804
0.376471 0 0.027451
0.45098 0 0.0156863
0.52549 0 0
0.6 0 0
0.662745 0 0
0.745098 0 0
0.815686 0 0
0.882353 0 0
0.941176 0 0
0.0509804 0.0392157 0.0941176
0.0705882 0.0352941 0.0980392
0.0980392 0.0313725 0.0980392
0.129412 0.0235294 0.0901961
0.141176 0.0313725 0.0705882
0.188235 0.0235294 0.0745098
0.247059 0.00392157 0.0627451
0.317647 0 0.0431373
0.4 0 0.0352941
0.478431 0 0.0156863
0.54902 0 0
0.623529 0 0
0.698039 0 0
0.772549 0 0
0.831373 0 0
0.894118 0 0
