example-Advanced/bin/data/ofxGpuLutCube/LUT/Hollywood-35.cube
# (C) 2014 VisionColor & Patchflyer [www.vision-color.com]
# Generator: VC Patchmatch v.2.1.1 [64/53]
# All work and no play makes Jack a dull boy.
# LUT generated from: Fuji Superior 200_FC
LUT_3D_SIZE 17
0.028260 0.027680 0.027558
0.029816 0.027863 0.027649
0.040497 0.029206 0.028626
0.072694 0.026825 0.025696
0.110536 0.027070 0.025391
0.165072 0.027527 0.024781
0.253956 0.033906 0.024170
0.346792 0.044434 0.024140
0.435782 0.048096 0.024323
0.514534 0.057221 0.025635
0.586725 0.066712 0.027314
0.651453 0.070466 0.028534
0.708766 0.072572 0.029480
0.760433 0.079103 0.032136
0.780118 0.083803 0.035218
0.783139 0.084535 0.035706
0.783291 0.084565 0.035737
0.028779 0.028992 0.028107
0.031159 0.029511 0.028443
0.043427 0.031281 0.029603
0.080476 0.028138 0.025788
0.122896 0.028901 0.024964
0.177646 0.036439 0.023896
0.256916 0.042359 0.023346
0.349142 0.045136 0.024079
0.450370 0.049775 0.024720
0.524300 0.061952 0.025940
0.594598 0.070008 0.027619
0.654261 0.071717 0.028565
0.710170 0.075105 0.029725
0.760220 0.080751 0.032166
0.780972 0.085573 0.035401
0.784390 0.086244 0.035950
0.784421 0.086091 0.035950
0.031220 0.037720 0.030610
0.034028 0.038849 0.031098
0.061524 0.051453 0.031342
0.105989 0.056123 0.025177
0.156497 0.053010 0.025666
0.219760 0.052796 0.024323
0.294057 0.052308 0.023560
0.364157 0.052918 0.024262
0.476188 0.056764 0.025513
0.539696 0.069734 0.026459
0.605463 0.074769 0.028016
0.661372 0.075410 0.029023
0.712764 0.079622 0.030152
0.762173 0.084688 0.032593
0.783108 0.089082 0.035859
0.786892 0.089693 0.036439
0.786923 0.089448 0.036439
0.030426 0.058717 0.027008
0.033265 0.066987 0.025208
0.063294 0.080964 0.030365
0.129824 0.104616 0.036255
0.188174 0.105745 0.034699
0.270253 0.097444 0.030732
0.359548 0.093812 0.028870
0.451957 0.091707 0.028412
0.545571 0.097444 0.029908
0.612451 0.107515 0.031434
0.642054 0.102449 0.031159
0.686976 0.104952 0.032166
0.732448 0.106752 0.033448
0.778134 0.116121 0.037690
0.796902 0.120760 0.041871
0.800381 0.120577 0.042512
0.800046 0.119142 0.042267
0.031098 0.080262 0.039063
0.038911 0.107942 0.043030
0.063935 0.128481 0.038422
0.132815 0.157351 0.042756
0.234882 0.188083 0.052308
0.324971 0.181277 0.050507
0.411856 0.171756 0.047944
0.513375 0.165438 0.044251
0.600717 0.166659 0.041596
0.677516 0.182589 0.043458
0.690944 0.162203 0.040467
0.733089 0.162051 0.041321
0.774624 0.163882 0.043946
0.812222 0.172519 0.050477
0.829648 0.183597 0.057618
0.832456 0.182681 0.057954
0.831540 0.180362 0.057465
0.038544 0.119203 0.049195
0.049378 0.158816 0.058015
0.084352 0.202304 0.056641
0.131746 0.224643 0.054719
0.237446 0.263981 0.066957
0.378164 0.297368 0.080171
0.479179 0.282261 0.072999
0.577585 0.273167 0.068055
0.653483 0.254307 0.060883
0.702419 0.242939 0.058045
0.739040 0.248692 0.058778
0.781888 0.242725 0.057893
0.822904 0.244694 0.060273
0.855344 0.256138 0.071138
0.868193 0.263844 0.078645
0.869871 0.263783 0.080354
0.869261 0.261494 0.079896
0.044282 0.146532 0.060090
0.072724 0.218860 0.078370
0.128420 0.303609 0.084840
0.163272 0.313863 0.067689
0.235203 0.331868 0.068971
0.366201 0.365072 0.088960
0.532052 0.394583 0.106569
0.627970 0.385977 0.100435
0.704448 0.371847 0.093019
0.753689 0.351553 0.085359
0.786404 0.361318 0.089540
0.825559 0.354543 0.086793
0.861204 0.351827 0.085908
0.890929 0.370504 0.099062
0.901610 0.382589 0.110597
0.902220 0.383352 0.113436
0.902068 0.381613 0.113100
0.098543 0.276005 0.100984
0.113497 0.303380 0.106569
0.172732 0.384192 0.112856
0.200778 0.400946 0.102998
0.240574 0.403677 0.083101
0.363577 0.438621 0.098634
0.542062 0.483330 0.130770
0.675517 0.502419 0.147250
0.751446 0.487388 0.138155
0.806638 0.489158 0.132784
0.834989 0.490501 0.129152
0.867521 0.487968 0.122194
0.894072 0.492912 0.123354
0.908263 0.510231 0.140108
0.910857 0.523323 0.162509
0.911406 0.522255 0.164920
0.911345 0.521096 0.164462
0.135134 0.345480 0.138643
0.140261 0.353201 0.141482
0.159396 0.379812 0.148135
0.207553 0.441733 0.155184
0.272053 0.493126 0.140078
0.340047 0.492515 0.105165
0.522316 0.549691 0.151461
0.695140 0.599161 0.193164
0.808362 0.623697 0.203372
0.853727 0.629313 0.194903
0.877043 0.627665 0.182361
0.898100 0.634531 0.172961
0.914336 0.637064 0.176410
0.919707 0.639445 0.206897
0.919402 0.636820 0.237293
0.919310 0.636179 0.242847
0.919280 0.635721 0.242512
0.173953 0.411078 0.183078
0.178866 0.417700 0.185336
0.192172 0.434913 0.189883
0.232151 0.487709 0.204929
0.308598 0.570245 0.210163
0.382300 0.600473 0.169268
0.460761 0.586053 0.150057
0.718120 0.699641 0.222843
0.844297 0.757641 0.266819
0.872587 0.742992 0.256352
0.896666 0.758038 0.246403
0.915312 0.761456 0.241154
0.924376 0.752239 0.256519
0.927184 0.741650 0.306569
0.928557 0.744121 0.350881
0.928862 0.745556 0.358358
0.928893 0.745830 0.358663
0.213931 0.478126 0.230564
0.217533 0.483406 0.232914
0.224887 0.493629 0.236515
0.253605 0.532311 0.248325
0.331884 0.626947 0.271046
0.422858 0.691249 0.226734
0.524300 0.709438 0.174380
0.693217 0.762692 0.215763
0.829877 0.803952 0.265202
0.890013 0.840055 0.313390
0.916533 0.851514 0.330938
0.928435 0.857679 0.332479
0.936095 0.841886 0.369039
0.940490 0.851667 0.451987
0.940612 0.850477 0.507790
0.940734 0.850507 0.517708
0.940795 0.850965 0.518959
0.256016 0.550042 0.281559
0.257145 0.551263 0.281376
0.262272 0.558648 0.284825
0.284337 0.589380 0.298222
0.357885 0.683680 0.317235
0.442725 0.766140 0.284352
0.554818 0.802792 0.198154
0.698924 0.843626 0.219303
0.830732 0.871763 0.276509
0.894835 0.894011 0.348226
0.923491 0.910430 0.409323
0.939757 0.918761 0.469383
0.942901 0.907439 0.547433
0.945006 0.903960 0.626719
0.945891 0.905089 0.661906
0.946075 0.905516 0.668986
0.946136 0.905974 0.670390
0.293095 0.610986 0.324315
0.299992 0.622766 0.330999
0.303380 0.627008 0.332128
0.326238 0.659113 0.343328
0.385412 0.753658 0.366461
0.457099 0.848997 0.321950
0.544808 0.885740 0.206073
0.665721 0.897032 0.179767
0.822919 0.916869 0.297475
0.890135 0.933898 0.415488
0.910338 0.939147 0.535836
0.935210 0.944305 0.625650
0.947082 0.943420 0.695537
0.947753 0.936126 0.745953
0.947814 0.937469 0.756924
0.947814 0.937865 0.758999
0.947814 0.938018 0.759426
0.192477 0.446006 0.216739
0.316991 0.660182 0.357458
0.341619 0.701778 0.379492
0.366583 0.743893 0.394415
0.412360 0.834195 0.408179
0.473823 0.906249 0.347585
0.525521 0.928252 0.238956
0.634836 0.925719 0.245258
0.789776 0.939666 0.438010
0.857511 0.944030 0.572274
0.894072 0.946502 0.673136
0.928832 0.947570 0.736614
0.944610 0.947875 0.766201
0.948028 0.946502 0.781979
0.948089 0.946715 0.785489
0.948089 0.946990 0.786343
0.948089 0.947021 0.786465
0.141665 0.366979 0.173190
0.281132 0.592676 0.315587
0.375586 0.772885 0.416541
0.393317 0.811795 0.426154
0.429480 0.883268 0.427375
0.483833 0.926787 0.380499
0.534676 0.937804 0.345892
0.660441 0.939605 0.449775
0.768231 0.943755 0.563226
0.846723 0.946319 0.644327
0.899351 0.947570 0.712474
0.933440 0.947784 0.762020
0.946777 0.947997 0.786435
0.948211 0.948241 0.789700
0.948302 0.948241 0.789883
0.948302 0.948241 0.789883
0.948302 0.948241 0.789883
0.164828 0.404700 0.199191
0.308507 0.648768 0.354498
0.392493 0.815549 0.430030
0.404089 0.840360 0.435554
0.437781 0.896178 0.432990
0.487343 0.930907 0.396643
0.541024 0.938750 0.389395
0.666758 0.941558 0.507286
0.761791 0.944640 0.592844
0.844862 0.946777 0.659724
0.900908 0.947570 0.717678
0.934752 0.947784 0.764248
0.947295 0.948089 0.787564
0.948272 0.948241 0.789853
0.948302 0.948241 0.789883
0.948302 0.948241 0.789883
0.948302 0.948241 0.789883
0.181064 0.439063 0.231510
0.320195 0.670741 0.366888
0.394476 0.821073 0.432044
0.405707 0.842588 0.435492
0.438239 0.896819 0.433661
0.487343 0.931334 0.397986
0.542031 0.938811 0.392844
0.668193 0.941649 0.511101
0.762432 0.944732 0.595041
0.846082 0.946807 0.661097
0.901610 0.947601 0.718441
0.935027 0.947814 0.764736
0.947326 0.948089 0.787655
0.948302 0.948241 0.789883
0.948302 0.948241 0.789883
0.948302 0.948241 0.789883
0.948302 0.948241 0.789883
0.028626 0.027955 0.028382
0.029908 0.027985 0.028595
0.041962 0.029572 0.029938
0.078157 0.026429 0.026184
0.120150 0.026368 0.025788
0.175906 0.025849 0.025238
0.256245 0.028046 0.024964
0.352773 0.035126 0.025330
0.452903 0.040131 0.025238
0.528420 0.049531 0.026368
0.594354 0.059907 0.027741
0.653193 0.062013 0.028382
0.711574 0.066316 0.029358
0.762051 0.074281 0.031891
0.783017 0.080140 0.035248
0.786435 0.081605 0.035859
0.786038 0.082155 0.035859
0.028809 0.029786 0.029419
0.030854 0.029908 0.029541
0.043488 0.031281 0.030701
0.080751 0.027344 0.026184
0.123415 0.027832 0.025544
0.183291 0.033753 0.024384
0.272938 0.037324 0.024323
0.379812 0.039612 0.025025
0.480827 0.046235 0.025940
0.549279 0.057465 0.026947
0.599359 0.065278 0.027863
0.655116 0.066896 0.028473
0.710292 0.070619 0.029511
0.761593 0.077058 0.032013
0.782742 0.082551 0.035370
0.786099 0.083772 0.035950
0.785611 0.084047 0.035950
0.030823 0.038300 0.033082
0.033631 0.038819 0.033417
0.060822 0.051301 0.033997
0.099336 0.051911 0.030365
0.151095 0.047791 0.028779
0.220951 0.047425 0.025757
0.302113 0.047150 0.024872
0.394888 0.050202 0.025513
0.501015 0.053620 0.026703
0.568933 0.066865 0.027558
0.609674 0.068635 0.028016
0.662531 0.070741 0.028901
0.713069 0.075624 0.029969
0.763638 0.081361 0.032471
0.784878 0.086458 0.035859
0.788571 0.087556 0.036469
0.788113 0.087648 0.036439
0.029511 0.059327 0.030030
0.031556 0.064118 0.030304
0.053437 0.074189 0.037568
0.110811 0.090791 0.043854
0.173342 0.092042 0.037964
0.263935 0.085634 0.032258
0.361379 0.084504 0.029725
0.453819 0.082612 0.029541
0.539315 0.084810 0.029572
0.608484 0.094728 0.030335
0.648066 0.096193 0.030732
0.688380 0.099672 0.031678
0.732662 0.102266 0.032959
0.778195 0.111757 0.037598
0.797421 0.117342 0.041901
0.800992 0.117800 0.042573
0.800412 0.116793 0.042267
0.030121 0.084199 0.051026
0.035248 0.100191 0.050629
0.059083 0.125063 0.046571
0.114412 0.143313 0.046204
0.218891 0.174533 0.053407
0.310170 0.167208 0.051606
0.408408 0.160433 0.048280
0.515053 0.156771 0.044160
0.601419 0.159518 0.041444
0.673060 0.169162 0.042420
0.697841 0.152499 0.039979
0.732692 0.155978 0.040650
0.773770 0.159426 0.043427
0.811795 0.168612 0.050050
0.829557 0.180667 0.057435
0.832578 0.180362 0.057862
0.831632 0.178500 0.057374
0.038941 0.124178 0.056184
0.045380 0.149233 0.061341
0.076204 0.194614 0.063630
0.117281 0.215549 0.058442
0.223117 0.253849 0.069795
0.368887 0.287633 0.082063
0.470848 0.269795 0.074525
0.575051 0.264668 0.069093
0.649149 0.251881 0.063172
0.704402 0.239796 0.059144
0.745449 0.237842 0.058076
0.783108 0.236851 0.057221
0.822477 0.241733 0.060243
0.855406 0.254398 0.071351
0.868467 0.262715 0.078981
0.870115 0.263233 0.080995
0.869505 0.261341 0.080507
0.048585 0.161883 0.071107
0.064424 0.207568 0.085328
0.114839 0.288563 0.092866
0.152987 0.310933 0.078950
0.214969 0.320943 0.072358
0.352010 0.355367 0.093355
0.524086 0.388693 0.109834
0.624338 0.386038 0.103883
0.702770 0.376455 0.096620
0.756558 0.354086 0.088899
0.790890 0.351949 0.088685
0.827054 0.350881 0.086854
0.861448 0.350668 0.086183
0.891386 0.370016 0.099397
0.901915 0.382925 0.111299
0.902525 0.384054 0.114260
0.902373 0.382650 0.113924
0.098817 0.279545 0.110140
0.107546 0.295995 0.111543
0.160983 0.370031 0.117311
0.191165 0.398993 0.112734
0.234180 0.406302 0.093568
0.352682 0.437522 0.100038
0.534279 0.485954 0.132998
0.672862 0.509896 0.154513
0.751232 0.497520 0.144839
0.808011 0.493919 0.136904
0.840055 0.489982 0.129549
0.868620 0.487785 0.123140
0.894408 0.493584 0.124361
0.908446 0.511482 0.141482
0.911101 0.524514 0.164096
0.911650 0.523842 0.166629
0.911589 0.522957 0.166201
0.134615 0.348287 0.148623
0.130373 0.338033 0.138399
0.149660 0.365179 0.145235
0.198917 0.433875 0.162478
0.270191 0.500374 0.153170
0.342123 0.505043 0.114199
0.521737 0.559670 0.157839
0.689830 0.605203 0.195850
0.803479 0.628611 0.210727
0.853178 0.632609 0.198688
0.879576 0.631235 0.184131
0.899199 0.635752 0.174060
0.914763 0.638712 0.177752
0.919768 0.640726 0.209125
0.919493 0.638621 0.240375
0.919402 0.638315 0.246174
0.919402 0.638163 0.245991
0.174990 0.415534 0.193454
0.178897 0.420310 0.193759
0.166690 0.400549 0.179080
0.183780 0.422889 0.183536
0.284306 0.548730 0.218402
0.377264 0.609384 0.187060
0.485176 0.615442 0.162570
0.710613 0.700923 0.223148
0.836637 0.751751 0.264317
0.877897 0.755199 0.261631
0.898497 0.762310 0.249241
0.915618 0.763622 0.243351
0.924559 0.754070 0.258869
0.927581 0.744823 0.310323
0.928985 0.747478 0.355062
0.929412 0.749767 0.363546
0.929503 0.750469 0.364218
0.212406 0.482002 0.243259
0.215213 0.485786 0.244114
0.221317 0.494194 0.246921
0.206149 0.462287 0.217197
0.273426 0.554879 0.251041
0.418891 0.700832 0.244160
0.546304 0.735195 0.184604
0.716472 0.783841 0.225162
0.840146 0.817777 0.275639
0.893339 0.845533 0.318669
0.918608 0.854612 0.335119
0.928862 0.859510 0.335103
0.936339 0.844236 0.373190
0.940826 0.854810 0.458274
0.940887 0.853254 0.514595
0.941039 0.853498 0.525124
0.941100 0.854231 0.527016
0.254978 0.552880 0.290227
0.257511 0.555657 0.290227
0.261845 0.561425 0.292424
0.283330 0.590417 0.303441
0.352941 0.681361 0.321599
0.439063 0.768978 0.291493
0.563363 0.816953 0.200046
0.705791 0.850614 0.219791
0.837263 0.878538 0.282002
0.894682 0.895079 0.348104
0.923278 0.911437 0.409995
0.939910 0.920501 0.473106
0.943114 0.909026 0.553536
0.945251 0.906004 0.634928
0.946166 0.907530 0.670054
0.946349 0.908324 0.677104
0.946410 0.908934 0.679149
0.296025 0.627985 0.344305
0.301427 0.633661 0.344366
0.304173 0.635767 0.343297
0.325902 0.663691 0.349950
0.381994 0.752102 0.370916
0.454749 0.849912 0.329427
0.540902 0.887419 0.209857
0.659632 0.897398 0.176379
0.820508 0.917296 0.295338
0.889555 0.934356 0.414816
0.909575 0.939330 0.537453
0.934905 0.944518 0.628672
0.947112 0.944671 0.698650
0.947784 0.937713 0.750835
0.947845 0.939178 0.761501
0.947845 0.939666 0.763760
0.947845 0.939941 0.764431
0.302495 0.659175 0.377234
0.325200 0.682673 0.375891
0.346960 0.717800 0.391699
0.368078 0.750820 0.400488
0.410925 0.834287 0.410590
0.471778 0.905943 0.352132
0.523980 0.928222 0.243091
0.630259 0.925444 0.242084
0.786877 0.939452 0.434104
0.856413 0.943999 0.570565
0.893431 0.946502 0.672618
0.928588 0.947631 0.739086
0.944884 0.947906 0.771481
0.948089 0.947356 0.784909
0.948150 0.947295 0.787228
0.948180 0.947570 0.787991
0.948180 0.947631 0.788144
0.260075 0.592157 0.345647
0.284581 0.618067 0.346868
0.380194 0.788815 0.423743
0.394568 0.817990 0.429603
0.429023 0.883055 0.430182
0.483192 0.926665 0.383703
0.533425 0.937774 0.344732
0.655802 0.939452 0.446113
0.766186 0.943664 0.561517
0.845136 0.946288 0.642985
0.898711 0.947570 0.711284
0.933135 0.947784 0.761440
0.946777 0.947997 0.786435
0.948211 0.948241 0.789670
0.948302 0.948241 0.789883
0.948302 0.948241 0.789883
0.948302 0.948241 0.789883
0.291478 0.652094 0.384466
0.304814 0.659663 0.374517
0.392554 0.821347 0.435004
0.404639 0.842344 0.436744
0.436713 0.895079 0.435676
0.486152 0.930694 0.399451
0.539193 0.938720 0.386038
0.662974 0.941344 0.501579
0.759838 0.944518 0.590311
0.843244 0.946746 0.658000
0.900145 0.947570 0.716609
0.934417 0.947784 0.763607
0.947265 0.948058 0.787503
0.948272 0.948241 0.789853
0.948302 0.948241 0.789883
0.948302 0.948241 0.789883
0.948302 0.948241 0.789883
0.310521 0.687129 0.404883
0.317174 0.683253 0.388983
0.394293 0.827237 0.437598
0.406378 0.844968 0.436957
0.437018 0.895811 0.436316
0.486152 0.931121 0.400824
0.540139 0.938781 0.389487
0.664591 0.941497 0.506310
0.760449 0.944610 0.592477
0.844404 0.946777 0.659327
0.900816 0.947570 0.717342
0.934691 0.947784 0.764035
0.947295 0.948089 0.787564
0.948302 0.948241 0.789883
0.948302 0.948241 0.789883
0.948302 0.948241 0.789883
0.948302 0.948241 0.789883
0.030121 0.029206 0.036347
0.031403 0.029175 0.036530
0.039490 0.029541 0.037110
0.076234 0.026123 0.033753
0.117617 0.025483 0.038605
0.170535 0.025086 0.041871
0.239612 0.025086 0.043610
0.346548 0.026490 0.038056
0.471946 0.029938 0.026398
0.543297 0.037690 0.027131
0.602930 0.044648 0.027863
0.660761 0.049104 0.028168
0.717037 0.056123 0.029206
0.769039 0.066224 0.032044
0.789639 0.073121 0.036103
0.792996 0.075319 0.036774
0.792325 0.076356 0.036652
0.030213 0.031586 0.038239
0.033417 0.032044 0.039002
0.040681 0.031769 0.038880
0.080201 0.026673 0.036469
0.125154 0.026154 0.039734
0.193545 0.027283 0.037537
0.281270 0.027771 0.034913
0.392264 0.027405 0.031189
0.497185 0.033600 0.027283
0.566644 0.040497 0.027710
0.608515 0.049500 0.027924
0.663386 0.053101 0.028260
0.716609 0.059937 0.029389
0.769070 0.068513 0.032197
0.789853 0.075074 0.036255
0.793179 0.077028 0.036896
0.792416 0.077790 0.036774
0.029084 0.039734 0.040986
0.032319 0.042603 0.041596
0.049104 0.047303 0.044831
0.085634 0.046876 0.043580
0.142641 0.041505 0.036652
0.222675 0.037995 0.031556
0.316640 0.035676 0.029023
0.432181 0.039246 0.029236
0.520974 0.041901 0.029084
0.596490 0.051301 0.028473
0.620600 0.055482 0.028077
0.668727 0.060761 0.028748
0.719173 0.067567 0.029938
0.769894 0.074372 0.032685
0.791379 0.080079 0.036896
0.794766 0.081697 0.037568
0.794003 0.082246 0.037385
0.027344 0.064973 0.051575
0.029725 0.070558 0.051637
0.047120 0.075135 0.053223
0.093263 0.083589 0.056886
0.161471 0.083284 0.045258
0.251514 0.074647 0.040650
0.355825 0.070588 0.037537
0.467674 0.070253 0.034607
0.553109 0.076661 0.031952
0.623499 0.084871 0.031159
0.654017 0.084718 0.030640
0.691218 0.089937 0.031189
0.736385 0.092897 0.032349
0.780270 0.100801 0.037263
0.800137 0.108400 0.042451
0.803738 0.109560 0.043122
0.803037 0.108980 0.042756
0.029236 0.086488 0.062898
0.033509 0.102388 0.065583
0.050965 0.120821 0.063050
0.084749 0.127901 0.061433
0.183337 0.153262 0.067781
0.282856 0.146822 0.061402
0.399313 0.142641 0.053437
0.517739 0.140414 0.045380
0.600565 0.139528 0.041779
0.661707 0.142550 0.041260
0.706783 0.140688 0.040131
0.735195 0.143648 0.039521
0.774380 0.149996 0.042542
0.812375 0.160372 0.049531
0.830716 0.174105 0.057496
0.833860 0.174350 0.057984
0.832975 0.173037 0.057527
0.038453 0.128298 0.070954
0.043061 0.148653 0.079347
0.066529 0.189822 0.084108
0.104128 0.215396 0.079652
0.189609 0.237461 0.076234
0.339406 0.269413 0.091005
0.449821 0.247761 0.080659
0.561166 0.245930 0.074037
0.643046 0.238636 0.066346
0.703487 0.231647 0.060853
0.753170 0.225422 0.057801
0.790982 0.222049 0.055604
0.822843 0.233555 0.060334
0.856016 0.248905 0.072267
0.869566 0.258625 0.080140
0.870695 0.260273 0.082979
0.870237 0.258961 0.082551
0.051026 0.177539 0.095521
0.065095 0.217731 0.104585
0.102419 0.276570 0.109590
0.133608 0.307729 0.105745
0.181506 0.312032 0.089418
0.314168 0.339376 0.104463
0.497337 0.375204 0.120485
0.612009 0.377615 0.108888
0.697002 0.370565 0.100282
0.757168 0.355856 0.094545
0.795651 0.342702 0.090364
0.833524 0.338613 0.087098
0.862699 0.346151 0.086702
0.892821 0.367727 0.100282
0.902678 0.382345 0.113283
0.903288 0.383841 0.116243
0.903136 0.382834 0.115938
0.095216 0.282032 0.131716
0.106233 0.303075 0.136294
0.149660 0.363745 0.141573
0.175448 0.393622 0.136965
0.220111 0.412802 0.118166
0.323323 0.430198 0.101289
0.513527 0.483024 0.137179
0.662242 0.511696 0.162966
0.747051 0.502327 0.153536
0.804196 0.495872 0.143633
0.843961 0.488273 0.133761
0.872618 0.484764 0.125582
0.895201 0.492943 0.126314
0.908782 0.511940 0.144259
0.911467 0.524788 0.167025
0.912047 0.524544 0.169665
0.912016 0.524147 0.169421
0.132845 0.353933 0.171542
0.122316 0.336202 0.165499
0.143008 0.362631 0.165896
0.194095 0.434394 0.181338
0.261936 0.501015 0.172503
0.335409 0.520485 0.140780
0.506233 0.565164 0.164614
0.677134 0.608835 0.203754
0.792645 0.631022 0.221286
0.847227 0.632456 0.205219
0.882017 0.636179 0.189349
0.903655 0.635264 0.174884
0.915373 0.639261 0.179706
0.919768 0.640665 0.212604
0.919524 0.639780 0.245075
0.919463 0.639872 0.251179
0.919463 0.640055 0.251270
0.170016 0.421363 0.221805
0.174380 0.425803 0.220310
0.178744 0.432074 0.222751
0.202457 0.461585 0.226627
0.256367 0.531762 0.244419
0.360998 0.618997 0.219745
0.493156 0.644221 0.182864
0.685985 0.696895 0.224552
0.822080 0.741909 0.261692
0.882017 0.766430 0.272526
0.901793 0.768841 0.254063
0.916014 0.765606 0.246647
0.924743 0.754894 0.262409
0.927977 0.747417 0.316060
0.929473 0.750652 0.360922
0.930022 0.754040 0.370565
0.930144 0.755108 0.371664
0.209964 0.489632 0.268254
0.213046 0.492836 0.267124
0.217960 0.498909 0.267369
0.180087 0.436805 0.229221
0.190265 0.444465 0.220844
0.372335 0.680781 0.293294
0.526040 0.746120 0.202060
0.711742 0.795285 0.232761
0.850492 0.833677 0.288914
0.898314 0.852155 0.327459
0.922057 0.858915 0.341558
0.929229 0.861173 0.338460
0.936675 0.846677 0.378561
0.940948 0.856519 0.463737
0.941131 0.855634 0.520485
0.941314 0.856092 0.531563
0.941405 0.857069 0.534035
0.249546 0.562768 0.318395
0.253758 0.564630 0.314916
0.258885 0.569024 0.313603
0.279271 0.595102 0.320836
0.341375 0.678965 0.338537
0.435676 0.777981 0.306432
0.567239 0.853056 0.198276
0.730785 0.870542 0.222461
0.855680 0.890562 0.296178
0.894652 0.896788 0.349004
0.923125 0.912963 0.411841
0.940093 0.922362 0.476921
0.943236 0.910216 0.557595
0.945434 0.907622 0.640970
0.946349 0.909575 0.676158
0.946563 0.910521 0.683543
0.946654 0.911345 0.686229
0.286961 0.641108 0.375311
0.294408 0.646174 0.371374
0.299657 0.649042 0.367712
0.321935 0.674434 0.370306
0.374365 0.750454 0.387060
0.450965 0.854429 0.344747
0.534005 0.891112 0.215015
0.653315 0.898497 0.172747
0.818280 0.918334 0.294362
0.888518 0.934813 0.418326
0.908904 0.939635 0.539925
0.934569 0.944610 0.631510
0.947143 0.945251 0.700145
0.947784 0.938476 0.752819
0.947845 0.940124 0.763516
0.947875 0.940703 0.766079
0.947875 0.941100 0.766903
0.325170 0.722316 0.425452
0.340734 0.734554 0.419196
0.347997 0.740658 0.416632
0.368444 0.768765 0.421363
0.404089 0.831846 0.420203
0.469062 0.906371 0.360098
0.522698 0.928832 0.248722
0.628153 0.925994 0.246693
0.784070 0.939574 0.434989
0.855497 0.944030 0.570626
0.893370 0.946532 0.672282
0.928679 0.947631 0.739757
0.944945 0.947906 0.772793
0.948119 0.947723 0.786068
0.948180 0.947570 0.788022
0.948211 0.947875 0.788510
0.948180 0.947906 0.787991
0.359747 0.808347 0.468818
0.372686 0.816831 0.458747
0.381323 0.819425 0.448981
0.396277 0.840635 0.446723
0.427039 0.882841 0.441901
0.483406 0.927245 0.390448
0.532601 0.937804 0.343572
0.652445 0.939300 0.442542
0.764874 0.943572 0.559869
0.844160 0.946258 0.641154
0.898589 0.947570 0.710460
0.933135 0.947784 0.760952
0.946807 0.947997 0.786435
0.948180 0.948241 0.789639
0.948302 0.948241 0.789883
0.948272 0.948241 0.789761
0.948241 0.948211 0.789212
0.384894 0.860197 0.484199
0.388281 0.849943 0.468299
0.392676 0.844144 0.455817
0.406378 0.858122 0.451484
0.432990 0.897063 0.448432
0.485084 0.931517 0.405890
0.538308 0.938720 0.384588
0.660044 0.941100 0.495766
0.758709 0.944396 0.587701
0.842176 0.946685 0.655955
0.899931 0.947570 0.715755
0.934325 0.947784 0.762997
0.947234 0.948058 0.787381
0.948272 0.948241 0.789853
0.948302 0.948241 0.789883
0.948302 0.948241 0.789883
0.948272 0.948241 0.789487
0.391485 0.873442 0.489601
0.392096 0.858030 0.471870
0.393683 0.846769 0.457282
0.407385 0.860533 0.452766
0.433082 0.898589 0.449561
0.485451 0.932006 0.406897
0.539193 0.938750 0.388403
0.661509 0.941253 0.500023
0.759228 0.944488 0.589578
0.843305 0.946715 0.657176
0.900572 0.947570 0.716457
0.934569 0.947784 0.763424
0.947265 0.948058 0.787503
0.948302 0.948241 0.789883
0.948302 0.948241 0.789883
0.948302 0.948241 0.789883
0.948272 0.948241 0.789731
0.031434 0.030274 0.043275
0.033021 0.029938 0.046815
0.040436 0.028748 0.053773
0.066865 0.025849 0.063294
0.109071 0.024994 0.062135
0.161898 0.024659 0.062409
0.230213 0.024842 0.060975
0.342031 0.026032 0.059174
0.484596 0.027008 0.050446
0.540246 0.027649 0.043275
0.607843 0.028626 0.038575
0.673487 0.028199 0.034638
0.737819 0.029450 0.033082
0.795804 0.037476 0.035462
