example-Advanced/bin/data/ofxGpuLutCube/LUT/Hollywood-37.cube
#Generated by Picture Instruments - Look Creator
TITLE "Fujii Velvia 50+++"
LUT_3D_SIZE 9
0.0117647 0.054902 0.0784314
0.027451 0.0588235 0.0705882
0.0823529 0.0627451 0.0784314
0.164706 0.054902 0.0745098
0.309804 0 0.0627451
0.490196 0 0.0117647
0.670588 0 0
0.823529 0 0.00392157
0.913725 0 0
0.0156863 0.0784314 0.0784314
0.0431373 0.0823529 0.0784314
0.0901961 0.0862745 0.0745098
0.180392 0.0862745 0.0705882
0.32549 0.0431373 0.0588235
0.509804 0 0
0.682353 0 0.00392157
0.827451 0 0
0.921569 0.0588235 0
0.0117647 0.129412 0.0862745
0.0392157 0.129412 0.0901961
0.105882 0.152941 0.0784314
0.223529 0.168627 0.0666667
0.364706 0.168627 0.0313725
0.541176 0.160784 0
0.698039 0.152941 0
0.839216 0.188235 0
0.929412 0.247059 0
0 0.239216 0.0901961
0.0196078 0.239216 0.0941176
0.109804 0.254902 0.0862745
0.258824 0.309804 0.0352941
0.454902 0.337255 0
0.596078 0.329412 0
0.737255 0.337255 0.00392157
0.854902 0.364706 0
0.941176 0.396078 0
0 0.4 0.101961
0.0196078 0.4 0.0980392
0.129412 0.388235 0.105882
0.258824 0.435294 0.0705882
0.47451 0.501961 0
0.678431 0.533333 0
0.784314 0.521569 0
0.878431 0.52549 0
0.945098 0.541176 0
0.0666667 0.564706 0.117647
0.121569 0.560784 0.121569
0.188235 0.552941 0.129412
0.290196 0.564706 0.12549
0.462745 0.611765 0.0745098
0.666667 0.662745 0
0.835294 0.690196 0
0.905882 0.682353 0
0.960784 0.682353 0
0.223529 0.717647 0.188235
0.243137 0.713725 0.188235
0.290196 0.705882 0.188235
0.364706 0.698039 0.2
0.494118 0.717647 0.196078
0.662745 0.756863 0.176471
0.815686 0.788235 0.141176
0.929412 0.811765 0.0862745
0.972549 0.807843 0.121569
0.388235 0.847059 0.317647
0.396078 0.843137 0.309804
0.431373 0.835294 0.309804
0.486275 0.827451 0.317647
0.568627 0.827451 0.333333
0.690196 0.847059 0.337255
0.815686 0.866667 0.345098
0.909804 0.886275 0.341176
0.980392 0.894118 0.333333
0.596078 0.941176 0.529412
0.588235 0.937255 0.513725
0.615686 0.933333 0.521569
0.658824 0.933333 0.537255
0.713725 0.933333 0.572549
0.788235 0.937255 0.6
0.854902 0.945098 0.619608
0.913725 0.956863 0.639216
0.968627 0.964706 0.639216
0.00392157 0.054902 0.0901961
0.0313725 0.0588235 0.0980392
0.0823529 0.0627451 0.0901961
0.168627 0.0392157 0.0941176
0.317647 0 0.0901961
0.498039 0 0.0666667
0.678431 0.00392157 0.00392157
0.823529 0 0.00392157
0.921569 0 0
0.00784314 0.0823529 0.101961
0.0392157 0.0823529 0.0980392
0.0941176 0.0862745 0.0980392
0.188235 0.0862745 0.0980392
0.333333 0 0.0901961
0.517647 0 0.0627451
0.682353 0 0.00392157
0.831373 0 0
0.921569 0 0
0.0117647 0.141176 0.113725
0.0431373 0.145098 0.109804
0.109804 0.156863 0.101961
0.227451 0.168627 0.0941176
0.380392 0.164706 0.0823529
0.545098 0.14902 0.0352941
0.705882 0.141176 0.00392157
0.835294 0.176471 0
0.929412 0.243137 0
0 0.262745 0.117647
0.0313725 0.254902 0.117647
0.117647 0.266667 0.121569
0.27451 0.317647 0.0980392
0.462745 0.337255 0.027451
0.596078 0.329412 0
0.737255 0.337255 0.00392157
0.858824 0.360784 0
0.941176 0.396078 0
0 0.415686 0.133333
0.0509804 0.415686 0.137255
0.145098 0.407843 0.137255
0.27451 0.443137 0.12549
0.47451 0.501961 0.0509804
0.682353 0.533333 0
0.788235 0.521569 0
0.878431 0.521569 0
0.952941 0.541176 0
0.0862745 0.568627 0.156863
0.133333 0.568627 0.164706
0.203922 0.564706 0.168627
0.298039 0.564706 0.168627
0.466667 0.615686 0.14902
0.670588 0.662745 0.0901961
0.839216 0.694118 0
0.905882 0.682353 0
0.964706 0.686275 0
0.219608 0.713725 0.219608
0.247059 0.713725 0.219608
0.301961 0.709804 0.227451
0.372549 0.701961 0.235294
0.498039 0.72549 0.231373
0.658824 0.756863 0.227451
0.811765 0.788235 0.207843
0.929412 0.811765 0.188235
0.972549 0.807843 0.2
0.380392 0.843137 0.32549
0.4 0.843137 0.329412
0.439216 0.839216 0.337255
0.494118 0.831373 0.34902
0.572549 0.827451 0.356863
0.694118 0.85098 0.368627
0.811765 0.870588 0.380392
0.905882 0.886275 0.380392
0.980392 0.898039 0.380392
0.592157 0.937255 0.537255
0.596078 0.937255 0.533333
0.623529 0.937255 0.541176
0.666667 0.937255 0.560784
0.717647 0.933333 0.592157
0.788235 0.941176 0.615686
0.854902 0.94902 0.635294
0.913725 0.960784 0.654902
0.964706 0.964706 0.654902
0 0.054902 0.160784
0.0117647 0.054902 0.160784
0.0901961 0.054902 0.152941
0.184314 0.027451 0.160784
0.337255 0 0.152941
0.517647 0 0.145098
0.686275 0.00392157 0.14902
0.827451 0 0.12549
0.929412 0 0.101961
0 0.0784314 0.172549
0 0.0823529 0.168627
0.0980392 0.0862745 0.168627
0.2 0.0784314 0.168627
0.356863 0 0.160784
0.529412 0 0.156863
0.698039 0 0.141176
0.835294 0 0.12549
0.929412 0 0.101961
0 0.14902 0.180392
0 0.156863 0.184314
0.121569 0.164706 0.188235
0.235294 0.164706 0.180392
0.392157 0.152941 0.172549
0.560784 0.129412 0.164706
0.717647 0.113725 0.145098
0.847059 0.152941 0.121569
0.933333 0.231373 0.105882
0 0.290196 0.2
0.0352941 0.294118 0.207843
0.141176 0.294118 0.2
0.286275 0.32549 0.192157
0.462745 0.329412 0.180392
0.607843 0.32549 0.168627
0.745098 0.333333 0.14902
0.862745 0.356863 0.133333
0.94902 0.396078 0.121569
0.0588235 0.454902 0.235294
0.0862745 0.454902 0.219608
0.180392 0.447059 0.223529
0.290196 0.45098 0.223529
0.498039 0.513725 0.211765
0.678431 0.533333 0.188235
0.784314 0.521569 0.172549
0.878431 0.52549 0.14902
0.94902 0.545098 0.14902
0.129412 0.6 0.25098
0.172549 0.6 0.25098
0.239216 0.588235 0.258824
0.32549 0.580392 0.266667
0.482353 0.619608 0.258824
0.682353 0.670588 0.25098
0.839216 0.694118 0.235294
0.905882 0.682353 0.227451
0.960784 0.682353 0.219608
0.247059 0.733333 0.301961
0.27451 0.729412 0.301961
0.329412 0.72549 0.309804
0.4 0.717647 0.313725
0.509804 0.72549 0.32549
0.666667 0.760784 0.329412
0.819608 0.792157 0.329412
0.929412 0.819608 0.333333
0.972549 0.811765 0.337255
0.396078 0.847059 0.388235
0.415686 0.847059 0.396078
0.454902 0.843137 0.4
0.509804 0.839216 0.403922
0.576471 0.831373 0.419608
0.698039 0.85098 0.435294
0.811765 0.87451 0.454902
0.905882 0.890196 0.466667
0.980392 0.898039 0.470588
0.6 0.945098 0.576471
0.603922 0.941176 0.572549
0.631373 0.941176 0.580392
0.67451 0.937255 0.596078
0.72549 0.937255 0.623529
0.792157 0.937255 0.65098
0.85098 0.952941 0.67451
0.913725 0.960784 0.686275
0.964706 0.964706 0.694118
0 0.0392157 0.329412
0.00392157 0.0352941 0.321569
0.105882 0 0.313725
0.231373 0 0.309804
0.380392 0 0.309804
0.576471 0 0.317647
0.721569 0 0.294118
0.843137 0 0.262745
0.92549 0 0.282353
0 0.0784314 0.32549
0 0.0745098 0.32549
0.101961 0.0627451 0.317647
0.239216 0 0.313725
0.396078 0 0.321569
0.576471 0 0.317647
0.72549 0 0.298039
0.843137 0 0.294118
0.929412 0 0.294118
0 0.145098 0.341176
0 0.145098 0.345098
0.109804 0.156863 0.341176
0.266667 0.160784 0.337255
0.431373 0.176471 0.345098
0.592157 0.117647 0.32549
0.729412 0.0980392 0.313725
0.847059 0.156863 0.305882
0.933333 0.235294 0.301961
0 0.309804 0.356863
0 0.317647 0.364706
0.133333 0.329412 0.364706
0.317647 0.345098 0.376471
0.470588 0.345098 0.364706
0.615686 0.337255 0.352941
0.74902 0.341176 0.337255
0.862745 0.360784 0.32549
0.945098 0.4 0.321569
0 0.490196 0.372549
0.0823529 0.494118 0.376471
0.227451 0.498039 0.384314
0.34902 0.490196 0.388235
0.521569 0.52549 0.392157
0.678431 0.529412 0.384314
0.784314 0.521569 0.356863
0.882353 0.52549 0.34902
0.945098 0.54902 0.345098
0.207843 0.631373 0.411765
0.254902 0.635294 0.423529
0.317647 0.635294 0.415686
0.392157 0.623529 0.403922
0.498039 0.627451 0.411765
0.690196 0.67451 0.423529
0.827451 0.694118 0.415686
0.894118 0.682353 0.392157
0.952941 0.682353 0.384314
0.32549 0.752941 0.443137
0.333333 0.752941 0.439216
0.372549 0.74902 0.431373
0.439216 0.741176 0.435294
0.521569 0.72549 0.435294
0.670588 0.760784 0.45098
0.819608 0.796078 0.470588
0.917647 0.815686 0.482353
0.964706 0.807843 0.478431
0.419608 0.858824 0.486275
0.439216 0.858824 0.490196
0.47451 0.854902 0.490196
0.529412 0.847059 0.494118
0.596078 0.839216 0.501961
0.694118 0.847059 0.521569
0.811765 0.870588 0.541176
0.905882 0.886275 0.560784
0.968627 0.901961 0.580392
0.611765 0.945098 0.635294
0.615686 0.945098 0.631373
0.639216 0.945098 0.635294
0.678431 0.941176 0.65098
0.729412 0.941176 0.670588
0.788235 0.937255 0.694118
0.85098 0.94902 0.717647
0.909804 0.960784 0.733333
0.964706 0.968627 0.741176
0 0 0.521569
0 0 0.517647
0.0941176 0 0.509804
0.27451 0 0.498039
0.427451 0 0.498039
0.576471 0 0.490196
0.74902 0 0.517647
0.858824 0 0.501961
0.933333 0 0.482353
0 0.0470588 0.517647
0 0.027451 0.513725
0.0823529 0 0.509804
0.27451 0 0.498039
0.435294 0 0.505882
0.584314 0 0.494118
0.752941 0 0.521569
0.858824 0 0.501961
0.933333 0.0784314 0.490196
0 0.133333 0.52549
0 0.145098 0.529412
0.0784314 0.141176 0.52549
0.298039 0.121569 0.517647
0.458824 0.0980392 0.517647
0.607843 0.164706 0.517647
0.752941 0.207843 0.533333
0.862745 0.215686 0.513725
0.937255 0.254902 0.498039
0 0.290196 0.545098
0 0.294118 0.552941
0 0.301961 0.556863
0.321569 0.32549 0.54902
0.494118 0.337255 0.545098
0.647059 0.392157 0.560784
0.764706 0.380392 0.541176
0.862745 0.372549 0.513725
0.929412 0.419608 0.517647
0 0.498039 0.556863
0 0.505882 0.560784
0.196078 0.517647 0.572549
0.376471 0.533333 0.580392
0.54902 0.54902 0.596078
0.670588 0.541176 0.576471
0.780392 0.537255 0.556863
0.870588 0.537255 0.541176
0.937255 0.552941 0.533333
0.164706 0.666667 0.568627
0.223529 0.666667 0.572549
0.32549 0.670588 0.576471
0.45098 0.666667 0.576471
0.560784 0.658824 0.584314
0.701961 0.686275 0.6
0.815686 0.690196 0.592157
0.890196 0.678431 0.560784
0.941176 0.686275 0.556863
0.337255 0.772549 0.576471
0.368627 0.776471 0.584314
0.431373 0.772549 0.596078
0.52549 0.772549 0.603922
0.572549 0.756863 0.584314
0.678431 0.760784 0.592157
0.815686 0.8 0.615686
0.909804 0.815686 0.635294
0.952941 0.811765 0.619608
0.470588 0.870588 0.623529
0.494118 0.870588 0.627451
0.537255 0.866667 0.635294
0.560784 0.862745 0.611765
0.623529 0.85098 0.611765
0.690196 0.843137 0.619608
0.807843 0.866667 0.647059
0.901961 0.890196 0.67451
0.964706 0.905882 0.698039
0.635294 0.952941 0.717647
0.635294 0.952941 0.713725
0.647059 0.94902 0.705882
0.686275 0.94902 0.709804
0.737255 0.945098 0.72549
0.792157 0.941176 0.745098
0.85098 0.952941 0.768627
0.909804 0.960784 0.784314
0.960784 0.964706 0.788235
0 0 0.690196
0 0 0.698039
0.137255 0 0.694118
0.321569 0 0.686275
0.478431 0 0.678431
0.627451 0 0.682353
0.737255 0 0.666667
0.862745 0.0392157 0.690196
0.929412 0.27451 0.694118
0 0 0.682353
0 0 0.690196
0.113725 0 0.690196
0.313725 0 0.686275
0.478431 0 0.678431
0.627451 0 0.682353
0.741176 0 0.67451
0.862745 0.2 0.698039
0.929412 0.32549 0.701961
0 0.117647 0.690196
0 0.117647 0.698039
0.109804 0.0980392 0.698039
0.317647 0.0313725 0.694118
0.486275 0 0.686275
0.639216 0 0.694118
0.752941 0.192157 0.678431
0.866667 0.360784 0.713725
0.92549 0.407843 0.709804
0 0.25098 0.713725
0 0.25098 0.713725
0.117647 0.290196 0.709804
0.34902 0.298039 0.713725
0.517647 0.301961 0.701961
0.658824 0.329412 0.705882
0.772549 0.419608 0.709804
0.866667 0.490196 0.729412
0.92549 0.501961 0.709804
0 0.478431 0.72549
0 0.478431 0.72549
0.164706 0.482353 0.729412
0.360784 0.494118 0.733333
0.552941 0.517647 0.733333
0.686275 0.537255 0.729412
0.796078 0.6 0.745098
0.866667 0.592157 0.733333
0.92549 0.588235 0.705882
0.164706 0.67451 0.737255
0.227451 0.67451 0.737255
0.329412 0.678431 0.741176
0.454902 0.682353 0.741176
0.588235 0.690196 0.74902
0.721569 0.705882 0.760784
0.803922 0.698039 0.741176
0.87451 0.694118 0.733333
0.929412 0.698039 0.717647
0.341176 0.807843 0.733333
0.364706 0.803922 0.737255
0.431373 0.8 0.729412
0.52549 0.796078 0.737255
0.635294 0.796078 0.741176
0.713725 0.780392 0.741176
0.827451 0.811765 0.764706
0.890196 0.815686 0.760784
0.937255 0.807843 0.745098
0.482353 0.886275 0.741176
0.498039 0.886275 0.737255
0.541176 0.882353 0.745098
0.603922 0.878431 0.745098
0.690196 0.870588 0.756863
0.729412 0.858824 0.737255
0.807843 0.866667 0.752941
0.894118 0.894118 0.784314
0.960784 0.905882 0.8
0.623529 0.960784 0.788235
0.635294 0.956863 0.788235
0.662745 0.956863 0.788235
0.717647 0.952941 0.803922
0.752941 0.952941 0.8
0.803922 0.952941 0.807843
0.85098 0.94902 0.823529
0.905882 0.964706 0.843137
0.956863 0.968627 0.847059
0 0 0.839216
0.0862745 0 0.843137
0.247059 0 0.835294
0.388235 0 0.831373
0.52549 0 0.827451
0.662745 0 0.819608
0.776471 0 0.827451
0.847059 0 0.803922
0.921569 0.309804 0.815686
0 0 0.835294
0 0 0.835294
0.231373 0 0.831373
0.380392 0 0.831373
0.52549 0 0.827451
0.658824 0 0.819608
0.780392 0.00392157 0.831373
0.847059 0 0.803922
0.917647 0.372549 0.815686
0 0.0392157 0.835294
0 0 0.839216
0.227451 0 0.835294
0.384314 0 0.831373
0.537255 0 0.831373
0.666667 0 0.827451
0.784314 0 0.831373
0.854902 0.290196 0.807843
0.917647 0.462745 0.823529
0 0.258824 0.843137
0 0.270588 0.847059
0.239216 0.270588 0.839216
0.4 0.266667 0.839216
0.541176 0.270588 0.831373
0.682353 0.286275 0.835294
0.796078 0.34902 0.835294
0.854902 0.466667 0.823529
0.917647 0.584314 0.839216
0 0.435294 0.854902
0 0.439216 0.847059
0.160784 0.439216 0.847059
0.407843 0.470588 0.847059
0.568627 0.486275 0.843137
0.698039 0.501961 0.843137
0.8 0.537255 0.839216
0.866667 0.619608 0.835294
0.917647 0.690196 0.85098
0.14902 0.639216 0.85098
0.219608 0.639216 0.85098
0.32549 0.643137 0.85098
0.443137 0.643137 0.85098
0.576471 0.654902 0.854902
0.721569 0.678431 0.847059
0.815686 0.698039 0.847059
0.882353 0.752941 0.858824
0.921569 0.752941 0.85098
0.356863 0.792157 0.85098
0.392157 0.796078 0.854902
0.45098 0.796078 0.85098
0.537255 0.796078 0.85098
0.647059 0.8 0.858824
0.745098 0.807843 0.858824
0.831373 0.823529 0.866667
0.886275 0.819608 0.858824
0.929412 0.815686 0.847059
0.478431 0.901961 0.843137
0.501961 0.901961 0.85098
0.541176 0.898039 0.85098
0.611765 0.901961 0.85098
0.686275 0.890196 0.843137
0.764706 0.882353 0.85098
0.823529 0.87451 0.847059
0.894118 0.898039 0.866667
0.945098 0.909804 0.87451
0.615686 0.968627 0.858824
0.631373 0.968627 0.854902
0.658824 0.964706 0.862745
0.705882 0.964706 0.858824
0.752941 0.960784 0.858824
0.807843 0.956863 0.866667
0.854902 0.952941 0.870588
0.901961 0.960784 0.878431
0.956863 0.968627 0.894118
0.258824 0 0.929412
0.301961 0 0.933333
0.372549 0 0.933333
0.47451 0 0.929412
0.592157 0 0.929412
0.709804 0 0.921569
0.807843 0 0.913725
0.886275 0 0.917647
0.913725 0.219608 0.894118
0.243137 0 0.92549
0.286275 0 0.929412
0.364706 0 0.933333
0.470588 0 0.929412
0.592157 0 0.929412
0.709804 0 0.921569
0.811765 0.00392157 0.917647
0.886275 0 0.917647
0.917647 0.290196 0.901961
0.231373 0 0.933333
0.27451 0 0.933333
0.364706 0 0.933333
0.470588 0 0.929412
0.592157 0 0.929412
0.709804 0 0.921569
0.811765 0.00392157 0.917647
0.886275 0.211765 0.917647
0.913725 0.4 0.898039
0.231373 0.239216 0.929412
0.282353 0.243137 0.929412
0.368627 0.239216 0.92549
0.47451 0.239216 0.921569
0.596078 0.243137 0.921569
0.709804 0.266667 0.917647
0.811765 0.309804 0.917647
0.882353 0.407843 0.921569
0.909804 0.529412 0.898039
0 0.392157 0.933333
0.176471 0.407843 0.929412
0.352941 0.435294 0.933333
0.490196 0.458824 0.933333
0.611765 0.462745 0.92549
0.721569 0.47451 0.921569
0.815686 0.505882 0.917647
0.882353 0.568627 0.917647
0.913725 0.654902 0.901961
0.211765 0.6 0.933333
0.258824 0.603922 0.929412
0.345098 0.603922 0.933333
0.458824 0.607843 0.929412
0.607843 0.631373 0.929412
0.737255 0.654902 0.92549
0.823529 0.670588 0.917647
0.882353 0.709804 0.917647
0.92549 0.768627 0.913725
0.388235 0.768627 0.929412
0.411765 0.772549 0.92549
0.466667 0.772549 0.92549
0.552941 0.772549 0.92549
0.647059 0.780392 0.929412
0.741176 0.780392 0.921569
0.827451 0.8 0.921569
0.894118 0.823529 0.92549
0.929412 0.858824 0.921569
0.52549 0.890196 0.921569
0.541176 0.890196 0.921569
0.580392 0.886275 0.92549
0.639216 0.890196 0.92549
0.705882 0.890196 0.921569
0.776471 0.890196 0.921569
0.843137 0.894118 0.92549
0.905882 0.909804 0.929412
0.941176 0.901961 0.92549
0.623529 0.972549 0.929412
0.635294 0.972549 0.92549
0.662745 0.972549 0.92549
0.698039 0.972549 0.929412
0.74902 0.968627 0.921569
0.803922 0.968627 0.92549
0.858824 0.968627 0.921569
0.898039 0.960784 0.92549
0.960784 0.964706 0.933333
0.411765 0 0.992157
0.435294 0 0.992157
0.494118 0 0.988235
0.572549 0 0.992157
0.658824 0 0.988235
0.756863 0 0.992157
0.839216 0 0.980392
0.909804 0 0.976471
0.945098 0.266667 0.972549
0.411765 0 0.992157
0.435294 0 0.988235
0.490196 0 0.988235
0.572549 0 0.992157
0.658824 0 0.988235
0.756863 0 0.984314
0.839216 0 0.984314
0.909804 0 0.976471
0.94902 0.321569 0.972549
0.411765 0 0.992157
0.435294 0 0.992157
0.490196 0 0.988235
0.564706 0 0.988235
0.666667 0 0.992157
0.760784 0 0.984314
0.835294 0.101961 0.980392
0.905882 0.262745 0.976471
0.945098 0.407843 0.972549
0.407843 0.231373 0.988235
0.431373 0.231373 0.988235
0.490196 0.231373 0.984314
0.572549 0.239216 0.988235
0.666667 0.258824 0.984314
0.756863 0.290196 0.980392
0.839216 0.352941 0.980392
0.901961 0.419608 0.976471
0.945098 0.521569 0.972549
0.396078 0.427451 0.988235
0.435294 0.435294 0.984314
0.494118 0.443137 0.984314
0.572549 0.45098 0.984314
0.666667 0.458824 0.984314
0.760784 0.486275 0.976471
0.835294 0.517647 0.980392
0.898039 0.564706 0.972549
0.941176 0.631373 0.968627
0.317647 0.564706 0.988235
0.34902 0.564706 0.988235
0.415686 0.568627 0.984314
0.545098 0.592157 0.984314
0.67451 0.635294 0.980392
0.760784 0.65098 0.980392
0.835294 0.666667 0.976471
0.894118 0.694118 0.972549
0.941176 0.737255 0.968627
0.443137 0.74902 0.980392
0.466667 0.74902 0.980392
0.509804 0.74902 0.980392
0.576471 0.752941 0.980392
0.662745 0.752941 0.980392
0.752941 0.764706 0.980392
0.839216 0.788235 0.976471
0.898039 0.8 0.972549
0.945098 0.827451 0.968627
0.568627 0.878431 0.980392
0.580392 0.878431 0.980392
0.615686 0.87451 0.980392
0.658824 0.878431 0.980392
0.717647 0.878431 0.976471
0.776471 0.878431 0.972549
0.839216 0.878431 0.976471
0.905882 0.894118 0.972549
0.952941 0.905882 0.968627
0.682353 0.964706 0.976471
0.690196 0.964706 0.980392
0.705882 0.964706 0.980392
0.733333 0.964706 0.980392
0.772549 0.964706 0.980392
0.811765 0.964706 0.976471
0.866667 0.968627 0.980392
0.909804 0.968627 0.976471
0.964706 0.968627 0.976471
