example-Advanced/bin/data/ofxGpuLutCube/LUT/Hollywood-35.cube
# (C) 2014 VisionColor & Patchflyer [www.vision-color.com]
# Generator: VC Patchmatch v.2.1.1 [64/53]
# All work and no play makes Jack a dull boy.
# LUT generated from: Fuji Superior 200_FC
LUT_3D_SIZE 9
0.028260 0.027680 0.027558
0.040497 0.029206 0.028626
0.110536 0.027070 0.025391
0.253956 0.033906 0.024170
0.435782 0.048096 0.024323
0.586725 0.066712 0.027314
0.708766 0.072572 0.029480
0.780118 0.083803 0.035218
0.783291 0.084565 0.035737
0.031220 0.037720 0.030610
0.061524 0.051453 0.031342
0.156497 0.053010 0.025666
0.294057 0.052308 0.023560
0.476188 0.056764 0.025513
0.605463 0.074769 0.028016
0.712764 0.079622 0.030152
0.783108 0.089082 0.035859
0.786923 0.089448 0.036439
0.031098 0.080262 0.039063
0.063935 0.128481 0.038422
0.234882 0.188083 0.052308
0.411856 0.171756 0.047944
0.600717 0.166659 0.041596
0.690944 0.162203 0.040467
0.774624 0.163882 0.043946
0.829648 0.183597 0.057618
0.831540 0.180362 0.057465
0.044282 0.146532 0.060090
0.128420 0.303609 0.084840
0.235203 0.331868 0.068971
0.532052 0.394583 0.106569
0.704448 0.371847 0.093019
0.786404 0.361318 0.089540
0.861204 0.351827 0.085908
0.901610 0.382589 0.110597
0.902068 0.381613 0.113100
0.135134 0.345480 0.138643
0.159396 0.379812 0.148135
0.272053 0.493126 0.140078
0.522316 0.549691 0.151461
0.808362 0.623697 0.203372
0.877043 0.627665 0.182361
0.914336 0.637064 0.176410
0.919402 0.636820 0.237293
0.919280 0.635721 0.242512
0.213931 0.478126 0.230564
0.224887 0.493629 0.236515
0.331884 0.626947 0.271046
0.524300 0.709438 0.174380
0.829877 0.803952 0.265202
0.916533 0.851514 0.330938
0.936095 0.841886 0.369039
0.940612 0.850477 0.507790
0.940795 0.850965 0.518959
0.293095 0.610986 0.324315
0.303380 0.627008 0.332128
0.385412 0.753658 0.366461
0.544808 0.885740 0.206073
0.822919 0.916869 0.297475
0.910338 0.939147 0.535836
0.947082 0.943420 0.695537
0.947814 0.937469 0.756924
0.947814 0.938018 0.759426
0.141665 0.366979 0.173190
0.375586 0.772885 0.416541
0.429480 0.883268 0.427375
0.534676 0.937804 0.345892
0.768231 0.943755 0.563226
0.899351 0.947570 0.712474
0.946777 0.947997 0.786435
0.948302 0.948241 0.789883
0.948302 0.948241 0.789883
0.181064 0.439063 0.231510
0.394476 0.821073 0.432044
0.438239 0.896819 0.433661
0.542031 0.938811 0.392844
0.762432 0.944732 0.595041
0.901610 0.947601 0.718441
0.947326 0.948089 0.787655
0.948302 0.948241 0.789883
0.948302 0.948241 0.789883
0.030121 0.029206 0.036347
0.039490 0.029541 0.037110
0.117617 0.025483 0.038605
0.239612 0.025086 0.043610
0.471946 0.029938 0.026398
0.602930 0.044648 0.027863
0.717037 0.056123 0.029206
0.789639 0.073121 0.036103
0.792325 0.076356 0.036652
0.029084 0.039734 0.040986
0.049104 0.047303 0.044831
0.142641 0.041505 0.036652
0.316640 0.035676 0.029023
0.520974 0.041901 0.029084
0.620600 0.055482 0.028077
0.719173 0.067567 0.029938
0.791379 0.080079 0.036896
0.794003 0.082246 0.037385
0.029236 0.086488 0.062898
0.050965 0.120821 0.063050
0.183337 0.153262 0.067781
0.399313 0.142641 0.053437
0.600565 0.139528 0.041779
0.706783 0.140688 0.040131
0.774380 0.149996 0.042542
0.830716 0.174105 0.057496
0.832975 0.173037 0.057527
0.051026 0.177539 0.095521
0.102419 0.276570 0.109590
0.181506 0.312032 0.089418
0.497337 0.375204 0.120485
0.697002 0.370565 0.100282
0.795651 0.342702 0.090364
0.862699 0.346151 0.086702
0.902678 0.382345 0.113283
0.903136 0.382834 0.115938
0.132845 0.353933 0.171542
0.143008 0.362631 0.165896
0.261936 0.501015 0.172503
0.506233 0.565164 0.164614
0.792645 0.631022 0.221286
0.882017 0.636179 0.189349
0.915373 0.639261 0.179706
0.919524 0.639780 0.245075
0.919463 0.640055 0.251270
0.209964 0.489632 0.268254
0.217960 0.498909 0.267369
0.190265 0.444465 0.220844
0.526040 0.746120 0.202060
0.850492 0.833677 0.288914
0.922057 0.858915 0.341558
0.936675 0.846677 0.378561
0.941131 0.855634 0.520485
0.941405 0.857069 0.534035
0.286961 0.641108 0.375311
0.299657 0.649042 0.367712
0.374365 0.750454 0.387060
0.534005 0.891112 0.215015
0.818280 0.918334 0.294362
0.908904 0.939635 0.539925
0.947143 0.945251 0.700145
0.947845 0.940124 0.763516
0.947875 0.941100 0.766903
0.359747 0.808347 0.468818
0.381323 0.819425 0.448981
0.427039 0.882841 0.441901
0.532601 0.937804 0.343572
0.764874 0.943572 0.559869
0.898589 0.947570 0.710460
0.946807 0.947997 0.786435
0.948302 0.948241 0.789883
0.948241 0.948211 0.789212
0.391485 0.873442 0.489601
0.393683 0.846769 0.457282
0.433082 0.898589 0.449561
0.539193 0.938750 0.388403
0.759228 0.944488 0.589578
0.900572 0.947570 0.716457
0.947265 0.948058 0.787503
0.948302 0.948241 0.789883
0.948272 0.948241 0.789731
0.026947 0.027558 0.076936
0.042573 0.026764 0.085817
0.103334 0.025238 0.084047
0.227314 0.024567 0.085054
0.480812 0.027253 0.078248
0.602899 0.028016 0.068513
0.738003 0.029480 0.064485
0.826322 0.045045 0.077577
0.830198 0.047974 0.076844
0.026673 0.048280 0.087007
0.042725 0.048066 0.106905
0.119875 0.039063 0.112734
0.303639 0.032105 0.084077
0.505257 0.031220 0.074495
0.642390 0.028290 0.072847
0.749599 0.030243 0.063600
0.832029 0.047547 0.081666
0.835416 0.050385 0.081880
0.026307 0.089601 0.111696
0.043061 0.127596 0.122133
0.113741 0.124392 0.108186
0.358663 0.108034 0.087617
0.591989 0.086671 0.066316
0.725246 0.072724 0.056764
0.814084 0.071351 0.053254
0.864012 0.128878 0.099886
0.866667 0.135470 0.104524
0.055177 0.217426 0.183200
0.078340 0.261219 0.180636
0.143404 0.318257 0.164279
0.424125 0.347433 0.163821
0.649577 0.313344 0.127901
0.797147 0.279622 0.100954
0.878752 0.282063 0.112764
0.908568 0.351736 0.166125
0.908751 0.354360 0.170764
0.124849 0.364584 0.233097
0.140688 0.396735 0.259007
0.234089 0.507820 0.255299
0.439384 0.556313 0.168811
0.764508 0.625620 0.249165
0.877165 0.620401 0.221027
0.914855 0.591989 0.224506
0.916106 0.614176 0.320668
0.916136 0.620188 0.332265
0.193484 0.502739 0.331456
0.199649 0.510842 0.331518
0.258244 0.610162 0.380072
0.472557 0.763180 0.273854
0.797528 0.833036 0.296681
0.925872 0.877440 0.390723
0.939696 0.860059 0.444389
0.942443 0.867475 0.561715
0.942870 0.871000 0.575082
0.276280 0.675990 0.434119
0.286839 0.682338 0.428809
0.341680 0.771267 0.450050
0.507622 0.921660 0.268666
0.801312 0.933684 0.344472
0.907835 0.943175 0.569223
0.947051 0.947143 0.705028
0.947753 0.944549 0.733364
0.947753 0.945434 0.733700
0.364019 0.873411 0.532891
0.376715 0.870451 0.510246
0.409033 0.900023 0.496620
0.529259 0.938903 0.387427
0.776837 0.943664 0.555093
0.911742 0.947143 0.689570
0.947143 0.947814 0.744778
0.947875 0.947875 0.745266
0.947845 0.947845 0.741329
0.380529 0.900298 0.544182
0.388220 0.890257 0.517876
0.415473 0.910704 0.501060
0.535592 0.939300 0.418189
0.778912 0.943999 0.564370
0.914214 0.947204 0.693263
0.947417 0.947845 0.746517
0.947875 0.947875 0.746761
0.947845 0.947845 0.742763
0.027497 0.028901 0.112459
0.043977 0.027131 0.162768
0.097292 0.025391 0.162234
0.218677 0.024262 0.148623
0.422019 0.026307 0.156191
0.602869 0.028992 0.163333
0.749203 0.032380 0.174228
0.819272 0.053529 0.196902
0.822721 0.055177 0.197513
0.023896 0.057649 0.151125
0.032837 0.046204 0.176303
0.085695 0.036072 0.203738
0.284138 0.030365 0.190707
0.495171 0.031678 0.181949
0.639765 0.029541 0.164294
0.760433 0.033234 0.176913
0.824765 0.055451 0.199222
0.827817 0.057710 0.200900
0.027039 0.107393 0.194980
0.029450 0.105989 0.194827
0.069429 0.102205 0.214206
0.289967 0.092103 0.219455
0.545266 0.069795 0.188144
0.715633 0.061280 0.178073
0.826474 0.063386 0.167758
0.870451 0.130404 0.226017
0.871244 0.137911 0.231632
0.063935 0.248997 0.261997
0.063020 0.242435 0.249607
0.106935 0.290791 0.283619
0.288167 0.285084 0.248615
0.559091 0.248203 0.217044
0.758801 0.203021 0.184131
0.885313 0.206806 0.190433
0.901579 0.330022 0.285420
0.901335 0.337453 0.294392
0.116854 0.371298 0.297108
0.124361 0.387594 0.309194
0.185061 0.502541 0.366995
0.335378 0.545357 0.295293
0.687205 0.589883 0.317342
0.845029 0.550500 0.253773
0.910735 0.501869 0.274861
0.911131 0.580606 0.408652
0.910582 0.586191 0.421469
0.183413 0.517418 0.392584
0.189883 0.527703 0.394202
0.233341 0.637018 0.451728
0.414313 0.783505 0.367864
0.737133 0.834165 0.323049
0.924895 0.881727 0.455360
0.942565 0.862318 0.554574
0.945006 0.881209 0.640146
0.945373 0.884199 0.651438
0.258946 0.712703 0.499794
0.266697 0.721798 0.499123
0.311925 0.816556 0.539117
0.472511 0.935515 0.426337
0.737377 0.940276 0.459022
0.907835 0.946319 0.665537
0.947753 0.947601 0.738064
0.947875 0.946746 0.750729
0.947936 0.947204 0.757259
0.337896 0.893187 0.598840
0.352209 0.898344 0.584253
0.368261 0.912291 0.578820
0.491737 0.941314 0.500648
0.754772 0.944823 0.602579
0.922881 0.947601 0.714412
0.947723 0.947875 0.747494
0.947906 0.947906 0.752377
0.947967 0.947936 0.759426
0.347326 0.912077 0.615473
0.358953 0.911070 0.594995
0.372534 0.920195 0.585229
0.496162 0.941375 0.506386
0.759899 0.945006 0.604044
0.925261 0.947601 0.715755
0.947875 0.947875 0.747066
0.947906 0.947906 0.751034
0.947936 0.947936 0.758114
0.027100 0.029053 0.184604
0.028809 0.027741 0.199313
0.061860 0.026276 0.232074
0.197482 0.023987 0.243961
0.410361 0.027527 0.253742
0.609110 0.032471 0.280003
0.729427 0.033936 0.290990
0.786130 0.057069 0.302068
0.786923 0.059510 0.305425
0.025086 0.041474 0.206088
0.027375 0.036957 0.234470
0.048676 0.031952 0.319966
0.213184 0.032166 0.343191
0.488502 0.034577 0.330541
0.627482 0.032471 0.291936
0.737209 0.036042 0.290806
0.791836 0.061372 0.300816
0.793362 0.064363 0.303929
0.024567 0.091035 0.241672
0.024537 0.088533 0.258701
0.041382 0.073518 0.335164
0.187106 0.074189 0.373892
0.478035 0.064973 0.342138
0.677562 0.056672 0.323293
0.795071 0.065583 0.293538
0.832975 0.146548 0.331487
0.833402 0.152834 0.336736
0.052399 0.211612 0.290867
0.057160 0.223362 0.306416
0.074952 0.244648 0.380392
0.162997 0.221195 0.384848
0.438865 0.211215 0.377279
0.672587 0.169345 0.343099
0.846769 0.180179 0.320241
0.858030 0.326665 0.412039
0.856352 0.336278 0.421195
0.110262 0.372915 0.366690
0.114168 0.383749 0.381704
0.150027 0.482353 0.491234
0.231144 0.492821 0.485527
0.504372 0.486900 0.461265
0.740948 0.436301 0.406912
0.891478 0.436957 0.395636
0.892424 0.562264 0.514199
0.892760 0.571878 0.527077
0.173495 0.537163 0.457313
0.176669 0.545800 0.461616
0.204898 0.658686 0.558114
0.290318 0.783612 0.561273
0.580041 0.788312 0.442679
0.879805 0.824994 0.524361
0.936400 0.811215 0.541970
0.941985 0.849653 0.673075
0.943877 0.862959 0.689158
0.240024 0.752377 0.583734
0.244205 0.773526 0.599695
0.271580 0.870604 0.673533
0.366979 0.938598 0.663005
0.640497 0.942748 0.594629
0.896651 0.945739 0.700694
0.947356 0.946960 0.776593
0.948882 0.941192 0.818479
0.949096 0.940673 0.827054
0.296635 0.900847 0.677958
0.291814 0.906981 0.696788
0.294072 0.923033 0.718303
0.405829 0.940002 0.730541
0.701060 0.947051 0.724346
0.928084 0.948333 0.800107
0.947997 0.949462 0.833677
0.951110 0.951019 0.848539
0.951782 0.951659 0.857755
0.301976 0.911742 0.687358
0.292546 0.911315 0.702892
0.293706 0.925109 0.722301
0.410742 0.940307 0.731579
0.720256 0.947417 0.727764
0.930358 0.948425 0.804318
0.948180 0.949523 0.834043
0.951080 0.951019 0.848356
0.951751 0.951659 0.857145
0.027314 0.029603 0.246799
0.028138 0.027863 0.263005
0.047456 0.027710 0.338567
0.152667 0.027955 0.364950
0.365560 0.025635 0.330602
0.561334 0.029114 0.359869
0.684627 0.030243 0.376043
0.742794 0.061982 0.383917
0.743221 0.063508 0.387030
0.025147 0.041444 0.266758
0.025910 0.037964 0.282597
0.038209 0.029114 0.403204
0.171328 0.030091 0.462852
0.401968 0.026093 0.360327
0.570855 0.028840 0.368292
0.693019 0.032288 0.376654
0.751247 0.068788 0.382300
0.751858 0.071473 0.386267
0.024109 0.081971 0.312413
0.024414 0.083711 0.326360
0.030976 0.056489 0.477943
0.099474 0.053681 0.559030
0.356817 0.056458 0.471473
0.608301 0.050324 0.437018
0.740627 0.073732 0.400488
0.782620 0.155703 0.420142
0.779141 0.163088 0.427710
0.052277 0.208286 0.351720
0.055207 0.216190 0.374029
0.064881 0.235187 0.492866
0.080613 0.179980 0.546975
0.289265 0.161852 0.504265
0.562234 0.149340 0.483925
0.760678 0.189364 0.462470
0.772488 0.298177 0.510979
0.768948 0.305379 0.520439
0.110201 0.369314 0.445960
0.113252 0.378744 0.457252
0.120760 0.445060 0.581247
0.129107 0.435111 0.634668
0.260685 0.358099 0.587427
0.560784 0.353613 0.583551
0.790372 0.404242 0.570443
0.831922 0.529366 0.657130
0.832868 0.541146 0.671138
0.168887 0.562203 0.557961
0.172457 0.574685 0.569863
0.191135 0.679347 0.705867
0.182925 0.740398 0.765789
0.351232 0.711467 0.717876
0.702525 0.708537 0.704936
0.882475 0.646860 0.614054
0.917845 0.761578 0.731792
0.920531 0.775448 0.742702
0.224552 0.800214 0.705547
0.228336 0.837415 0.742229
0.221286 0.893187 0.817014
0.255863 0.913970 0.851255
0.459434 0.939116 0.850538
0.725551 0.921508 0.715373
0.931273 0.924895 0.775082
0.948547 0.905821 0.821134
0.948974 0.907897 0.829465
0.238804 0.902129 0.796139
0.226200 0.897978 0.816190
0.203464 0.898528 0.836912
0.277668 0.915251 0.870024
0.576165 0.942107 0.886076
0.833036 0.949432 0.866697
0.926146 0.951782 0.871489
0.954894 0.954864 0.893706
0.955322 0.954650 0.894469
0.238285 0.903319 0.799222
0.224582 0.897520 0.817472
0.200809 0.897307 0.838163
0.280690 0.915160 0.871366
0.595300 0.942687 0.889006
0.842496 0.950164 0.871031
0.929015 0.952575 0.876493
0.954742 0.955200 0.896391
0.955322 0.955261 0.895964
0.026917 0.031373 0.312749
0.027466 0.029084 0.332738
0.035523 0.029145 0.458930
0.114824 0.030976 0.534249
0.307057 0.025696 0.434577
0.496071 0.025940 0.433204
0.663020 0.034424 0.456703
0.704067 0.064088 0.465522
0.703853 0.064851 0.468055
0.026184 0.036072 0.337316
0.026398 0.036744 0.355840
0.032258 0.029389 0.486000
0.100633 0.030335 0.580682
0.308339 0.025757 0.456977
0.508812 0.026154 0.442695
0.662898 0.036988 0.455329
0.713283 0.071229 0.455573
0.713741 0.073396 0.457923
0.024445 0.071229 0.407904
0.024781 0.077180 0.423896
0.027985 0.056397 0.554330
0.062013 0.039155 0.665980
0.268879 0.042206 0.567864
0.546700 0.046571 0.553033
0.692866 0.085451 0.511345
0.711421 0.153780 0.506920
0.707271 0.158694 0.514183
0.054597 0.211185 0.434943
0.058106 0.220890 0.446693
0.063569 0.234394 0.579797
0.046235 0.175265 0.730556
0.158801 0.116213 0.661158
0.423850 0.117586 0.663355
0.653254 0.201297 0.635584
0.662623 0.259632 0.649409
0.657679 0.265400 0.662959
0.106813 0.374990 0.515465
0.109010 0.387808 0.526986
0.104280 0.452659 0.657298
0.058717 0.423819 0.788968
0.074754 0.276448 0.778531
0.373587 0.323522 0.760586
0.708614 0.436194 0.778286
0.772595 0.546700 0.811307
0.778607 0.561654 0.822232
0.149722 0.583780 0.678874
0.154757 0.613596 0.708415
0.135439 0.704173 0.839109
0.095186 0.680735 0.876127
0.169512 0.624826 0.848219
0.429313 0.581949 0.812985
0.770642 0.611765 0.819394
0.902281 0.787854 0.857694
0.905730 0.797314 0.864988
0.188663 0.810208 0.827573
0.166354 0.846220 0.856352
0.127749 0.858183 0.873625
0.120150 0.860533 0.881773
0.232471 0.895598 0.903380
0.492790 0.894530 0.889189
0.856901 0.878355 0.869566
0.946685 0.889433 0.870634
0.949004 0.896208 0.879179
0.149630 0.863890 0.866361
0.138735 0.858549 0.873838
0.112520 0.849821 0.877104
0.176074 0.884337 0.892088
0.502327 0.939574 0.917296
0.724086 0.946014 0.903807
0.882109 0.949035 0.903227
0.953918 0.954040 0.906157
0.954986 0.954223 0.908751
0.144533 0.861387 0.869810
0.136873 0.857816 0.875120
0.110872 0.848112 0.876982
0.181262 0.886046 0.893645
0.517281 0.940154 0.918700
0.740414 0.946593 0.905760
0.887877 0.950439 0.905760
0.953826 0.954833 0.907835
0.955108 0.955108 0.909331
0.028168 0.032044 0.393347
0.029023 0.029236 0.423713
0.032197 0.029511 0.537774
0.099886 0.029633 0.611994
0.278889 0.025696 0.496010
0.479057 0.025757 0.470680
0.673152 0.039155 0.485664
0.693751 0.055573 0.465675
0.706233 0.065034 0.463233
0.028046 0.033570 0.412573
0.028107 0.034852 0.441413
0.030304 0.029664 0.559014
0.083162 0.029023 0.645289
0.265797 0.025757 0.522789
0.488090 0.025971 0.488685
0.657862 0.038483 0.492195
0.699214 0.070405 0.485359
0.700099 0.071901 0.485664
0.024475 0.064302 0.501030
0.025116 0.076356 0.516533
0.026886 0.056397 0.633417
0.044160 0.033326 0.720180
0.215900 0.035645 0.631312
0.494713 0.040375 0.604608
0.677424 0.090822 0.577691
0.682979 0.149020 0.560021
0.680751 0.152834 0.563348
0.061097 0.224720 0.521447
0.063447 0.232685 0.531273
0.064546 0.242878 0.663874
0.033478 0.151919 0.812833
0.111788 0.093309 0.768032
0.328481 0.128679 0.722927
0.605768 0.212726 0.727413
0.639918 0.267140 0.724453
0.641077 0.274342 0.728389
0.104219 0.401511 0.588830
0.106050 0.417990 0.602457
0.084810 0.464134 0.731975
0.038544 0.410758 0.834531
0.138369 0.375250 0.798550
0.513664 0.491630 0.809781
0.729091 0.524941 0.819730
0.782849 0.576577 0.837858
0.788525 0.587686 0.840665
0.137942 0.622843 0.752361
0.137636 0.666667 0.799512
0.109804 0.702708 0.874357
0.115053 0.683879 0.875669
0.335714 0.730602 0.877165
0.662455 0.766674 0.886900
0.813474 0.743877 0.881834
0.904601 0.808591 0.900633
0.908232 0.815549 0.902373
0.140719 0.808774 0.880400
0.133181 0.832120 0.882658
0.112093 0.833280 0.885863
0.141085 0.823789 0.891539
0.324483 0.842435 0.898711
0.566629 0.857084 0.910552
0.825299 0.867735 0.914397
0.929717 0.876524 0.920012
0.934783 0.885924 0.923644
0.128298 0.853117 0.881559
0.127687 0.853178 0.881773
0.105715 0.844144 0.879820
0.170825 0.883513 0.896635
0.460685 0.936400 0.930327
0.617853 0.942748 0.934844
0.821302 0.945464 0.937438
0.956176 0.956634 0.948211
0.958618 0.957824 0.949096
0.127871 0.853513 0.881682
0.127535 0.853452 0.881773
0.105043 0.842924 0.879362
0.176074 0.886076 0.897917
0.479240 0.938231 0.930694
0.637110 0.943450 0.934539
0.832715 0.946899 0.937957
0.956847 0.958526 0.948882
0.958618 0.958648 0.949126
0.028290 0.032105 0.407538
0.029023 0.029236 0.426520
0.032532 0.029511 0.541466
0.103090 0.029511 0.610681
0.283284 0.025696 0.495247
0.480247 0.025757 0.471199
0.674128 0.039796 0.485725
0.688777 0.056367 0.481086
0.698604 0.064454 0.480964
0.028138 0.033326 0.416907
0.028199 0.034638 0.445777
0.030304 0.029633 0.565087
0.084932 0.028901 0.647272
0.268971 0.025727 0.523308
0.491264 0.026032 0.491493
0.659266 0.039185 0.493721
0.699428 0.071412 0.486397
0.700282 0.072908 0.486488
0.024384 0.062989 0.505791
0.025086 0.076753 0.523033
0.026886 0.056428 0.638392
0.044556 0.033722 0.723964
0.216876 0.035798 0.634333
0.496300 0.040894 0.608545
0.677241 0.093629 0.582361
0.680507 0.150729 0.563897
0.678431 0.154208 0.567468
0.061830 0.227100 0.526696
0.064302 0.235615 0.536217
0.065064 0.245716 0.671550
0.033204 0.153872 0.817319
0.110719 0.093828 0.774350
0.327123 0.133104 0.727321
0.607965 0.223560 0.730587
0.640131 0.272145 0.729366
0.640925 0.278340 0.733059
0.104524 0.407401 0.594827
0.106233 0.423056 0.608072
0.082795 0.468650 0.740673
0.038239 0.414847 0.835081
0.157107 0.400824 0.800778
0.544030 0.517220 0.818418
0.735561 0.534798 0.823148
0.786542 0.583993 0.839780
0.792035 0.594583 0.842405
0.138155 0.632151 0.763287
0.136721 0.673991 0.808881
0.109346 0.707927 0.879698
0.119966 0.689097 0.877104
0.348287 0.743755 0.879484
0.672068 0.774121 0.888823
0.821439 0.755703 0.884825
0.906035 0.813291 0.902068
0.908354 0.815976 0.902983
0.136507 0.809293 0.883116
0.131197 0.832456 0.883116
0.111635 0.833219 0.886015
0.146029 0.825956 0.891814
0.335561 0.846036 0.899504
0.580789 0.863493 0.912383
0.834104 0.874632 0.917815
0.930999 0.882139 0.923033
0.935393 0.887968 0.925505
0.127840 0.852293 0.881865
0.127535 0.852964 0.881834
0.105074 0.842710 0.879576
0.174151 0.884031 0.897459
0.468406 0.935363 0.930358
0.625757 0.940703 0.934813
0.829023 0.944274 0.938018
0.956115 0.957244 0.949981
0.958679 0.958221 0.950408
0.127687 0.853422 0.881804
0.127382 0.853422 0.881834
0.104982 0.842649 0.879454
0.177935 0.887236 0.898772
0.481559 0.938567 0.931304
0.633692 0.943297 0.935424
0.831708 0.946777 0.938750
0.956420 0.958556 0.950286
0.958953 0.958984 0.950683
