example-Advanced/bin/data/ofxGpuLutCube/LUT/Hollywood-84.cube
TITLE "mon_hornsey"
# LUT size
# data domain
# LUT data points
# 
# Copyright: (C) Copyright 2015 James Miller
# Created by: James Miller, www.DeLuts.co.uk
LUT_3D_SIZE 16
0.115112 0.096344 0.065186
0.123358 0.096551 0.065228
0.132904 0.097231 0.065410
0.152814 0.098724 0.066040
0.184621 0.101030 0.067033
0.236877 0.105184 0.068481
0.322070 0.113080 0.071649
0.454665 0.126383 0.077608
0.594851 0.138579 0.085886
0.700958 0.145794 0.093353
0.766510 0.149862 0.098918
0.812353 0.152608 0.102944
0.845880 0.155462 0.105859
0.863782 0.157227 0.107377
0.867566 0.157349 0.107483
0.870239 0.157349 0.107483
0.116358 0.104850 0.065846
0.123423 0.104877 0.065859
0.133155 0.104944 0.065979
0.153642 0.105487 0.066551
0.185730 0.107149 0.067350
0.239650 0.111090 0.068744
0.329366 0.119254 0.072003
0.468404 0.133136 0.078292
0.612309 0.145215 0.087111
0.715017 0.152018 0.094584
0.779209 0.155961 0.100099
0.823309 0.158744 0.104006
0.854584 0.161782 0.106744
0.864734 0.162636 0.107475
0.867566 0.162626 0.107483
0.870266 0.162653 0.107509
0.118284 0.115714 0.067399
0.123763 0.115796 0.067399
0.133224 0.115910 0.067470
0.154197 0.116538 0.067991
0.186985 0.118221 0.068705
0.241935 0.122133 0.069863
0.332506 0.130092 0.072927
0.468693 0.143107 0.078900
0.606994 0.154165 0.087095
0.707855 0.160407 0.094202
0.771692 0.163804 0.099538
0.816260 0.166077 0.103410
0.848940 0.168207 0.106191
0.864642 0.168895 0.107475
0.867900 0.168619 0.107524
0.870467 0.168375 0.107516
0.120343 0.138726 0.068640
0.125669 0.139016 0.068683
0.133789 0.139032 0.068717
0.155017 0.139582 0.069135
0.188611 0.141170 0.069780
0.245789 0.144875 0.070669
0.340924 0.152387 0.073901
0.481372 0.164793 0.079997
0.620174 0.175161 0.088271
0.717499 0.180884 0.095330
0.779974 0.184178 0.100620
0.823220 0.186177 0.104370
0.854535 0.187561 0.107153
0.871429 0.187760 0.108506
0.874420 0.186540 0.108454
0.876319 0.185217 0.108325
0.124766 0.172620 0.071881
0.130282 0.173564 0.072040
0.136676 0.173543 0.072040
0.157458 0.174001 0.072174
0.191799 0.175753 0.072903
0.252561 0.179403 0.073515
0.356402 0.185952 0.076764
0.504081 0.195579 0.083171
0.642594 0.203412 0.091526
0.734749 0.207540 0.098613
0.795569 0.210075 0.104028
0.837011 0.211658 0.107800
0.865886 0.212797 0.110500
0.882761 0.213084 0.112049
0.885834 0.211875 0.111902
0.887722 0.210441 0.111643
0.139771 0.231242 0.081187
0.146204 0.234812 0.081728
0.151507 0.235000 0.081759
0.166618 0.235854 0.081838
0.200480 0.239419 0.082143
0.263753 0.244985 0.083283
0.382707 0.251127 0.084712
0.543905 0.256903 0.090336
0.680601 0.258595 0.098053
0.765385 0.257625 0.104883
0.823578 0.257619 0.110178
0.861346 0.257399 0.113745
0.885315 0.257019 0.116015
0.900535 0.256171 0.117316
0.903308 0.253642 0.117167
0.904775 0.250946 0.116892
0.172174 0.345117 0.097619
0.180058 0.354138 0.098938
0.185592 0.355149 0.099084
0.193616 0.355359 0.099078
0.224205 0.363357 0.099921
0.288104 0.376622 0.101229
0.422027 0.392096 0.103473
0.603261 0.396584 0.106702
0.742548 0.389587 0.112161
0.822504 0.379980 0.117108
0.873873 0.374298 0.120982
0.903713 0.370691 0.123489
0.924573 0.368066 0.125348
0.938615 0.365719 0.126388
0.941986 0.360688 0.126184
0.942652 0.354926 0.125702
0.214546 0.490381 0.120325
0.224671 0.505591 0.123301
0.230446 0.507326 0.123674
0.235862 0.507033 0.123616
0.259135 0.514596 0.124894
0.314618 0.532237 0.128144
0.467863 0.559875 0.131398
0.652038 0.575555 0.134843
0.793645 0.574023 0.139940
0.877110 0.565238 0.143897
0.928947 0.557863 0.146543
0.952834 0.552169 0.149656
0.967863 0.548277 0.153487
0.977167 0.545703 0.157833
0.981937 0.541042 0.157987
0.983952 0.534043 0.156156
0.253845 0.622188 0.147967
0.264870 0.641544 0.152564
0.270809 0.643514 0.153072
0.275847 0.643278 0.153029
0.290672 0.646309 0.153703
0.349030 0.662378 0.157357
0.502161 0.689775 0.161106
0.687915 0.710341 0.161599
0.816298 0.712500 0.165052
0.900506 0.711246 0.169850
0.953136 0.708036 0.173759
0.966974 0.702608 0.182143
0.974559 0.698401 0.189685
0.982072 0.695839 0.194421
0.987160 0.693054 0.195864
0.989810 0.688826 0.194944
0.288477 0.720093 0.173706
0.301639 0.736418 0.178819
0.307859 0.738129 0.179417
0.313025 0.738190 0.179443
0.321098 0.738582 0.179541
0.380522 0.749862 0.182259
0.525946 0.773187 0.185712
0.710565 0.798258 0.187567
0.831924 0.802404 0.187949
0.909118 0.803198 0.192443
0.956708 0.803448 0.196692
0.967088 0.798525 0.205009
0.974677 0.793829 0.212475
0.982306 0.790910 0.217413
0.988171 0.788814 0.219592
0.990882 0.786395 0.218890
0.322540 0.785451 0.194458
0.337325 0.800139 0.199668
0.343734 0.801741 0.200230
0.348991 0.801916 0.200277
0.353693 0.801581 0.200171
0.403259 0.809438 0.201976
0.541614 0.830465 0.205636
0.720026 0.853888 0.208197
0.843872 0.863448 0.209829
0.914600 0.860696 0.211320
0.956634 0.861868 0.215261
0.967191 0.857237 0.223334
0.974797 0.852122 0.230892
0.982436 0.848926 0.235927
0.988832 0.846851 0.238587
0.991954 0.845357 0.238413
0.355577 0.833211 0.210636
0.372321 0.845769 0.215487
0.378933 0.847292 0.216121
0.384324 0.847540 0.216203
0.389111 0.847357 0.216138
0.418469 0.851123 0.217013
0.550242 0.870394 0.220809
0.724054 0.892482 0.223511
0.848018 0.903782 0.226168
0.919418 0.902142 0.226884
0.956303 0.901046 0.229152
0.967287 0.896645 0.237268
0.974906 0.891134 0.244951
0.982544 0.887419 0.250102
0.989557 0.885148 0.253290
0.993026 0.883925 0.253436
0.387109 0.869006 0.224182
0.404225 0.879167 0.228916
0.411068 0.880392 0.229529
0.416504 0.880634 0.229596
0.421450 0.880577 0.229580
0.433286 0.881468 0.229734
0.555121 0.898627 0.233038
0.726153 0.920143 0.235738
0.848672 0.931394 0.238627
0.922803 0.932696 0.239990
0.956061 0.929338 0.240578
0.967348 0.924931 0.248442
0.974988 0.919257 0.256274
0.982666 0.915267 0.261389
0.990153 0.912646 0.264919
0.994067 0.911493 0.265417
0.417751 0.895162 0.235347
0.437321 0.903743 0.239618
0.444444 0.904834 0.240167
0.449982 0.905086 0.240283
0.454883 0.905041 0.240269
0.459351 0.904852 0.240169
0.556944 0.918359 0.242524
0.726414 0.939901 0.245176
0.848344 0.951072 0.248022
0.923704 0.954031 0.249821
0.955823 0.950126 0.249857
0.967385 0.944952 0.257082
0.975083 0.939201 0.265016
0.982735 0.935166 0.270187
0.990391 0.932405 0.273757
0.995162 0.931000 0.274750
0.450105 0.916549 0.244690
0.472339 0.924426 0.249233
0.479966 0.925525 0.249894
0.485650 0.925781 0.250049
0.490607 0.925783 0.250036
0.495022 0.925637 0.249951
0.558164 0.934017 0.251210
0.725769 0.955680 0.253878
0.847687 0.966799 0.256612
0.923690 0.970565 0.258740
0.955629 0.967018 0.258596
0.967403 0.961110 0.265309
0.975148 0.955269 0.273289
0.982835 0.951127 0.278564
0.990509 0.948236 0.282196
0.996269 0.946497 0.283675
0.487701 0.935913 0.254608
0.503260 0.939911 0.257263
0.508494 0.939911 0.257263
0.513635 0.939911 0.257263
0.518602 0.939911 0.257263
0.523336 0.939911 0.257263
0.551819 0.943402 0.257801
0.712592 0.964681 0.260486
0.839579 0.976927 0.263131
0.919366 0.981726 0.265576
0.954691 0.979217 0.265696
0.967186 0.973403 0.271859
0.975031 0.967487 0.280090
0.982744 0.963474 0.285714
0.990452 0.960862 0.289609
0.997314 0.959351 0.292175
0.115108 0.096452 0.073631
0.123268 0.096656 0.073970
0.132798 0.097353 0.073995
0.152765 0.098828 0.074499
0.184916 0.101101 0.075238
0.238027 0.105343 0.076440
0.325494 0.113489 0.079305
0.459503 0.126933 0.085130
0.598629 0.138908 0.093343
0.702860 0.145962 0.100639
0.767869 0.149967 0.106079
0.813171 0.152698 0.110093
0.846509 0.155593 0.113153
0.864100 0.157316 0.114722
0.867847 0.157438 0.114705
0.870494 0.157442 0.114610
0.116225 0.104891 0.074218
0.123386 0.104887 0.074210
0.133118 0.104923 0.074282
0.153695 0.105493 0.074725
0.186133 0.107186 0.075419
0.240725 0.111224 0.076646
0.332349 0.119607 0.079724
0.473797 0.133751 0.086033
0.616040 0.145544 0.094738
0.716539 0.152155 0.102145
0.780302 0.156012 0.107926
0.824100 0.158835 0.112256
0.855165 0.161869 0.115564
0.865015 0.162673 0.116441
0.867786 0.162673 0.116541
0.870398 0.162620 0.117505
0.118236 0.115745 0.074327
0.123718 0.115867 0.074389
0.133232 0.115950 0.074465
0.154254 0.116598 0.074965
0.187258 0.118280 0.075612
0.242503 0.122229 0.076802
0.333852 0.130273 0.079847
0.470738 0.143367 0.085834
0.608803 0.154358 0.094041
0.709288 0.160545 0.101162
0.772677 0.163926 0.106417
0.817004 0.166192 0.110258
0.849459 0.168350 0.113141
0.864909 0.169006 0.114404
0.868133 0.168724 0.114386
0.870709 0.168500 0.114388
0.120290 0.138698 0.074784
0.125602 0.139014 0.074891
0.133758 0.139057 0.074929
0.154991 0.139594 0.075407
0.188650 0.141213 0.076037
0.245986 0.144914 0.076920
0.341606 0.152476 0.080176
0.482428 0.164949 0.086299
0.621141 0.175279 0.094625
0.718349 0.180994 0.101707
0.780571 0.184277 0.107039
0.823688 0.186249 0.110931
0.854936 0.187616 0.113765
0.871543 0.187819 0.115102
0.874493 0.186609 0.114903
0.876437 0.185272 0.114608
0.124760 0.172707 0.077543
0.130265 0.173674 0.077738
0.136680 0.173612 0.077742
0.157479 0.174056 0.077911
0.191907 0.175856 0.078623
0.252914 0.179535 0.079236
0.357312 0.186109 0.082487
0.505216 0.195791 0.088898
0.643709 0.203611 0.097258
0.735571 0.207707 0.104358
0.796270 0.210232 0.109727
0.837535 0.211809 0.113472
0.866252 0.212974 0.116164
0.882890 0.213244 0.117672
0.885921 0.212012 0.117537
0.887809 0.210598 0.117242
0.139803 0.231389 0.086495
0.146277 0.235071 0.087089
0.151621 0.235374 0.087150
0.166779 0.236259 0.087244
0.200773 0.239891 0.087528
0.264296 0.245569 0.088708
0.384080 0.251799 0.090139
0.545693 0.257540 0.095772
0.682198 0.259192 0.103501
0.766543 0.258242 0.110331
0.824485 0.258205 0.115631
0.862010 0.257963 0.119163
0.885872 0.257615 0.121427
0.900925 0.256777 0.122709
0.903542 0.254126 0.122550
0.905037 0.251542 0.122274
0.172449 0.346146 0.103048
0.180275 0.354895 0.104354
0.185852 0.356089 0.104521
0.193925 0.356315 0.104521
0.224685 0.364441 0.105369
0.288937 0.377864 0.106700
0.423865 0.393703 0.108993
0.605668 0.398026 0.112242
0.744478 0.390973 0.117715
0.824026 0.381419 0.122626
0.875114 0.375824 0.126516
0.904639 0.372284 0.128961
0.925441 0.369735 0.130823
0.939382 0.367477 0.131844
0.942588 0.362441 0.131640
0.943297 0.356724 0.131138
0.215680 0.493854 0.126264
0.225036 0.506787 0.128855
0.230874 0.508626 0.129236
0.236281 0.508382 0.129157
0.259766 0.516075 0.130497
0.315690 0.533970 0.133818
0.470325 0.561843 0.137095
0.654678 0.577433 0.140519
0.795557 0.575910 0.145648
0.878652 0.567336 0.149628
0.930161 0.560144 0.152337
0.953638 0.554531 0.155536
0.968473 0.550838 0.159452
0.977630 0.548476 0.163892
0.982192 0.543844 0.164054
0.984257 0.537340 0.162307
0.255776 0.628672 0.154785
0.265277 0.642682 0.158156
0.271279 0.644891 0.158720
0.276378 0.644739 0.158693
0.291384 0.647780 0.159379
0.350741 0.664040 0.163094
0.504913 0.691579 0.166811
0.690731 0.711954 0.167279
0.818386 0.714126 0.170817
0.902122 0.712915 0.175621
0.953992 0.709959 0.179614
0.967102 0.704600 0.188153
0.974677 0.700500 0.195648
0.982196 0.698018 0.200325
0.987188 0.695320 0.201685
0.989838 0.691766 0.200903
0.290916 0.725562 0.180707
0.302224 0.737498 0.184495
0.308520 0.739316 0.185093
0.313690 0.739386 0.185132
0.321879 0.739766 0.185229
0.382518 0.751355 0.188029
0.528913 0.774813 0.191480
0.713724 0.799835 0.193355
0.834125 0.803766 0.193772
0.910795 0.804661 0.198315
0.957058 0.804901 0.202626
0.967232 0.799971 0.211060
0.974835 0.795394 0.218476
0.982481 0.792533 0.223354
0.988222 0.790578 0.225484
0.990914 0.788440 0.224846
0.326194 0.791740 0.201976
0.338055 0.801109 0.205296
0.344513 0.802828 0.205902
0.349823 0.803050 0.205988
0.354521 0.802724 0.205870
0.405469 0.810860 0.207725
0.544877 0.831964 0.211412
0.723680 0.855414 0.213985
0.846348 0.864726 0.215672
0.916382 0.861869 0.217163
0.956933 0.863071 0.221137
0.967358 0.858360 0.229368
0.974957 0.853355 0.236883
0.982607 0.850222 0.241895
0.988965 0.848218 0.244501
0.991990 0.846793 0.244242
0.359912 0.838096 0.217786
0.373189 0.846761 0.221189
0.379885 0.848301 0.221816
0.385244 0.848531 0.221936
0.390092 0.848399 0.221853
0.420581 0.852374 0.222801
0.553817 0.871771 0.226603
0.727869 0.893795 0.229281
0.850752 0.904966 0.231984
0.921246 0.903080 0.232670
0.956704 0.902043 0.235041
0.967442 0.897494 0.243341
0.975077 0.892070 0.250938
0.982756 0.888450 0.256043
0.989705 0.886220 0.259188
0.993052 0.885008 0.259239
0.391359 0.873071 0.231392
0.405331 0.880007 0.234623
0.412138 0.881240 0.235217
0.417621 0.881492 0.235341
0.422451 0.881425 0.235295
0.434912 0.882426 0.235458
0.559005 0.899917 0.238839
0.730009 0.921299 0.241500
0.851735 0.932422 0.244413
0.924776 0.933480 0.245713
0.956561 0.930166 0.246438
0.967537 0.925539 0.254549
0.975203 0.919936 0.262244
0.982872 0.916030 0.267322
0.990301 0.913509 0.270774
0.994124 0.912276 0.271120
0.423344 0.898657 0.242385
0.438515 0.904466 0.245276
0.445707 0.905578 0.245827
0.451385 0.905843 0.245951
0.456275 0.905829 0.245966
0.460699 0.905654 0.245858
0.561031 0.919549 0.248261
0.730692 0.940995 0.250936
0.851632 0.951988 0.253811
0.925675 0.954761 0.255566
0.956366 0.950769 0.255658
0.967617 0.945418 0.263218
0.975303 0.939736 0.271008
0.983012 0.935763 0.276099
0.990659 0.933040 0.279631
0.995197 0.931511 0.280320
0.456696 0.919853 0.251845
0.473983 0.925226 0.255003
0.481582 0.926280 0.255626
0.487282 0.926522 0.255740
0.492310 0.926542 0.255754
0.496739 0.926412 0.255672
0.562297 0.935158 0.256986
0.730342 0.956739 0.259658
0.851231 0.967674 0.262449
0.925728 0.971218 0.264545
0.956238 0.967536 0.264492
0.967659 0.961436 0.271547
0.975421 0.955660 0.279425
0.983111 0.951570 0.284590
0.990767 0.948779 0.288183
0.996269 0.946767 0.289154
0.496270 0.939270 0.262156
0.503260 0.939911 0.262567
0.508494 0.939911 0.262567
0.513635 0.939911 0.262567
0.518602 0.939911 0.262567
0.523336 0.939911 0.262567
0.552820 0.943536 0.263104
0.716028 0.965084 0.265822
0.842478 0.977179 0.268518
0.921469 0.981840 0.270959
0.955265 0.979081 0.271061
0.967428 0.973118 0.277557
0.975246 0.967273 0.285710
0.982971 0.963348 0.291223
0.990684 0.960779 0.295093
0.997314 0.959351 0.297453
0.114101 0.096006 0.089547
0.121707 0.096053 0.092434
0.131288 0.096677 0.092080
0.151136 0.097992 0.092743
0.182666 0.100029 0.093964
0.235467 0.104244 0.095310
0.322583 0.112323 0.098020
0.456757 0.125743 0.103693
0.596328 0.137746 0.112039
0.701648 0.144847 0.119588
0.766726 0.148759 0.125228
0.812156 0.151597 0.129311
0.845539 0.154602 0.132355
0.863121 0.156327 0.133883
0.866864 0.156437 0.133919
0.869545 0.156441 0.133813
0.114250 0.103902 0.094261
0.121686 0.103813 0.093479
0.131484 0.103845 0.093199
0.151827 0.104358 0.093701
0.183728 0.105984 0.094706
0.237988 0.109988 0.096198
0.329468 0.118368 0.099292
0.470610 0.132396 0.105833
0.613735 0.144203 0.115149
0.715354 0.150816 0.123271
0.779191 0.154500 0.129557
0.822795 0.157505 0.134078
0.853867 0.160523 0.137494
0.863609 0.161305 0.138462
0.866398 0.161277 0.138780
0.868950 0.161174 0.140050
0.116597 0.114799 0.093495
0.122078 0.114933 0.093850
0.131547 0.114919 0.093801
0.152382 0.115501 0.094350
0.184831 0.117045 0.095309
0.239622 0.120933 0.096626
0.330514 0.128915 0.099365
0.467740 0.141994 0.105196
0.606609 0.153103 0.113586
0.707912 0.159326 0.120821
0.771399 0.162693 0.126196
0.815963 0.164990 0.130192
0.848419 0.167180 0.133248
0.863861 0.167814 0.134558
0.867111 0.167564 0.134644
0.869649 0.167314 0.134890
0.118610 0.137571 0.094022
0.123887 0.138003 0.094578
0.131879 0.137981 0.094623
0.153070 0.138462 0.095068
0.186318 0.139901 0.095986
0.243225 0.143508 0.097075
0.338438 0.151086 0.099996
0.479507 0.163613 0.105943
0.618862 0.173981 0.114551
0.716648 0.179726 0.121788
0.779252 0.183036 0.127242
0.822282 0.184989 0.131083
0.853570 0.186371 0.133911
0.870384 0.186493 0.135256
0.873336 0.185305 0.135085
0.875242 0.183978 0.134778
0.123126 0.171205 0.095886
0.128624 0.172469 0.096732
0.134985 0.172451 0.096881
0.155542 0.172910 0.097064
0.189569 0.174595 0.097918
0.250118 0.178133 0.098505
0.354271 0.184810 0.101158
0.502498 0.194556 0.107162
0.641675 0.202372 0.115643
0.734042 0.206492 0.122768
0.794879 0.209039 0.128139
0.836179 0.210626 0.131806
0.865139 0.211759 0.134428
0.881942 0.212040 0.135842
0.884967 0.210836 0.135726
0.886859 0.209420 0.135498
0.138159 0.229748 0.101263
0.144804 0.234379 0.102802
0.150161 0.234772 0.103044
0.165076 0.235663 0.103190
0.198531 0.239194 0.103630
0.261825 0.244894 0.104842
0.381297 0.251099 0.105731
0.543260 0.256934 0.110797
0.680522 0.258555 0.118516
0.765269 0.257507 0.125411
0.823334 0.257426 0.130713
0.861155 0.257176 0.134261
0.885081 0.256822 0.136487
0.900108 0.255927 0.137671
0.902739 0.253265 0.137496
0.904205 0.250560 0.137168
0.171149 0.344159 0.113731
0.179305 0.354537 0.116245
0.184908 0.355890 0.116652
0.192969 0.356270 0.116762
0.223309 0.364164 0.117658
0.286737 0.377610 0.118933
0.421242 0.393500 0.121257
0.603799 0.397969 0.123928
0.743294 0.390995 0.129000
0.823075 0.381173 0.133756
0.874459 0.375492 0.137549
0.904097 0.371958 0.140013
0.924902 0.369368 0.141813
0.938863 0.367019 0.142772
0.942086 0.361824 0.142548
0.942753 0.356112 0.142043
0.214677 0.491822 0.133636
0.224306 0.505986 0.137183
0.230200 0.508144 0.137775
0.235628 0.507957 0.137756
0.258978 0.515619 0.139046
0.314428 0.533421 0.142249
0.468388 0.561222 0.145532
0.652924 0.577079 0.148918
0.794407 0.575356 0.153800
0.877760 0.566636 0.157670
0.929543 0.559349 0.160266
0.953180 0.553746 0.163401
0.968123 0.549949 0.167222
0.977346 0.547449 0.171533
0.982009 0.542664 0.171627
0.984013 0.535801 0.169814
0.254684 0.625529 0.160148
0.264746 0.641834 0.164445
0.270774 0.644130 0.165129
0.275838 0.643959 0.165118
0.290759 0.647066 0.165814
0.349561 0.663265 0.169454
0.503204 0.690678 0.173159
0.689270 0.711236 0.173604
0.817259 0.713399 0.177088
0.901247 0.712111 0.181781
0.953570 0.708978 0.185687
0.967043 0.703642 0.194126
0.974620 0.699446 0.201630
0.982143 0.696916 0.206321
0.987166 0.694116 0.207701
0.989812 0.690214 0.206840
0.289880 0.723309 0.185307
0.301689 0.736694 0.189750
0.308035 0.738581 0.190458
0.313255 0.738672 0.190494
0.321358 0.739087 0.190603
0.381372 0.750446 0.193351
0.527258 0.773907 0.196818
0.712162 0.798991 0.198690
0.832924 0.802944 0.199042
0.909932 0.803782 0.203571
0.956905 0.804031 0.207794
0.967173 0.799147 0.216180
0.974768 0.794427 0.223592
0.982397 0.791549 0.228526
0.988212 0.789483 0.230629
0.990888 0.787246 0.230076
0.325222 0.790062 0.206615
0.337486 0.800323 0.210284
0.344027 0.802106 0.210905
0.349310 0.802360 0.210970
0.354004 0.802018 0.210866
0.404207 0.809987 0.212701
0.543095 0.831073 0.216343
0.721763 0.854537 0.218957
0.845017 0.863940 0.220585
0.915475 0.861096 0.222054
0.956759 0.862331 0.226060
0.967279 0.857611 0.234178
0.974888 0.852558 0.241732
0.982528 0.849400 0.246723
0.988873 0.847339 0.249355
0.991964 0.845913 0.249158
0.358964 0.836975 0.222603
0.372481 0.845959 0.226117
0.379250 0.847607 0.226774
0.384686 0.847931 0.226906
0.389461 0.847748 0.226829
0.419328 0.851630 0.227777
0.551863 0.870941 0.231576
0.725970 0.893024 0.234244
0.849210 0.904232 0.236936
0.920225 0.902454 0.237618
0.956480 0.901410 0.239935
0.967378 0.896912 0.248134
0.974990 0.891451 0.255774
0.982635 0.887809 0.260893
0.989599 0.885520 0.264065
0.993026 0.884336 0.264187
0.390509 0.872197 0.236216
0.404523 0.879386 0.239579
0.411499 0.880684 0.240173
0.416905 0.880959 0.240348
0.421836 0.880900 0.240293
0.433962 0.881832 0.240432
0.556781 0.899146 0.243775
0.727789 0.920583 0.246464
0.850009 0.931785 0.249347
0.923666 0.932986 0.250698
0.956276 0.929637 0.251338
0.967444 0.925118 0.259328
0.975079 0.919501 0.267080
0.982750 0.915541 0.272176
0.990218 0.912964 0.275661
0.994098 0.911808 0.276137
0.422315 0.898022 0.247296
0.437657 0.903955 0.250277
0.444885 0.905084 0.250834
0.450507 0.905361 0.250962
0.455353 0.905330 0.250954
0.459817 0.905151 0.250855
0.558691 0.918830 0.253215
0.728078 0.940320 0.255906
0.849809 0.951420 0.258767
0.924530 0.954299 0.260549
0.956049 0.950360 0.260596
0.967490 0.945103 0.267942
0.975175 0.939388 0.275836
0.982857 0.935364 0.280983
0.990505 0.932633 0.284520
0.995170 0.931197 0.285386
0.455410 0.919224 0.256756
0.472762 0.924668 0.259934
0.480515 0.925771 0.260561
0.486228 0.926044 0.260754
0.491290 0.926068 0.260753
0.495693 0.925928 0.260665
0.559798 0.934452 0.261937
0.727578 0.956049 0.264616
0.849162 0.967141 0.267375
0.924528 0.970827 0.269458
0.955864 0.967189 0.269393
0.967517 0.961212 0.276225
0.975266 0.955383 0.284170
0.982957 0.951268 0.289388
0.990596 0.948442 0.292993
0.996269 0.946588 0.294270
0.494843 0.938702 0.266998
0.503260 0.939911 0.267802
0.508494 0.939911 0.267802
0.513635 0.939911 0.267802
0.518602 0.939911 0.267802
0.523336 0.939911 0.267802
0.552364 0.943475 0.268339
0.713863 0.964827 0.271055
0.840745 0.977019 0.273706
0.920160 0.981769 0.276140
0.954915 0.979146 0.276286
0.967279 0.973305 0.282556
0.975110 0.967395 0.290782
0.982835 0.963436 0.296336
0.990544 0.960862 0.300240
0.997314 0.959351 0.302714
0.111700 0.095203 0.114728
0.118481 0.095711 0.123472
0.128355 0.096069 0.122158
0.147949 0.097040 0.122882
0.178599 0.098932 0.124164
0.229445 0.102730 0.126076
0.314850 0.110309 0.128839
0.448047 0.123043 0.133681
0.589748 0.135105 0.141752
0.697431 0.142297 0.148791
0.763560 0.146323 0.154028
0.809415 0.149327 0.157904
0.842950 0.152423 0.160754
0.860545 0.154083 0.162134
0.864294 0.154205 0.162158
0.866944 0.154223 0.162073
0.111261 0.103032 0.126048
0.118435 0.102964 0.125698
0.128489 0.102785 0.123981
0.148485 0.103243 0.124213
0.179606 0.104810 0.125488
0.231777 0.108427 0.127629
0.321780 0.116370 0.131110
0.462140 0.129629 0.137032
0.607121 0.141463 0.146094
0.711747 0.148207 0.153939
0.776001 0.152036 0.160073
0.820168 0.155262 0.164614
0.851023 0.158268 0.167869
0.860675 0.158995 0.168931
0.863397 0.158962 0.169450
0.865933 0.158891 0.170746
0.113344 0.113780 0.124566
0.118819 0.114073 0.125429
0.128388 0.113812 0.124650
0.148860 0.114237 0.124927
0.180449 0.115676 0.126080
0.232965 0.119143 0.127883
0.322097 0.126593 0.130723
0.458789 0.139054 0.135901
0.599786 0.150191 0.143964
0.703540 0.156524 0.150692
0.768021 0.159993 0.155662
0.813047 0.162469 0.159511
0.845628 0.164724 0.162349
0.861108 0.165428 0.163591
0.864327 0.165210 0.163766
0.866876 0.164972 0.164101
0.114984 0.135700 0.123529
0.120272 0.136515 0.124872
0.128123 0.136398 0.124841
0.148810 0.136548 0.124854
0.181500 0.137832 0.126046
0.236096 0.141038 0.127716
0.329559 0.148267 0.130627
0.470762 0.160573 0.136398
0.611847 0.171120 0.144944
0.712164 0.176959 0.151788
0.775545 0.180267 0.156796
0.818992 0.182253 0.160423
0.850464 0.183631 0.163001
0.867273 0.183769 0.164225
0.870278 0.182546 0.164140
0.872235 0.181189 0.163941
0.119403 0.168453 0.124666
0.124955 0.170310 0.126319
0.131199 0.170341 0.126571
0.151377 0.170392 0.126335
0.184503 0.171902 0.127429
0.242926 0.174931 0.128650
0.345404 0.181425 0.131256
0.493998 0.191416 0.136924
0.634947 0.199634 0.145847
0.729193 0.203884 0.152726
0.790595 0.206460 0.157802
0.832208 0.208089 0.161251
0.861601 0.209143 0.163654
0.878874 0.209377 0.164996
0.881919 0.208128 0.164964
0.883771 0.206714 0.164860
0.134169 0.226406 0.129234
0.141182 0.232636 0.131856
0.146590 0.233283 0.132357
0.161127 0.233970 0.132448
0.192871 0.237600 0.133332
0.254293 0.243280 0.135038
0.372441 0.249453 0.135846
0.535234 0.255467 0.139970
0.675026 0.257143 0.147257
0.761196 0.255812 0.154053
0.819666 0.255522 0.159076
0.858193 0.255222 0.162366
0.882664 0.254853 0.164415
0.897911 0.253878 0.165483
0.900502 0.251139 0.165362
0.901901 0.248283 0.165163
0.166858 0.341290 0.142090
0.175647 0.354573 0.146055
0.181337 0.356472 0.146792
0.189270 0.356861 0.147022
0.217938 0.364598 0.148277
0.277995 0.377852 0.150081
0.411151 0.394232 0.152844
0.596502 0.399894 0.153188
0.740043 0.393675 0.155963
0.820709 0.383441 0.160578
0.872656 0.377173 0.164431
0.903068 0.373523 0.166958
0.923895 0.370850 0.168817
0.937872 0.368453 0.169840
0.941040 0.363161 0.169686
0.941620 0.357098 0.169287
0.210366 0.490130 0.160675
0.220650 0.507857 0.166705
