example-Advanced/bin/data/ofxGpuLutCube/LUT/Hollywood-79.cube
TITLE "mon_chelsea"
# LUT size
# data domain
# LUT data points
# 
# Copyright: (C) Copyright 2015 James Miller
# Created by: James Miller, www.DeLuts.co.uk
LUT_3D_SIZE 6
0.097168 0.095428 0.094360
0.101782 0.096716 0.094458
0.222681 0.115320 0.106214
0.475897 0.137488 0.120447
0.559479 0.143176 0.122967
0.584412 0.144806 0.123810
0.099188 0.102326 0.095715
0.104291 0.102820 0.096234
0.233410 0.122925 0.107977
0.491229 0.146771 0.121923
0.570984 0.151630 0.124469
0.591058 0.151050 0.124737
0.169312 0.276422 0.136621
0.174310 0.276745 0.136902
0.513574 0.420831 0.182818
0.754816 0.416589 0.180603
0.790686 0.403271 0.179309
0.803394 0.372724 0.171271
0.382776 0.643048 0.230017
0.392682 0.643341 0.230945
0.693799 0.729364 0.275988
0.848340 0.750751 0.289404
0.863568 0.740546 0.294159
0.876819 0.736279 0.294599
0.657367 0.795990 0.301856
0.668506 0.795618 0.301654
0.723077 0.805310 0.306464
0.874957 0.823968 0.322687
0.888947 0.810376 0.324836
0.903284 0.806964 0.325635
0.778290 0.850677 0.333710
0.790820 0.850647 0.333679
0.802985 0.850671 0.333612
0.883978 0.862475 0.347998
0.899768 0.849109 0.350250
0.916199 0.845459 0.353333
0.095947 0.095508 0.097791
0.101019 0.096661 0.099085
0.211865 0.113934 0.112598
0.461566 0.135828 0.129150
0.549664 0.141968 0.132751
0.576325 0.143707 0.133514
0.097894 0.100989 0.099134
0.102465 0.101813 0.100183
0.223664 0.119800 0.112066
0.474615 0.142590 0.127264
0.560602 0.148297 0.131384
0.583050 0.148663 0.132934
0.167206 0.274634 0.144959
0.172681 0.276880 0.145276
0.531763 0.438953 0.197333
0.744513 0.386975 0.180219
0.779681 0.358374 0.174371
0.785339 0.326953 0.166834
0.378027 0.640167 0.239582
0.387952 0.640540 0.240564
0.683301 0.728803 0.284552
0.848822 0.752319 0.300183
0.863458 0.740363 0.304181
0.876410 0.735394 0.304285
0.656763 0.795801 0.309375
0.667951 0.795453 0.309192
0.722155 0.805029 0.313989
0.874963 0.823950 0.330639
0.888971 0.810315 0.332819
0.903284 0.806872 0.333636
0.778332 0.850677 0.341839
0.790881 0.850665 0.341778
0.803033 0.850659 0.341717
0.884015 0.862542 0.356366
0.899811 0.849103 0.358649
0.916290 0.845459 0.361853
0.097907 0.097559 0.127875
0.102075 0.098803 0.130426
0.166009 0.115650 0.175763
0.337365 0.143170 0.227838
0.400396 0.151227 0.238110
0.422174 0.153510 0.240491
0.098651 0.101617 0.129651
0.101373 0.101111 0.131995
0.167847 0.119501 0.177887
0.341388 0.148999 0.222095
0.406799 0.156915 0.232367
0.427423 0.158166 0.237482
0.152698 0.253467 0.228528
0.157141 0.255432 0.230994
0.370434 0.363086 0.318780
0.597058 0.297150 0.277460
0.612036 0.240936 0.231842
0.603729 0.216632 0.217902
0.304291 0.608984 0.387195
0.313598 0.610132 0.388898
0.503186 0.677075 0.401166
0.838843 0.755389 0.432849
0.859412 0.738477 0.433228
0.869910 0.728979 0.413489
0.534527 0.755084 0.472534
0.546789 0.755683 0.473657
0.597272 0.766303 0.472242
0.859558 0.824842 0.442596
0.888641 0.815509 0.446081
0.902209 0.809442 0.448364
0.726080 0.837591 0.511725
0.739423 0.838117 0.512988
0.751770 0.838317 0.513135
0.862616 0.857769 0.453674
0.896661 0.852356 0.464172
0.913995 0.848089 0.467505
0.104584 0.100971 0.184363
0.109350 0.101923 0.189386
0.166443 0.115997 0.251318
0.335596 0.143664 0.345184
0.404913 0.152307 0.362347
0.425921 0.154456 0.366541
0.105475 0.104675 0.188056
0.107983 0.104083 0.189282
0.159753 0.117859 0.246588
0.338684 0.148993 0.347626
0.407416 0.157288 0.363898
0.427673 0.158813 0.367542
0.157861 0.251667 0.336676
0.160864 0.249896 0.336786
0.177625 0.181470 0.310858
0.484894 0.260315 0.442786
0.533124 0.255823 0.439062
0.535949 0.237818 0.428406
0.292249 0.587348 0.509363
0.301593 0.589594 0.512012
0.444714 0.642560 0.563367
0.767053 0.718780 0.651624
0.819854 0.712384 0.652222
0.834473 0.698529 0.641351
0.486426 0.729224 0.600842
0.499420 0.730383 0.602362
0.534265 0.736676 0.610492
0.785419 0.797852 0.661951
0.865765 0.807946 0.671216
0.887940 0.805096 0.673889
0.675275 0.809668 0.664850
0.689154 0.810418 0.665961
0.702649 0.811102 0.667059
0.790515 0.830548 0.668390
0.873847 0.845648 0.680237
0.907177 0.851191 0.686835
0.107276 0.101526 0.208215
0.111700 0.102740 0.212475
0.170819 0.117243 0.281604
0.341217 0.144415 0.380450
0.410718 0.153949 0.399823
0.430761 0.156116 0.404181
0.108325 0.105829 0.213031
0.110687 0.105029 0.212781
0.163049 0.118835 0.275860
0.341278 0.148932 0.382275
0.412805 0.158575 0.401465
0.432538 0.160535 0.405475
0.160876 0.249902 0.371674
0.163977 0.248047 0.371961
0.157672 0.155933 0.311401
0.441852 0.227759 0.457757
0.519037 0.241162 0.475653
0.532654 0.234363 0.471552
0.297009 0.582629 0.552112
0.306421 0.584796 0.554639
0.407544 0.610644 0.587390
0.710419 0.676739 0.669824
0.795178 0.687836 0.684015
0.813196 0.681598 0.679462
0.490815 0.725317 0.639111
0.503876 0.726459 0.640546
0.533783 0.731091 0.646484
0.775964 0.789990 0.712909
0.846521 0.798083 0.722943
0.873401 0.799042 0.726074
0.670209 0.805640 0.699719
0.684882 0.806690 0.701221
0.698975 0.807764 0.702685
0.783875 0.824243 0.721338
0.854547 0.835693 0.731866
0.889594 0.841272 0.739307
0.108276 0.102264 0.221161
0.112933 0.103003 0.226086
0.172778 0.118024 0.298023
0.343762 0.144610 0.399775
0.414697 0.154950 0.421503
0.436096 0.157623 0.426666
0.109229 0.105860 0.225421
0.111804 0.105316 0.225806
0.164630 0.119037 0.291583
0.342554 0.148822 0.400861
0.416040 0.159393 0.422949
0.437354 0.161896 0.427807
0.161755 0.246503 0.390186
0.164813 0.245086 0.390625
0.153052 0.148535 0.317420
0.425378 0.217523 0.466461
0.509149 0.233203 0.492798
0.526367 0.229834 0.491296
0.300531 0.580133 0.575837
0.310046 0.582447 0.578290
0.391302 0.597443 0.605615
0.674463 0.646307 0.675451
0.774585 0.663696 0.695709
0.805103 0.662433 0.697510
0.496265 0.724353 0.664838
0.509448 0.725476 0.666187
0.533826 0.728638 0.670203
0.754688 0.779858 0.729376
0.837354 0.792249 0.743555
0.867792 0.794251 0.748266
0.671814 0.805664 0.723053
0.686615 0.806744 0.724408
0.700739 0.807788 0.725732
0.781494 0.823358 0.745642
0.851758 0.833508 0.757757
0.884369 0.838318 0.764221
