example-Advanced/bin/data/ofxGpuLutCube/LUT/Hollywood-5.cube
#Generated by Picture Instruments - Look Creator
TITLE "400h+1-"
LUT_3D_SIZE 17
0.0313725 0.0313725 0.0313725
0.0588235 0.0313725 0.0313725
0.0901961 0.0352941 0.027451
0.14902 0.0352941 0.027451
0.207843 0.00392157 0.0196078
0.286275 0 0.00784314
0.356863 0 0
0.439216 0 0
0.513725 0 0
0.588235 0 0
0.658824 0 0
0.72549 0 0
0.792157 0 0
0.843137 0.0156863 0
0.890196 0.109804 0
0.933333 0.188235 0
0.956863 0.227451 0
0.0392157 0.0627451 0.0470588
0.0666667 0.0705882 0.0470588
0.105882 0.0784314 0.0392157
0.14902 0.0705882 0.0313725
0.211765 0.054902 0.0235294
0.286275 0.0196078 0.0117647
0.360784 0 0
0.443137 0 0
0.521569 0 0
0.592157 0 0
0.666667 0 0
0.729412 0 0
0.792157 0.00392157 0
0.847059 0.0745098 0
0.894118 0.160784 0
0.937255 0.215686 0
0.956863 0.243137 0
0.054902 0.101961 0.0627451
0.0705882 0.109804 0.0666667
0.0980392 0.105882 0.0509804
0.156863 0.113725 0.0431373
0.215686 0.109804 0.027451
0.286275 0.101961 0.0156863
0.360784 0.0784314 0
0.439216 0.0392157 0
0.521569 0.0117647 0
0.6 0.00784314 0
0.670588 0.0117647 0
0.733333 0.0392157 0
0.796078 0.109804 0
0.85098 0.164706 0
0.898039 0.211765 0
0.937255 0.254902 0
0.960784 0.282353 0
0.0627451 0.156863 0.0784314
0.0784314 0.160784 0.0784314
0.0980392 0.156863 0.0705882
0.156863 0.164706 0.0666667
0.227451 0.176471 0.0431373
0.298039 0.176471 0.0196078
0.372549 0.172549 0
0.45098 0.164706 0.00392157
0.533333 0.160784 0
0.603922 0.156863 0
0.67451 0.168627 0
0.737255 0.180392 0
0.796078 0.207843 0
0.847059 0.239216 0
0.894118 0.270588 0
0.945098 0.313725 0
0.964706 0.329412 0
0.0784314 0.219608 0.101961
0.0823529 0.215686 0.0941176
0.109804 0.223529 0.101961
0.152941 0.231373 0.0862745
0.215686 0.235294 0.0745098
0.298039 0.25098 0.0392157
0.380392 0.254902 0.0117647
0.462745 0.254902 0
0.537255 0.254902 0
0.603922 0.25098 0
0.67451 0.258824 0
0.745098 0.282353 0
0.803922 0.294118 0
0.85098 0.313725 0
0.898039 0.341176 0
0.945098 0.368627 0
0.968627 0.384314 0
0.0941176 0.282353 0.12549
0.105882 0.294118 0.12549
0.129412 0.298039 0.121569
0.164706 0.305882 0.12549
0.215686 0.305882 0.105882
0.290196 0.309804 0.0862745
0.384314 0.329412 0.0431373
0.466667 0.337255 0.0117647
0.541176 0.341176 0
0.619608 0.352941 0
0.686275 0.356863 0
0.74902 0.368627 0
0.803922 0.376471 0
0.854902 0.392157 0
0.901961 0.411765 0
0.937255 0.427451 0
0.968627 0.443137 0
0.129412 0.368627 0.168627
0.137255 0.372549 0.160784
0.152941 0.376471 0.160784
0.188235 0.380392 0.160784
0.231373 0.388235 0.152941
0.298039 0.396078 0.141176
0.368627 0.392157 0.109804
0.47451 0.411765 0.0705882
0.552941 0.427451 0.0392157
0.627451 0.435294 0.00392157
0.690196 0.439216 0
0.752941 0.45098 0
0.811765 0.458824 0
0.862745 0.470588 0
0.901961 0.482353 0
0.937255 0.490196 0
0.968627 0.501961 0
0.168627 0.45098 0.203922
0.172549 0.454902 0.203922
0.196078 0.466667 0.211765
0.223529 0.466667 0.211765
0.262745 0.470588 0.207843
0.317647 0.47451 0.196078
0.388235 0.47451 0.176471
0.458824 0.47451 0.145098
0.552941 0.490196 0.109804
0.627451 0.505882 0.0901961
0.694118 0.513725 0.054902
0.756863 0.52549 0.0196078
0.815686 0.533333 0.00392157
0.858824 0.537255 0
0.901961 0.545098 0
0.945098 0.556863 0
0.976471 0.568627 0
0.211765 0.529412 0.258824
0.223529 0.537255 0.258824
0.239216 0.541176 0.258824
0.262745 0.545098 0.258824
0.301961 0.552941 0.262745
0.341176 0.545098 0.25098
0.403922 0.54902 0.235294
0.470588 0.54902 0.215686
0.537255 0.54902 0.192157
0.631373 0.564706 0.152941
0.698039 0.580392 0.14902
0.760784 0.584314 0.12549
0.811765 0.596078 0.113725
0.862745 0.603922 0.0941176
0.905882 0.611765 0.0784314
0.945098 0.619608 0.0666667
0.972549 0.623529 0.0470588
0.27451 0.611765 0.317647
0.266667 0.607843 0.301961
0.290196 0.615686 0.309804
0.305882 0.615686 0.305882
0.341176 0.619608 0.313725
0.380392 0.619608 0.313725
0.427451 0.619608 0.301961
0.482353 0.615686 0.278431
0.552941 0.615686 0.266667
0.615686 0.615686 0.239216
0.698039 0.635294 0.2
0.760784 0.643137 0.196078
0.811765 0.65098 0.188235
0.866667 0.662745 0.192157
0.909804 0.666667 0.184314
0.94902 0.678431 0.176471
0.976471 0.682353 0.180392
0.333333 0.678431 0.372549
0.337255 0.678431 0.372549
0.341176 0.682353 0.372549
0.360784 0.678431 0.368627
0.388235 0.678431 0.368627
0.423529 0.686275 0.372549
0.462745 0.686275 0.368627
0.505882 0.678431 0.345098
0.572549 0.682353 0.341176
0.623529 0.678431 0.305882
0.686275 0.678431 0.286275
0.756863 0.686275 0.247059
0.811765 0.694118 0.247059
0.862745 0.709804 0.25098
0.905882 0.713725 0.25098
0.945098 0.72549 0.258824
0.972549 0.729412 0.258824
0.403922 0.741176 0.447059
0.403922 0.745098 0.439216
0.403922 0.745098 0.435294
0.423529 0.741176 0.431373
0.439216 0.741176 0.427451
0.470588 0.741176 0.427451
0.505882 0.745098 0.439216
0.541176 0.745098 0.423529
0.596078 0.745098 0.411765
0.643137 0.737255 0.392157
0.690196 0.733333 0.364706
0.745098 0.729412 0.341176
0.811765 0.741176 0.305882
0.854902 0.74902 0.305882
0.901961 0.756863 0.309804
0.937255 0.768627 0.32549
0.972549 0.772549 0.333333
0.47451 0.796078 0.509804
0.470588 0.792157 0.501961
0.470588 0.792157 0.494118
0.482353 0.792157 0.494118
0.501961 0.792157 0.494118
0.52549 0.792157 0.498039
0.552941 0.792157 0.498039
0.584314 0.796078 0.498039
0.627451 0.8 0.494118
0.662745 0.788235 0.470588
0.709804 0.788235 0.447059
0.760784 0.784314 0.431373
0.8 0.784314 0.403922
0.862745 0.788235 0.376471
0.901961 0.8 0.372549
0.945098 0.811765 0.392157
0.968627 0.811765 0.4
0.54902 0.843137 0.580392
0.545098 0.839216 0.576471
0.537255 0.831373 0.560784
0.54902 0.839216 0.560784
0.556863 0.835294 0.556863
0.580392 0.839216 0.560784
0.603922 0.839216 0.564706
0.631373 0.839216 0.568627
0.662745 0.839216 0.568627
0.694118 0.835294 0.552941
0.733333 0.839216 0.541176
0.768627 0.835294 0.517647
0.811765 0.835294 0.498039
0.847059 0.827451 0.466667
0.905882 0.835294 0.443137
0.937255 0.843137 0.45098
0.968627 0.85098 0.466667
0.619608 0.878431 0.647059
0.611765 0.87451 0.635294
0.611765 0.878431 0.631373
0.615686 0.878431 0.631373
0.623529 0.878431 0.627451
0.635294 0.870588 0.627451
0.662745 0.878431 0.635294
0.682353 0.878431 0.635294
0.709804 0.882353 0.643137
0.72549 0.87451 0.631373
0.752941 0.870588 0.615686
0.796078 0.878431 0.611765
0.823529 0.87451 0.592157
0.862745 0.87451 0.572549
0.894118 0.870588 0.545098
0.941176 0.882353 0.52549
0.960784 0.882353 0.52549
0.682353 0.909804 0.705882
0.678431 0.909804 0.701961
0.678431 0.913725 0.698039
0.678431 0.909804 0.690196
0.682353 0.909804 0.690196
0.694118 0.905882 0.690196
0.713725 0.909804 0.690196
0.72549 0.905882 0.694118
0.74902 0.909804 0.701961
0.772549 0.917647 0.713725
0.8 0.917647 0.705882
0.819608 0.917647 0.694118
0.847059 0.917647 0.686275
0.87451 0.913725 0.670588
0.905882 0.913725 0.654902
0.933333 0.917647 0.639216
0.968627 0.92549 0.627451
0.741176 0.941176 0.760784
0.737255 0.945098 0.756863
0.733333 0.937255 0.74902
0.733333 0.937255 0.74902
0.741176 0.937255 0.745098
0.752941 0.937255 0.74902
0.764706 0.937255 0.752941
0.780392 0.945098 0.760784
0.796078 0.941176 0.764706
0.815686 0.945098 0.772549
0.835294 0.94902 0.776471
0.85098 0.952941 0.772549
0.870588 0.945098 0.764706
0.898039 0.94902 0.764706
0.921569 0.952941 0.756863
0.945098 0.956863 0.756863
0.968627 0.956863 0.745098
0.0313725 0.0392157 0.0666667
0.0627451 0.0431373 0.0666667
0.0980392 0.0431373 0.0705882
0.14902 0.0196078 0.0627451
0.211765 0.00784314 0.0627451
0.278431 0 0.0509804
0.352941 0 0.0392157
0.435294 0 0.0196078
0.509804 0 0
0.592157 0 0
0.658824 0 0
0.729412 0 0
0.788235 0 0
0.843137 0.0117647 0
0.894118 0.121569 0
0.937255 0.192157 0
0.960784 0.235294 0
0.0431373 0.0666667 0.0666667
0.0745098 0.0745098 0.0745098
0.105882 0.0745098 0.0666667
0.14902 0.0705882 0.0666667
0.215686 0.0588235 0.0666667
0.282353 0.0196078 0.0588235
0.352941 0 0.0352941
0.439216 0 0.0156863
0.513725 0 0.00392157
0.592157 0 0
0.666667 0 0
0.72549 0 0
0.792157 0.00784314 0
0.843137 0.0745098 0
0.894118 0.160784 0
0.937255 0.219608 0
0.964706 0.25098 0
0.0627451 0.105882 0.0823529
0.0862745 0.113725 0.0862745
0.109804 0.113725 0.0823529
0.160784 0.121569 0.0823529
0.215686 0.113725 0.0666667
0.286275 0.105882 0.0588235
0.360784 0.0901961 0.0431373
0.447059 0.0627451 0.0235294
0.517647 0.0156863 0.00392157
0.596078 0.0117647 0
0.670588 0.0196078 0
0.737255 0.0627451 0
0.788235 0.109804 0
0.843137 0.164706 0
0.894118 0.215686 0
0.929412 0.25098 0
0.964706 0.286275 0
0.0823529 0.156863 0.109804
0.0901961 0.156863 0.105882
0.113725 0.164706 0.0980392
0.156863 0.168627 0.0901961
0.227451 0.180392 0.0823529
0.305882 0.184314 0.0745098
0.372549 0.172549 0.0470588
0.45098 0.168627 0.0235294
0.529412 0.164706 0.00784314
0.603922 0.160784 0
0.670588 0.164706 0
0.737255 0.188235 0
0.8 0.211765 0
0.843137 0.239216 0
0.898039 0.278431 0
0.937255 0.305882 0
0.964706 0.329412 0
0.101961 0.215686 0.129412
0.105882 0.223529 0.121569
0.129412 0.231373 0.12549
0.156863 0.231373 0.113725
0.223529 0.239216 0.101961
0.301961 0.25098 0.0823529
0.384314 0.258824 0.0705882
0.466667 0.262745 0.0470588
0.533333 0.254902 0.00784314
0.611765 0.262745 0
0.678431 0.266667 0
0.745098 0.282353 0
0.796078 0.298039 0
0.847059 0.313725 0
0.894118 0.341176 0
0.941176 0.364706 0
0.964706 0.384314 0
0.117647 0.290196 0.152941
0.12549 0.298039 0.156863
0.141176 0.301961 0.14902
0.168627 0.301961 0.145098
0.231373 0.317647 0.137255
0.301961 0.317647 0.117647
0.392157 0.337255 0.0980392
0.470588 0.341176 0.0784314
0.54902 0.34902 0.0313725
0.623529 0.356863 0.00392157
0.686275 0.360784 0
0.752941 0.372549 0
0.8 0.372549 0
0.854902 0.392157 0
0.905882 0.415686 0
0.937255 0.427451 0
0.968627 0.443137 0
0.14902 0.372549 0.192157
0.156863 0.380392 0.184314
0.172549 0.384314 0.188235
0.2 0.388235 0.184314
0.243137 0.388235 0.176471
0.305882 0.4 0.164706
0.376471 0.396078 0.137255
0.478431 0.415686 0.113725
0.552941 0.427451 0.0980392
0.631373 0.439216 0.0705882
0.698039 0.45098 0.027451
0.752941 0.45098 0.00392157
0.807843 0.458824 0
0.862745 0.470588 0
0.905882 0.482353 0
0.937255 0.494118 0
0.972549 0.505882 0
0.192157 0.458824 0.235294
0.192157 0.458824 0.227451
0.207843 0.466667 0.227451
0.231373 0.466667 0.223529
0.270588 0.47451 0.223529
0.32549 0.478431 0.215686
0.396078 0.482353 0.2
0.458824 0.47451 0.172549
0.556863 0.498039 0.141176
0.631373 0.501961 0.12549
0.701961 0.513725 0.109804
0.764706 0.529412 0.0901961
0.815686 0.537255 0.0588235
0.862745 0.541176 0.027451
0.905882 0.54902 0.0117647
0.945098 0.560784 0.00392157
0.972549 0.568627 0
0.231373 0.529412 0.278431
0.239216 0.537255 0.282353
0.243137 0.537255 0.266667
0.27451 0.54902 0.27451
0.309804 0.54902 0.27451
0.34902 0.552941 0.270588
0.407843 0.552941 0.25098
0.47451 0.54902 0.231373
0.541176 0.552941 0.211765
0.631373 0.568627 0.180392
0.701961 0.576471 0.172549
0.752941 0.580392 0.152941
0.815686 0.6 0.14902
0.862745 0.6 0.129412
0.909804 0.615686 0.129412
0.94902 0.623529 0.12549
0.972549 0.623529 0.109804
0.282353 0.6 0.329412
0.286275 0.607843 0.32549
0.290196 0.611765 0.317647
0.313725 0.611765 0.321569
0.34902 0.615686 0.321569
0.388235 0.623529 0.329412
0.431373 0.623529 0.313725
0.490196 0.619608 0.301961
0.556863 0.619608 0.27451
0.619608 0.615686 0.254902
0.701961 0.635294 0.227451
0.760784 0.639216 0.215686
0.811765 0.647059 0.207843
0.862745 0.662745 0.211765
0.905882 0.666667 0.203922
0.945098 0.67451 0.2
0.968627 0.678431 0.2
0.341176 0.666667 0.384314
0.341176 0.670588 0.376471
0.34902 0.678431 0.376471
0.364706 0.682353 0.380392
0.392157 0.678431 0.376471
0.435294 0.686275 0.380392
0.462745 0.686275 0.384314
0.521569 0.690196 0.376471
0.576471 0.686275 0.352941
0.623529 0.682353 0.32549
0.694118 0.682353 0.309804
0.764706 0.694118 0.270588
0.803922 0.694118 0.262745
0.862745 0.705882 0.262745
0.898039 0.713725 0.266667
0.945098 0.729412 0.27451
0.972549 0.733333 0.278431
0.403922 0.729412 0.447059
0.407843 0.737255 0.443137
0.407843 0.737255 0.435294
0.423529 0.741176 0.439216
0.447059 0.737255 0.435294
0.478431 0.745098 0.443137
0.509804 0.74902 0.447059
0.545098 0.745098 0.439216
0.596078 0.741176 0.423529
0.643137 0.737255 0.4
0.698039 0.741176 0.380392
0.74902 0.733333 0.352941
0.815686 0.745098 0.32549
0.858824 0.74902 0.321569
0.905882 0.764706 0.333333
0.941176 0.768627 0.341176
0.972549 0.772549 0.345098
0.466667 0.788235 0.505882
0.466667 0.788235 0.501961
0.47451 0.788235 0.501961
0.486275 0.796078 0.498039
0.505882 0.796078 0.501961
0.52549 0.792157 0.501961
0.556863 0.796078 0.505882
0.588235 0.796078 0.505882
0.627451 0.792157 0.501961
0.662745 0.792157 0.482353
0.713725 0.792157 0.466667
0.752941 0.788235 0.439216
0.8 0.780392 0.411765
0.858824 0.792157 0.384314
0.901961 0.796078 0.384314
0.941176 0.811765 0.403922
0.968627 0.815686 0.411765
0.537255 0.835294 0.572549
0.541176 0.835294 0.572549
0.537255 0.831373 0.564706
0.54902 0.835294 0.564706
0.560784 0.835294 0.560784
0.584314 0.843137 0.572549
0.603922 0.835294 0.568627
0.631373 0.839216 0.572549
0.662745 0.839216 0.576471
0.698039 0.839216 0.564706
0.729412 0.835294 0.545098
0.776471 0.831373 0.521569
0.811765 0.831373 0.501961
0.854902 0.835294 0.482353
0.898039 0.835294 0.45098
0.937255 0.843137 0.458824
0.968627 0.85098 0.47451
0.603922 0.870588 0.631373
0.607843 0.87451 0.635294
0.607843 0.870588 0.631373
0.615686 0.878431 0.631373
0.623529 0.87451 0.631373
0.639216 0.87451 0.631373
0.662745 0.878431 0.639216
0.682353 0.878431 0.639216
0.709804 0.882353 0.647059
0.733333 0.882353 0.643137
0.760784 0.878431 0.627451
0.796078 0.878431 0.619608
0.827451 0.878431 0.603922
0.858824 0.87451 0.576471
0.898039 0.878431 0.560784
0.941176 0.878431 0.533333
0.964706 0.882353 0.533333
0.67451 0.905882 0.698039
0.67451 0.905882 0.701961
0.67451 0.909804 0.698039
0.682353 0.913725 0.698039
0.686275 0.909804 0.694118
0.698039 0.909804 0.694118
0.717647 0.909804 0.698039
0.733333 0.909804 0.701961
0.756863 0.917647 0.709804
0.776471 0.921569 0.721569
0.8 0.917647 0.713725
0.819608 0.917647 0.698039
0.847059 0.917647 0.690196
0.87451 0.913725 0.67451
0.909804 0.917647 0.662745
0.933333 0.917647 0.643137
0.964706 0.917647 0.627451
0.733333 0.937255 0.756863
0.733333 0.933333 0.756863
0.733333 0.937255 0.752941
0.737255 0.937255 0.74902
0.745098 0.937255 0.752941
0.752941 0.937255 0.752941
0.768627 0.937255 0.756863
0.784314 0.945098 0.764706
0.8 0.945098 0.768627
0.823529 0.94902 0.780392
0.839216 0.94902 0.784314
0.858824 0.94902 0.776471
0.878431 0.952941 0.772549
0.901961 0.952941 0.768627
0.92549 0.960784 0.768627
0.94902 0.960784 0.756863
0.968627 0.960784 0.745098
0.0313725 0.0470588 0.0980392
0.054902 0.0431373 0.0980392
0.0941176 0.0470588 0.0941176
0.141176 0.0470588 0.0980392
0.203922 0.00784314 0.0901961
0.27451 0 0.0823529
0.34902 0 0.0862745
0.423529 0 0.0745098
0.509804 0 0.0666667
0.588235 0 0.0392157
0.658824 0 0.00784314
0.729412 0 0
0.788235 0 0
0.847059 0.027451 0
0.886275 0.121569 0
0.933333 0.196078 0
0.960784 0.235294 0
0.0431373 0.0784314 0.105882
0.0666667 0.0784314 0.105882
0.101961 0.0823529 0.105882
0.145098 0.0784314 0.101961
0.215686 0.0588235 0.101961
0.278431 0.0235294 0.0980392
0.352941 0.00392157 0.0941176
0.435294 0 0.0862745
0.513725 0 0.0705882
0.588235 0 0.0392157
0.666667 0 0.00784314
0.729412 0 0
0.784314 0.00392157 0
0.843137 0.0941176 0
0.894118 0.168627 0
0.937255 0.219608 0
0.960784 0.247059 0
0.054902 0.109804 0.113725
0.0784314 0.109804 0.117647
0.113725 0.121569 0.117647
0.160784 0.117647 0.117647
0.219608 0.117647 0.113725
0.282353 0.105882 0.105882
0.360784 0.0941176 0.0980392
0.439216 0.0745098 0.0901961
0.521569 0.0470588 0.0784314
0.596078 0.027451 0.0470588
0.666667 0.027451 0.00784314
0.737255 0.0862745 0.00392157
0.788235 0.121569 0
0.847059 0.172549 0
0.894118 0.211765 0
0.933333 0.254902 0
0.956863 0.282353 0
0.0823529 0.160784 0.12549
0.105882 0.164706 0.137255
0.12549 0.172549 0.133333
0.164706 0.172549 0.129412
0.227451 0.180392 0.117647
0.294118 0.180392 0.117647
0.368627 0.176471 0.109804
0.45098 0.172549 0.0980392
0.52549 0.168627 0.0862745
0.607843 0.172549 0.0627451
0.67451 0.180392 0.0235294
0.733333 0.192157 0
0.788235 0.215686 0
0.847059 0.243137 0
0.894118 0.27451 0
0.941176 0.313725 0
0.964706 0.329412 0
0.113725 0.227451 0.156863
0.12549 0.227451 0.160784
0.141176 0.231373 0.152941
0.164706 0.235294 0.14902
0.231373 0.239216 0.141176
0.305882 0.254902 0.129412
0.388235 0.258824 0.121569
0.466667 0.262745 0.109804
0.541176 0.262745 0.0980392
0.611765 0.266667 0.0784314
0.678431 0.270588 0.0392157
0.741176 0.286275 0.00784314
0.8 0.301961 0
0.85098 0.321569 0
0.898039 0.345098 0
0.933333 0.368627 0
0.968627 0.388235 0
0.141176 0.298039 0.192157
0.156863 0.298039 0.192157
0.160784 0.301961 0.180392
0.188235 0.309804 0.184314
0.239216 0.317647 0.172549
0.298039 0.317647 0.156863
0.388235 0.333333 0.141176
0.470588 0.341176 0.129412
0.54902 0.352941 0.117647
0.623529 0.356863 0.101961
0.686275 0.364706 0.0784314
0.741176 0.364706 0.0352941
0.8 0.380392 0.00784314
0.85098 0.396078 0
0.905882 0.419608 0
0.941176 0.431373 0
0.972549 0.447059 0
0.172549 0.368627 0.223529
0.188235 0.380392 0.231373
0.192157 0.380392 0.215686
0.215686 0.392157 0.211765
0.254902 0.396078 0.215686
0.309804 0.4 0.196078
0.384314 0.396078 0.176471
0.478431 0.419608 0.156863
0.556863 0.427451 0.14902
0.627451 0.435294 0.133333
0.701961 0.447059 0.117647
0.756863 0.454902 0.105882
0.807843 0.462745 0.0745098
0.854902 0.470588 0.0392157
0.898039 0.486275 0.0117647
0.941176 0.494118 0
0.968627 0.505882 0
0.219608 0.454902 0.270588
0.231373 0.462745 0.27451
0.227451 0.462745 0.258824
0.247059 0.470588 0.254902
0.282353 0.47451 0.254902
0.329412 0.478431 0.247059
0.392157 0.478431 0.227451
0.470588 0.482353 0.211765
0.560784 0.501961 0.184314
0.635294 0.509804 0.176471
0.690196 0.513725 0.156863
0.764706 0.529412 0.152941
0.815686 0.533333 0.133333
0.858824 0.541176 0.12549
0.905882 0.552941 0.113725
0.937255 0.556863 0.0823529
0.972549 0.568627 0.0705882
0.262745 0.533333 0.317647
0.266667 0.537255 0.313725
0.262745 0.537255 0.294118
0.290196 0.54902 0.298039
0.313725 0.545098 0.294118
0.360784 0.552941 0.298039
0.415686 0.552941 0.286275
0.47451 0.556863 0.262745
0.54902 0.552941 0.247059
0.635294 0.568627 0.215686
0.694118 0.576471 0.203922
0.760784 0.588235 0.2
0.811765 0.596078 0.192157
0.870588 0.607843 0.188235
0.905882 0.619608 0.184314
0.94902 0.619608 0.168627
0.976471 0.627451 0.168627
0.305882 0.603922 0.360784
0.309804 0.607843 0.356863
0.317647 0.611765 0.356863
0.32549 0.611765 0.341176
0.356863 0.619608 0.34902
0.396078 0.619608 0.34902
0.443137 0.623529 0.341176
0.498039 0.623529 0.32549
0.552941 0.623529 0.301961
0.619608 0.619608 0.282353
0.698039 0.635294 0.258824
0.756863 0.643137 0.25098
0.815686 0.654902 0.243137
0.862745 0.654902 0.239216
0.905882 0.670588 0.239216
0.941176 0.678431 0.235294
0.968627 0.682353 0.235294
0.360784 0.670588 0.411765
0.364706 0.67451 0.415686
0.364706 0.678431 0.407843
0.380392 0.682353 0.4
0.4 0.682353 0.396078
0.435294 0.686275 0.396078
0.47451 0.682353 0.4
0.517647 0.682353 0.384314
0.572549 0.686275 0.372549
0.635294 0.690196 0.356863
0.682353 0.678431 0.317647
0.764706 0.694118 0.301961
0.815686 0.701961 0.301961
0.862745 0.709804 0.298039
0.905882 0.717647 0.294118
0.945098 0.72549 0.298039
0.976471 0.737255 0.305882
0.411765 0.729412 0.466667
0.415686 0.733333 0.462745
0.423529 0.737255 0.458824
0.431373 0.737255 0.454902
0.45098 0.737255 0.45098
0.486275 0.745098 0.462745
0.521569 0.745098 0.462745
0.552941 0.737255 0.454902
0.596078 0.741176 0.439216
0.647059 0.737255 0.423529
0.698039 0.737255 0.4
0.74902 0.733333 0.372549
0.811765 0.741176 0.341176
0.862745 0.756863 0.352941
0.905882 0.760784 0.352941
0.937255 0.768627 0.360784
0.964706 0.772549 0.368627
0.478431 0.784314 0.52549
0.486275 0.784314 0.529412
0.486275 0.788235 0.521569
0.494118 0.792157 0.517647
0.509804 0.788235 0.513725
0.537255 0.796078 0.517647
0.560784 0.796078 0.521569
0.6 0.8 0.529412
0.631373 0.796078 0.513725
0.662745 0.788235 0.494118
0.721569 0.796078 0.482353
0.752941 0.784314 0.45098
0.803922 0.784314 0.427451
0.862745 0.792157 0.4
0.901961 0.803922 0.407843
0.941176 0.807843 0.423529
0.968627 0.815686 0.431373
0.54902 0.831373 0.584314
0.54902 0.831373 0.580392
0.552941 0.831373 0.584314
0.564706 0.843137 0.584314
0.564706 0.835294 0.576471
0.592157 0.839216 0.580392
0.611765 0.839216 0.580392
0.643137 0.843137 0.588235
0.666667 0.843137 0.588235
0.701961 0.839216 0.576471
0.737255 0.839216 0.560784
0.772549 0.835294 0.541176
0.811765 0.831373 0.517647
0.858824 0.835294 0.498039
0.905882 0.843137 0.470588
0.937255 0.839216 0.47451
0.964706 0.85098 0.490196
0.615686 0.87451 0.647059
0.615686 0.870588 0.643137
0.619608 0.870588 0.643137
0.623529 0.878431 0.639216
0.631373 0.87451 0.639216
0.65098 0.882353 0.647059
0.666667 0.878431 0.647059
0.690196 0.882353 0.654902
0.709804 0.882353 0.654902
0.733333 0.882353 0.65098
0.760784 0.878431 0.639216
0.796078 0.878431 0.627451
0.827451 0.878431 0.607843
0.862745 0.87451 0.588235
0.898039 0.87451 0.568627
0.941176 0.886275 0.545098
0.968627 0.890196 0.552941
0.682353 0.905882 0.709804
0.686275 0.913725 0.713725
0.682353 0.909804 0.709804
0.678431 0.905882 0.701961
0.694118 0.909804 0.701961
0.701961 0.913725 0.701961
0.717647 0.909804 0.705882
0.737255 0.909804 0.709804
0.760784 0.917647 0.717647
0.780392 0.921569 0.72549
0.796078 0.913725 0.713725
0.823529 0.917647 0.709804
0.85098 0.917647 0.701961
0.882353 0.921569 0.686275
0.909804 0.917647 0.670588
0.937255 0.917647 0.654902
0.972549 0.92549 0.643137
0.745098 0.937255 0.768627
0.745098 0.937255 0.764706
0.741176 0.941176 0.760784
0.741176 0.937255 0.756863
0.745098 0.933333 0.752941
0.756863 0.941176 0.760784
0.776471 0.945098 0.764706
0.788235 0.945098 0.768627
0.803922 0.945098 0.776471
0.823529 0.94902 0.784314
0.839216 0.94902 0.788235
0.862745 0.952941 0.784314
0.878431 0.94902 0.776471
0.901961 0.952941 0.776471
0.92549 0.960784 0.772549
0.945098 0.956863 0.760784
0.968627 0.956863 0.756863
0.0117647 0.0588235 0.14902
0.0431373 0.054902 0.145098
0.0862745 0.054902 0.145098
0.137255 0.0470588 0.141176
0.196078 0.0431373 0.133333
0.262745 0.00392157 0.129412
0.34902 0 0.129412
0.427451 0 0.12549
0.505882 0 0.121569
0.580392 0 0.117647
0.654902 0 0.109804
0.72549 0 0.0980392
0.784314 0 0.0705882
0.839216 0.0313725 0.0235294
0.890196 0.137255 0
0.933333 0.2 0
0.964706 0.243137 0
0.0235294 0.0823529 0.156863
0.054902 0.0823529 0.156863
0.0980392 0.0862745 0.156863
0.145098 0.0823529 0.152941
0.203922 0.0901961 0.145098
0.270588 0.054902 0.141176
0.352941 0 0.141176
0.431373 0 0.133333
0.505882 0 0.129412
0.584314 0 0.121569
0.658824 0 0.113725
0.72549 0 0.0980392
0.788235 0.0196078 0.0745098
0.843137 0.109804 0.0313725
0.890196 0.172549 0.00392157
0.937255 0.231373 0
