example-Advanced/bin/data/ofxGpuLutCube/LUT/Hollywood-80.cube
TITLE "mon_crayford"
# LUT size
# data domain
# LUT data points
# 

# Copyright: (C) Copyright 2015 James Miller
# Created by: James Miller, www.DeLuts.co.uk

LUT_3D_SIZE 8

0.095428 0.081360 0.065033
0.131257 0.084909 0.065273
0.188511 0.090781 0.066781
0.363878 0.093053 0.067217
0.578007 0.095655 0.068351
0.742175 0.098249 0.071075
0.860810 0.100634 0.073408
0.876434 0.100861 0.073700
0.107334 0.118290 0.072780
0.131199 0.117916 0.072662
0.193155 0.116926 0.072383
0.379137 0.113857 0.070622
0.589552 0.112531 0.070095
0.746037 0.112340 0.071542
0.861041 0.112780 0.073491
0.876434 0.112606 0.073700
0.119184 0.173484 0.080632
0.132529 0.173148 0.080479
0.211186 0.175877 0.079433
0.451206 0.167904 0.077519
0.676976 0.162907 0.078251
0.819149 0.158709 0.079433
0.922795 0.156246 0.081717
0.937160 0.151093 0.081360
0.136030 0.328945 0.090851
0.147527 0.327196 0.090746
0.234218 0.348144 0.090590
0.532954 0.361254 0.087590
0.764540 0.354945 0.083283
0.885708 0.348459 0.083474
0.962084 0.348759 0.086705
0.975084 0.338052 0.087965
0.226680 0.587110 0.113351
0.237401 0.585375 0.113185
0.270726 0.587202 0.112889
0.604296 0.630184 0.117702
0.801758 0.619895 0.112026
0.908343 0.613272 0.099300
0.966527 0.606053 0.094256
0.976824 0.597151 0.093506
0.396140 0.779655 0.138057
0.406481 0.778643 0.137843
0.414494 0.775544 0.137316
0.647339 0.792891 0.135677
0.820487 0.782967 0.134927
0.912964 0.781686 0.131038
0.966779 0.775334 0.125488
0.978141 0.770512 0.124703
0.573055 0.900399 0.165366
0.583914 0.899854 0.165174
0.591779 0.897963 0.164559
0.677477 0.900875 0.162345
0.845141 0.904785 0.160013
0.919704 0.895931 0.160549
0.966985 0.884849 0.162297
0.979649 0.882159 0.162092
0.693115 0.972412 0.200378
0.704354 0.972382 0.200221
0.713723 0.972251 0.199720
0.729915 0.972032 0.198726
0.845864 0.970886 0.194174
0.926034 0.969299 0.196302
0.967233 0.953953 0.195648
0.981293 0.953705 0.196167
0.096453 0.083143 0.108459
0.130955 0.086665 0.107318
0.184758 0.091466 0.107709
0.361393 0.093789 0.104902
0.581002 0.096095 0.103660
0.745806 0.098816 0.105604
0.864711 0.101340 0.109253
0.880410 0.101585 0.109676
0.107365 0.118439 0.107579
0.130868 0.118068 0.107849
0.189680 0.117066 0.106785
0.376085 0.114084 0.103105
0.590659 0.112766 0.102609
0.748635 0.112789 0.104653
0.864401 0.113408 0.108368
0.880231 0.113312 0.108869
0.118992 0.174264 0.106742
0.132023 0.174028 0.106520
0.209359 0.178415 0.103807
0.450400 0.169285 0.100093
0.677621 0.163029 0.100721
0.819580 0.158486 0.102256
0.923235 0.156102 0.105408
0.938350 0.151118 0.105382
0.134822 0.332092 0.109357
0.146388 0.330397 0.109209
0.229283 0.351719 0.108198
0.531725 0.366272 0.105002
0.764117 0.358372 0.099574
0.885577 0.350621 0.099553
0.962080 0.350699 0.103141
0.975102 0.339792 0.104388
0.225364 0.588235 0.127215
0.235958 0.586334 0.127014
0.268603 0.587999 0.126521
0.602840 0.631491 0.130829
0.801099 0.620985 0.125253
0.907946 0.614057 0.112422
0.966457 0.606746 0.107173
0.976824 0.597656 0.106219
0.395743 0.779341 0.149706
0.406128 0.778399 0.149527
0.414071 0.775194 0.149044
0.646236 0.792515 0.147378
0.820034 0.782649 0.146641
0.912676 0.781380 0.142748
0.966723 0.775072 0.137164
0.978141 0.770237 0.136387
0.572837 0.900282 0.177015
0.583618 0.899711 0.176854
0.591496 0.897792 0.176248
0.676780 0.900665 0.174024
0.844783 0.904593 0.171674
0.919490 0.895804 0.172232
0.966954 0.884718 0.173946
0.979636 0.881967 0.173741
0.692989 0.972412 0.212062
0.704171 0.972364 0.211923
0.713584 0.972225 0.211426
0.729706 0.972028 0.210428
0.845533 0.970856 0.205889
0.925951 0.969299 0.208017
0.967220 0.953954 0.207345
0.981293 0.953657 0.207834
0.100046 0.088522 0.170942
0.130524 0.089521 0.169752
0.179901 0.093214 0.167864
0.348890 0.096824 0.172110
0.577536 0.098489 0.172865
0.748051 0.100704 0.177621
0.870375 0.103015 0.185102
0.886898 0.103284 0.186139
0.107387 0.118269 0.173118
0.129743 0.117022 0.173100
0.182308 0.117297 0.170846
0.360709 0.116294 0.173022
0.585554 0.114528 0.173026
0.750262 0.114301 0.177028
0.869956 0.114794 0.183842
0.886906 0.114951 0.185002
0.119084 0.179051 0.178310
0.132011 0.178785 0.178480
0.189933 0.185351 0.181467
0.432225 0.183136 0.179997
0.670184 0.173619 0.178450
0.815634 0.169255 0.181244
0.920772 0.165161 0.186341
0.936920 0.158657 0.186392
0.130837 0.351384 0.191555
0.142460 0.349609 0.191375
0.189231 0.378314 0.189797
0.515542 0.408578 0.186205
0.755092 0.392857 0.171788
0.879656 0.379865 0.169202
0.960506 0.374821 0.177438
0.974749 0.362270 0.179814
0.183088 0.622781 0.220524
0.193896 0.621063 0.220127
0.219242 0.621622 0.218449
0.572152 0.672019 0.213457
0.791626 0.662345 0.207175
0.903534 0.648860 0.191437
0.966239 0.637896 0.179727
0.976824 0.627969 0.177364
0.363006 0.799870 0.251722
0.373465 0.799059 0.251443
0.381705 0.796321 0.249930
0.607657 0.811798 0.232588
0.817134 0.814549 0.229375
0.909960 0.802913 0.225582
0.966614 0.794608 0.219583
0.978166 0.788775 0.218384
0.549438 0.910322 0.272391
0.560320 0.909777 0.271986
0.568364 0.908046 0.270992
0.646925 0.909258 0.258815
0.831125 0.913761 0.251818
0.918500 0.908077 0.251918
0.966906 0.895517 0.255968
0.979649 0.891418 0.255886
0.681749 0.973026 0.290863
0.693037 0.973005 0.290492
0.702506 0.972839 0.289791
0.718188 0.972626 0.284472
0.834625 0.971728 0.274732
0.922158 0.969774 0.276428
0.967172 0.956068 0.276057
0.981293 0.955409 0.276223
0.102648 0.091518 0.285832
0.130061 0.091845 0.286277
0.175354 0.094892 0.289062
0.337324 0.099295 0.300668
0.553785 0.106302 0.314915
0.726689 0.113787 0.333405
0.854374 0.120893 0.352369
0.871791 0.121778 0.354409
0.107662 0.117584 0.297551
0.129333 0.116390 0.296565
0.175773 0.116119 0.301723
0.344862 0.117667 0.307565
0.558106 0.122096 0.318255
0.726728 0.126997 0.333256
0.853729 0.132420 0.350547
0.871983 0.133362 0.352805
0.118696 0.182560 0.331072
0.131565 0.181719 0.330919
0.173174 0.180054 0.346702
0.397413 0.189789 0.350943
0.631836 0.195975 0.360020
0.788103 0.199973 0.371604
0.901123 0.204403 0.384073
0.920183 0.197457 0.382886
0.129944 0.375078 0.374847
0.141589 0.373492 0.374900
0.175123 0.398075 0.383375
0.443852 0.436973 0.405391
0.719317 0.433097 0.404746
0.858651 0.419525 0.399724
0.953181 0.408029 0.395429
0.970280 0.401018 0.400657
0.155348 0.646388 0.424661
0.166669 0.644858 0.424317
0.184771 0.644475 0.422995
0.491455 0.696328 0.436270
0.763275 0.697584 0.427935
0.887988 0.683267 0.410997
0.964264 0.668169 0.392757
0.976711 0.658561 0.391061
0.302434 0.815578 0.458618
0.312940 0.814798 0.458348
0.320914 0.812265 0.457289
0.533696 0.828239 0.456264
0.788047 0.837123 0.442592
0.897971 0.825234 0.438019
0.965458 0.816302 0.435242
0.977975 0.810054 0.430826
0.496778 0.921378 0.487126
0.507538 0.920916 0.486755
0.515267 0.919303 0.485583
0.584703 0.920559 0.479632
0.798061 0.925480 0.458121
0.909049 0.925236 0.456949
0.966627 0.911337 0.458867
0.979584 0.906028 0.463444
0.646040 0.976079 0.513449
0.657266 0.976039 0.513092
0.666521 0.975921 0.512403
0.681130 0.975721 0.506099
0.804801 0.973506 0.480416
0.910069 0.972138 0.476235
0.966871 0.962481 0.476022
0.981279 0.960672 0.475054
0.104305 0.094129 0.440914
0.129974 0.094151 0.443150
0.170419 0.096427 0.466893
0.311175 0.101057 0.461932
0.552119 0.109623 0.498614
0.721078 0.120819 0.523974
0.842324 0.133728 0.550459
0.859283 0.135154 0.553676
0.108063 0.117488 0.460702
0.129238 0.116381 0.458819
0.169734 0.115627 0.482235
0.314702 0.117872 0.471322
0.553188 0.124076 0.502224
0.719365 0.133152 0.523394
0.841452 0.145342 0.548920
0.859231 0.146877 0.552455
0.118369 0.182242 0.523145
0.131195 0.181270 0.522827
0.166338 0.177809 0.539673
0.352683 0.185385 0.543457
0.621538 0.198608 0.568080
0.774532 0.208767 0.582306
0.882377 0.221331 0.598454
0.901428 0.215616 0.597255
0.129368 0.388925 0.581909
0.141022 0.386723 0.581399
0.167293 0.403861 0.593968
0.364733 0.411975 0.624263
0.682177 0.444349 0.638934
0.825204 0.451634 0.643995
0.922904 0.453984 0.648869
0.944767 0.446054 0.649079
0.149715 0.660195 0.634605
0.161115 0.658735 0.634168
0.177774 0.657296 0.634334
0.432168 0.702449 0.661015
0.722582 0.711268 0.667254
0.864755 0.703735 0.661756
0.953905 0.693290 0.658177
0.969072 0.686375 0.657741
0.285095 0.820295 0.662999
0.295545 0.819471 0.662794
0.303550 0.817069 0.662031
0.481576 0.833095 0.667698
0.747999 0.844714 0.671971
0.879504 0.838008 0.665806
0.961034 0.829677 0.656852
0.975882 0.823835 0.652008
0.463859 0.924935 0.677085
0.474644 0.924443 0.676819
0.482675 0.922856 0.676317
0.535941 0.924569 0.673615
0.760346 0.931976 0.673710
0.890346 0.931776 0.668335
0.963462 0.921138 0.667367
0.977539 0.916827 0.674966
0.606921 0.978254 0.689685
0.618108 0.978215 0.689632
0.627259 0.978058 0.689244
0.640830 0.977896 0.686388
0.772334 0.976536 0.683258
0.894218 0.974880 0.675162
0.965877 0.968214 0.673126
0.980852 0.965581 0.671583
0.105669 0.096632 0.598969
0.130110 0.096702 0.601732
0.167489 0.098328 0.635088
0.303392 0.102979 0.638009
0.535374 0.112309 0.647073
0.729361 0.125406 0.691489
0.850520 0.139426 0.715249
0.867515 0.141052 0.718275
0.108551 0.117868 0.616734
0.129181 0.116852 0.616015
0.166177 0.115858 0.644182
0.303149 0.118565 0.644998
0.533439 0.125658 0.649022
0.726122 0.136945 0.690203
0.849658 0.150984 0.714177
0.867419 0.152714 0.717281
0.118304 0.183982 0.681780
0.131108 0.182975 0.681231
0.163339 0.179312 0.694724
0.323887 0.181933 0.709717
0.592656 0.200008 0.709617
0.774235 0.213789 0.740270
0.883514 0.226741 0.753239
0.903172 0.221405 0.752533
0.128811 0.396127 0.739532
0.140503 0.394004 0.739228
0.163805 0.403351 0.747262
0.320796 0.394758 0.770351
0.647173 0.430141 0.774070
0.820683 0.446363 0.790144
0.917454 0.454673 0.793165
0.941350 0.448425 0.791666
0.148281 0.676143 0.782135
0.159698 0.674661 0.781908
0.175210 0.671539 0.781930
0.385158 0.702606 0.801771
0.678750 0.696799 0.809745
0.845821 0.708283 0.810543
0.936519 0.708535 0.808507
0.954115 0.704324 0.807861
0.277501 0.821699 0.793178
0.288008 0.820897 0.793051
0.295689 0.818468 0.792546
0.460606 0.832890 0.801326
0.720926 0.845694 0.811471
0.861498 0.842678 0.810996
0.950042 0.837446 0.808689
0.966265 0.833252 0.808528
0.456451 0.925628 0.803807
0.467316 0.925176 0.803668
0.475346 0.923615 0.803375
0.521157 0.924888 0.803406
0.733281 0.933031 0.807796
0.870754 0.933895 0.810699
0.955113 0.926971 0.809309
0.971566 0.924112 0.811999
0.595686 0.978140 0.810956
0.606881 0.978088 0.810795
0.616072 0.977953 0.810573
0.629238 0.977783 0.809226
0.746072 0.977940 0.808297
0.876129 0.976986 0.811135
0.960994 0.971344 0.807735
0.978381 0.969526 0.806392
0.107051 0.099561 0.749337
0.130449 0.099819 0.751687
0.165662 0.101096 0.781255
0.301627 0.106873 0.791957
0.547355 0.118770 0.791495
0.725294 0.132442 0.808785
0.863757 0.150896 0.844792
0.880659 0.152631 0.847312
0.109057 0.119825 0.759696
0.129246 0.118774 0.759504
0.164076 0.117540 0.784258
0.296766 0.121168 0.794800
0.542249 0.131191 0.791822
0.721688 0.143703 0.807765
0.862985 0.162471 0.844190
0.880611 0.164359 0.846754
0.118400 0.189793 0.811210
0.131195 0.188686 0.810656
0.161695 0.185883 0.820544
0.298968 0.184034 0.837577
0.582532 0.207868 0.835148
0.758741 0.223249 0.843279
0.887356 0.239581 0.869581
0.906947 0.233756 0.868883
0.128466 0.404633 0.857274
0.140132 0.402448 0.856999
0.162353 0.405518 0.861359
0.293732 0.394475 0.877760
0.619040 0.414546 0.884417
0.801017 0.445182 0.884216
0.915906 0.457611 0.897038
0.941633 0.452633 0.894649
0.145346 0.684378 0.889509
0.156751 0.682962 0.889404
0.171797 0.678951 0.889378
0.342917 0.698591 0.906054
0.638432 0.679077 0.911512
0.827201 0.697614 0.904410
0.932613 0.701992 0.908578
0.953208 0.699872 0.905596
0.279079 0.834686 0.900587
0.289656 0.833941 0.900535
0.297202 0.831451 0.900216
0.433720 0.837755 0.904615
0.691655 0.843488 0.912659
0.841518 0.835789 0.911944
0.939994 0.839517 0.911652
0.958862 0.837594 0.909428
0.450244 0.925590 0.899772
0.461081 0.925101 0.899645
0.469221 0.923510 0.899445
0.509752 0.924486 0.900578
0.722076 0.932469 0.907105
0.854117 0.934052 0.910518
0.946376 0.929931 0.910910
0.965646 0.928110 0.910710
0.589961 0.978232 0.903503
0.601092 0.978189 0.903434
0.610212 0.978062 0.903264
0.623243 0.977897 0.902649
0.737130 0.978019 0.905391
0.861760 0.978263 0.909468
0.953522 0.974217 0.909545
0.973689 0.972809 0.908796
0.108368 0.103607 0.861908
0.130824 0.103864 0.863639
0.164085 0.104810 0.887085
0.289246 0.111324 0.902731
0.549094 0.123801 0.901232
0.726654 0.139348 0.907257
0.849068 0.156381 0.921757
0.866028 0.158142 0.923279
0.109728 0.122035 0.868129
0.129508 0.121333 0.867942
0.162672 0.119799 0.888201
0.283015 0.124324 0.904100
0.542773 0.135127 0.901232
0.723070 0.150766 0.907017
0.848314 0.167995 0.921649
0.866028 0.169887 0.923279
0.118582 0.194149 0.911382
0.131374 0.192976 0.910997
0.160989 0.190778 0.918200
0.281721 0.189366 0.929182
0.569633 0.207785 0.934980
0.751635 0.228272 0.935185
0.870340 0.243125 0.944881
0.891210 0.237924 0.944558
0.128928 0.410466 0.942579
0.140595 0.408342 0.942457
0.162737 0.407366 0.942671
0.303754 0.430507 0.948029
0.602940 0.436149 0.956011
0.786639 0.449655 0.961683
0.898263 0.460706 0.966658
0.928820 0.452488 0.967207
0.147291 0.684104 0.964866
0.158709 0.682704 0.964756
0.173410 0.677769 0.964473
0.346715 0.698456 0.967599
0.640097 0.694428 0.969321
0.812893 0.695491 0.971174
0.918440 0.697780 0.971471
0.947532 0.692296 0.971257
0.278887 0.833339 0.971496
0.289337 0.832598 0.971492
0.296622 0.830222 0.971483
0.418117 0.834355 0.971309
0.682822 0.840389 0.972251
0.830510 0.834673 0.971697
0.928366 0.835074 0.972107
0.954354 0.832114 0.971884
0.454416 0.931597 0.971322
0.465310 0.931139 0.971309
0.473345 0.929596 0.971278
0.506578 0.928890 0.971283
0.708954 0.931985 0.971802
0.843902 0.931479 0.973053
0.937627 0.929417 0.974130
0.962446 0.928345 0.974553
0.587555 0.978027 0.964996
0.598689 0.977979 0.964979
0.608059 0.977871 0.964935
0.621268 0.977753 0.964896
0.729841 0.978045 0.967132
0.856084 0.978163 0.971104
0.945639 0.975102 0.971741
0.969940 0.974365 0.971741