example-Advanced/bin/data/ofxGpuLutCube/LUT/Hollywood-5.cube
#Generated by Picture Instruments - Look Creator
TITLE "400h+1-"
LUT_3D_SIZE 9
0.0313725 0.0313725 0.0313725
0.0901961 0.0352941 0.027451
0.207843 0.00392157 0.0196078
0.356863 0 0
0.513725 0 0
0.658824 0 0
0.792157 0 0
0.890196 0.109804 0
0.956863 0.227451 0
0.054902 0.101961 0.0627451
0.0980392 0.105882 0.0509804
0.215686 0.109804 0.027451
0.360784 0.0784314 0
0.521569 0.0117647 0
0.670588 0.0117647 0
0.796078 0.109804 0
0.898039 0.211765 0
0.960784 0.282353 0
0.0784314 0.219608 0.101961
0.109804 0.223529 0.101961
0.215686 0.235294 0.0745098
0.380392 0.254902 0.0117647
0.537255 0.254902 0
0.67451 0.258824 0
0.803922 0.294118 0
0.898039 0.341176 0
0.968627 0.384314 0
0.129412 0.368627 0.168627
0.152941 0.376471 0.160784
0.231373 0.388235 0.152941
0.368627 0.392157 0.109804
0.552941 0.427451 0.0392157
0.690196 0.439216 0
0.811765 0.458824 0
0.901961 0.482353 0
0.968627 0.501961 0
0.211765 0.529412 0.258824
0.239216 0.541176 0.258824
0.301961 0.552941 0.262745
0.403922 0.54902 0.235294
0.537255 0.54902 0.192157
0.698039 0.580392 0.14902
0.811765 0.596078 0.113725
0.905882 0.611765 0.0784314
0.972549 0.623529 0.0470588
0.333333 0.678431 0.372549
0.341176 0.682353 0.372549
0.388235 0.678431 0.368627
0.462745 0.686275 0.368627
0.572549 0.682353 0.341176
0.686275 0.678431 0.286275
0.811765 0.694118 0.247059
0.905882 0.713725 0.25098
0.972549 0.729412 0.258824
0.47451 0.796078 0.509804
0.470588 0.792157 0.494118
0.501961 0.792157 0.494118
0.552941 0.792157 0.498039
0.627451 0.8 0.494118
0.709804 0.788235 0.447059
0.8 0.784314 0.403922
0.901961 0.8 0.372549
0.968627 0.811765 0.4
0.619608 0.878431 0.647059
0.611765 0.878431 0.631373
0.623529 0.878431 0.627451
0.662745 0.878431 0.635294
0.709804 0.882353 0.643137
0.752941 0.870588 0.615686
0.823529 0.87451 0.592157
0.894118 0.870588 0.545098
0.960784 0.882353 0.52549
0.741176 0.941176 0.760784
0.733333 0.937255 0.74902
0.741176 0.937255 0.745098
0.764706 0.937255 0.752941
0.796078 0.941176 0.764706
0.835294 0.94902 0.776471
0.870588 0.945098 0.764706
0.921569 0.952941 0.756863
0.968627 0.956863 0.745098
0.0313725 0.0470588 0.0980392
0.0941176 0.0470588 0.0941176
0.203922 0.00784314 0.0901961
0.34902 0 0.0862745
0.509804 0 0.0666667
0.658824 0 0.00784314
0.788235 0 0
0.886275 0.121569 0
0.960784 0.235294 0
0.054902 0.109804 0.113725
0.113725 0.121569 0.117647
0.219608 0.117647 0.113725
0.360784 0.0941176 0.0980392
0.521569 0.0470588 0.0784314
0.666667 0.027451 0.00784314
0.788235 0.121569 0
0.894118 0.211765 0
0.956863 0.282353 0
0.113725 0.227451 0.156863
0.141176 0.231373 0.152941
0.231373 0.239216 0.141176
0.388235 0.258824 0.121569
0.541176 0.262745 0.0980392
0.678431 0.270588 0.0392157
0.8 0.301961 0
0.898039 0.345098 0
0.968627 0.388235 0
0.172549 0.368627 0.223529
0.192157 0.380392 0.215686
0.254902 0.396078 0.215686
0.384314 0.396078 0.176471
0.556863 0.427451 0.14902
0.701961 0.447059 0.117647
0.807843 0.462745 0.0745098
0.898039 0.486275 0.0117647
0.968627 0.505882 0
0.262745 0.533333 0.317647
0.262745 0.537255 0.294118
0.313725 0.545098 0.294118
0.415686 0.552941 0.286275
0.54902 0.552941 0.247059
0.694118 0.576471 0.203922
0.811765 0.596078 0.192157
0.905882 0.619608 0.184314
0.976471 0.627451 0.168627
0.360784 0.670588 0.411765
0.364706 0.678431 0.407843
0.4 0.682353 0.396078
0.47451 0.682353 0.4
0.572549 0.686275 0.372549
0.682353 0.678431 0.317647
0.815686 0.701961 0.301961
0.905882 0.717647 0.294118
0.976471 0.737255 0.305882
0.478431 0.784314 0.52549
0.486275 0.788235 0.521569
0.509804 0.788235 0.513725
0.560784 0.796078 0.521569
0.631373 0.796078 0.513725
0.721569 0.796078 0.482353
0.803922 0.784314 0.427451
0.901961 0.803922 0.407843
0.968627 0.815686 0.431373
0.615686 0.87451 0.647059
0.619608 0.870588 0.643137
0.631373 0.87451 0.639216
0.666667 0.878431 0.647059
0.709804 0.882353 0.654902
0.760784 0.878431 0.639216
0.827451 0.878431 0.607843
0.898039 0.87451 0.568627
0.968627 0.890196 0.552941
0.745098 0.937255 0.768627
0.741176 0.941176 0.760784
0.745098 0.933333 0.752941
0.776471 0.945098 0.764706
0.803922 0.945098 0.776471
0.839216 0.94902 0.788235
0.878431 0.94902 0.776471
0.92549 0.960784 0.772549
0.968627 0.956863 0.756863
0 0.0666667 0.215686
0.0745098 0.0666667 0.207843
0.192157 0.0392157 0.196078
0.337255 0.0117647 0.188235
0.498039 0 0.180392
0.654902 0 0.176471
0.780392 0 0.176471
0.894118 0.156863 0.14902
0.964706 0.25098 0.0980392
0.0156863 0.129412 0.223529
0.105882 0.129412 0.223529
0.215686 0.129412 0.211765
0.352941 0.12549 0.211765
0.513725 0.027451 0.2
0.658824 0.0588235 0.196078
0.784314 0.145098 0.176471
0.890196 0.227451 0.152941
0.968627 0.301961 0.117647
0.101961 0.239216 0.243137
0.14902 0.243137 0.243137
0.247059 0.254902 0.25098
0.372549 0.25098 0.239216
0.529412 0.258824 0.231373
0.678431 0.278431 0.219608
0.792157 0.305882 0.203922
0.894118 0.34902 0.180392
0.968627 0.4 0.156863
0.192157 0.384314 0.298039
0.227451 0.392157 0.305882
0.286275 0.396078 0.305882
0.396078 0.407843 0.286275
0.556863 0.431373 0.270588
0.690196 0.447059 0.262745
0.8 0.458824 0.247059
0.898039 0.486275 0.231373
0.972549 0.513725 0.215686
0.294118 0.537255 0.384314
0.321569 0.541176 0.388235
0.356863 0.54902 0.372549
0.431373 0.556863 0.372549
0.552941 0.556863 0.333333
0.698039 0.576471 0.313725
0.815686 0.603922 0.313725
0.901961 0.615686 0.305882
0.976471 0.635294 0.305882
0.403922 0.670588 0.478431
0.427451 0.678431 0.482353
0.447059 0.682353 0.470588
0.498039 0.690196 0.470588
0.588235 0.690196 0.45098
0.694118 0.682353 0.403922
0.815686 0.705882 0.380392
0.901961 0.721569 0.388235
0.972549 0.737255 0.396078
0.521569 0.780392 0.584314
0.533333 0.784314 0.580392
0.541176 0.788235 0.568627
0.584314 0.796078 0.568627
0.643137 0.796078 0.572549
0.717647 0.792157 0.537255
0.815686 0.792157 0.501961
0.905882 0.807843 0.478431
0.968627 0.823529 0.505882
0.639216 0.866667 0.678431
0.647059 0.87451 0.686275
0.654902 0.878431 0.678431
0.678431 0.87451 0.67451
0.72549 0.882353 0.682353
0.772549 0.886275 0.682353
0.839216 0.882353 0.654902
0.905882 0.886275 0.619608
0.964706 0.890196 0.596078
0.760784 0.937255 0.792157
0.760784 0.937255 0.784314
0.764706 0.941176 0.780392
0.780392 0.945098 0.784314
0.811765 0.945098 0.792157
0.85098 0.952941 0.803922
0.882353 0.952941 0.796078
0.929412 0.964706 0.792157
0.968627 0.964706 0.772549
0 0.0862745 0.372549
0 0.0823529 0.360784
0.184314 0.0823529 0.356863
0.34902 0.0509804 0.352941
0.498039 0.105882 0.32549
0.658824 0.0156863 0.337255
0.784314 0.00392157 0.32549
0.886275 0.137255 0.321569
0.956863 0.247059 0.298039
0 0.14902 0.368627
0.0509804 0.152941 0.368627
0.207843 0.152941 0.360784
0.352941 0.14902 0.360784
0.505882 0.184314 0.345098
0.658824 0.145098 0.345098
0.780392 0.129412 0.333333
0.882353 0.219608 0.333333
0.964706 0.301961 0.313725
0.0470588 0.258824 0.380392
0.137255 0.266667 0.388235
0.247059 0.27451 0.388235
0.376471 0.27451 0.380392
0.521569 0.290196 0.376471
0.662745 0.270588 0.364706
0.784314 0.305882 0.364706
0.882353 0.34902 0.34902
0.968627 0.4 0.337255
0.172549 0.4 0.407843
0.215686 0.403922 0.411765
0.309804 0.419608 0.423529
0.419608 0.427451 0.423529
0.552941 0.431373 0.419608
0.682353 0.443137 0.403922
0.8 0.462745 0.403922
0.894118 0.486275 0.388235
0.964706 0.513725 0.376471
0.294118 0.537255 0.454902
0.329412 0.545098 0.462745
0.388235 0.552941 0.47451
0.466667 0.560784 0.47451
0.568627 0.568627 0.458824
0.701961 0.592157 0.447059
0.811765 0.603922 0.447059
0.894118 0.607843 0.431373
0.964706 0.627451 0.427451
0.411765 0.666667 0.533333
0.439216 0.678431 0.54902
0.486275 0.678431 0.552941
0.537255 0.694118 0.556863
0.6 0.690196 0.541176
0.694118 0.686275 0.498039
0.807843 0.701961 0.486275
0.901961 0.72549 0.494118
0.968627 0.737255 0.498039
0.521569 0.780392 0.619608
0.545098 0.780392 0.631373
0.584314 0.784314 0.635294
0.607843 0.788235 0.627451
0.658824 0.796078 0.631373
0.72549 0.796078 0.607843
0.807843 0.788235 0.568627
0.898039 0.803922 0.552941
0.960784 0.819608 0.572549
0.65098 0.870588 0.717647
0.662745 0.870588 0.717647
0.690196 0.870588 0.729412
0.698039 0.87451 0.713725
0.737255 0.882353 0.721569
0.784314 0.890196 0.729412
0.831373 0.878431 0.690196
0.898039 0.878431 0.658824
0.964706 0.890196 0.647059
0.772549 0.941176 0.811765
0.780392 0.937255 0.811765
0.780392 0.933333 0.811765
0.8 0.945098 0.811765
0.811765 0.945098 0.807843
0.85098 0.94902 0.823529
0.886275 0.952941 0.815686
0.933333 0.964706 0.815686
0.968627 0.960784 0.796078
0 0.121569 0.513725
0 0.121569 0.509804
0.152941 0.117647 0.498039
0.32549 0.109804 0.490196
0.490196 0.109804 0.494118
0.635294 0.188235 0.47451
0.764706 0.219608 0.482353
0.870588 0.243137 0.478431
0.94902 0.294118 0.478431
0 0.180392 0.513725
0 0.180392 0.505882
0.184314 0.176471 0.501961
0.337255 0.172549 0.494118
0.490196 0.180392 0.490196
0.631373 0.247059 0.478431
0.764706 0.262745 0.486275
0.87451 0.294118 0.490196
0.94902 0.337255 0.490196
0 0.278431 0.513725
0.109804 0.282353 0.517647
0.239216 0.286275 0.517647
0.360784 0.286275 0.505882
0.513725 0.298039 0.513725
0.643137 0.34902 0.501961
0.772549 0.356863 0.513725
0.878431 0.376471 0.513725
0.952941 0.411765 0.513725
0.160784 0.411765 0.533333
0.211765 0.419608 0.541176
0.294118 0.427451 0.537255
0.415686 0.431373 0.545098
0.537255 0.435294 0.533333
0.666667 0.466667 0.541176
0.784314 0.466667 0.541176
0.882353 0.482353 0.537255
0.956863 0.505882 0.521569
0.282353 0.54902 0.560784
0.321569 0.556863 0.560784
0.384314 0.560784 0.572549
0.470588 0.564706 0.572549
0.580392 0.580392 0.580392
0.694118 0.584314 0.572549
0.8 0.592157 0.568627
0.890196 0.607843 0.560784
0.956863 0.623529 0.54902
0.411765 0.662745 0.6
0.439216 0.678431 0.615686
0.486275 0.678431 0.611765
0.556863 0.686275 0.623529
0.627451 0.694118 0.631373
0.701961 0.694118 0.611765
0.811765 0.709804 0.603922
0.898039 0.729412 0.611765
0.964706 0.737255 0.607843
0.52549 0.780392 0.67451
0.537255 0.780392 0.67451
0.572549 0.784314 0.682353
0.631373 0.788235 0.686275
0.682353 0.792157 0.694118
0.741176 0.796078 0.694118
0.811765 0.796078 0.658824
0.901961 0.811765 0.65098
0.964706 0.827451 0.662745
0.627451 0.87451 0.745098
0.643137 0.87451 0.74902
0.670588 0.870588 0.74902
0.721569 0.87451 0.768627
0.752941 0.882353 0.768627
0.796078 0.886275 0.772549
0.843137 0.886275 0.752941
0.898039 0.886275 0.721569
0.964706 0.894118 0.713725
0.752941 0.945098 0.827451
0.760784 0.941176 0.827451
0.780392 0.941176 0.835294
0.811765 0.941176 0.847059
0.831373 0.94902 0.839216
0.858824 0.956863 0.847059
0.894118 0.956863 0.854902
0.92549 0.960784 0.835294
0.968627 0.964706 0.827451
0 0.160784 0.635294
0 0.164706 0.639216
0.156863 0.168627 0.639216
0.329412 0.156863 0.631373
0.47451 0.145098 0.619608
0.627451 0.188235 0.627451
0.74902 0.290196 0.607843
0.85098 0.364706 0.611765
0.933333 0.411765 0.627451
0 0.203922 0.623529
0 0.211765 0.631373
0.184314 0.215686 0.635294
0.333333 0.207843 0.627451
0.470588 0.2 0.615686
0.623529 0.235294 0.623529
0.745098 0.329412 0.619608
0.854902 0.392157 0.619608
0.933333 0.435294 0.635294
0 0.301961 0.631373
0.0862745 0.305882 0.639216
0.231373 0.309804 0.635294
0.364706 0.313725 0.635294
0.490196 0.305882 0.623529
0.635294 0.337255 0.631373
0.74902 0.407843 0.623529
0.854902 0.454902 0.639216
0.933333 0.486275 0.643137
0.156863 0.431373 0.65098
0.211765 0.435294 0.654902
0.301961 0.443137 0.658824
0.411765 0.439216 0.654902
0.529412 0.439216 0.65098
0.654902 0.458824 0.65098
0.764706 0.513725 0.647059
0.862745 0.533333 0.662745
0.937255 0.552941 0.666667
0.286275 0.564706 0.67451
0.313725 0.564706 0.670588
0.376471 0.572549 0.678431
0.466667 0.572549 0.678431
0.568627 0.576471 0.67451
0.682353 0.588235 0.682353
0.784314 0.615686 0.682353
0.878431 0.615686 0.682353
0.94902 0.631373 0.682353
0.411765 0.682353 0.701961
0.431373 0.686275 0.701961
0.478431 0.686275 0.701961
0.541176 0.690196 0.701961
0.623529 0.694118 0.709804
0.713725 0.705882 0.717647
0.807843 0.705882 0.709804
0.894118 0.721569 0.709804
0.956863 0.72549 0.705882
0.537255 0.784314 0.741176
0.54902 0.792157 0.741176
0.580392 0.792157 0.741176
0.635294 0.792157 0.74902
0.694118 0.796078 0.752941
0.756863 0.803922 0.764706
0.815686 0.803922 0.745098
0.898039 0.815686 0.741176
0.952941 0.827451 0.745098
0.647059 0.878431 0.8
0.647059 0.87451 0.788235
0.670588 0.87451 0.796078
0.709804 0.878431 0.8
0.760784 0.882353 0.811765
0.811765 0.886275 0.823529
0.847059 0.894118 0.815686
0.905882 0.890196 0.792157
0.960784 0.901961 0.788235
0.729412 0.94902 0.843137
0.737255 0.94902 0.847059
0.756863 0.952941 0.847059
0.780392 0.945098 0.85098
0.839216 0.952941 0.87451
0.870588 0.952941 0.878431
0.901961 0.964706 0.890196
0.929412 0.964706 0.87451
0.968627 0.968627 0.858824
0 0.219608 0.764706
0 0.219608 0.764706
0.196078 0.219608 0.760784
0.345098 0.211765 0.752941
0.490196 0.215686 0.745098
0.611765 0.211765 0.737255
0.74902 0.282353 0.745098
0.835294 0.396078 0.72549
0.913725 0.513725 0.733333
0 0.258824 0.756863
0.0156863 0.262745 0.760784
0.219608 0.258824 0.752941
0.360784 0.258824 0.74902
0.490196 0.254902 0.741176
0.611765 0.25098 0.737255
0.741176 0.313725 0.741176
0.827451 0.419608 0.721569
0.917647 0.537255 0.745098
0.0156863 0.345098 0.760784
0.141176 0.345098 0.752941
0.258824 0.345098 0.756863
0.392157 0.34902 0.756863
0.505882 0.345098 0.752941
0.623529 0.345098 0.745098
0.752941 0.4 0.752941
0.839216 0.486275 0.737255
0.917647 0.568627 0.74902
0.188235 0.462745 0.768627
0.227451 0.458824 0.764706
0.313725 0.458824 0.764706
0.427451 0.462745 0.764706
0.537255 0.466667 0.764706
0.643137 0.462745 0.756863
0.756863 0.494118 0.756863
0.847059 0.564706 0.745098
0.921569 0.619608 0.764706
0.298039 0.584314 0.780392
0.317647 0.576471 0.772549
0.384314 0.588235 0.784314
0.458824 0.576471 0.772549
0.568627 0.584314 0.772549
0.666667 0.580392 0.764706
0.772549 0.596078 0.764706
0.85098 0.654902 0.768627
0.92549 0.67451 0.780392
0.4 0.690196 0.788235
0.427451 0.690196 0.792157
0.470588 0.698039 0.792157
0.529412 0.694118 0.788235
0.615686 0.701961 0.796078
0.705882 0.698039 0.792157
0.792157 0.705882 0.788235
0.870588 0.737255 0.8
0.941176 0.741176 0.8
0.513725 0.784314 0.803922
0.529412 0.784314 0.807843
0.560784 0.788235 0.803922
0.615686 0.792157 0.811765
0.678431 0.792157 0.815686
0.74902 0.803922 0.815686
0.827451 0.807843 0.823529
0.898039 0.819608 0.827451
0.956863 0.823529 0.823529
0.631373 0.878431 0.843137
0.639216 0.878431 0.847059
0.666667 0.878431 0.847059
0.701961 0.882353 0.843137
0.752941 0.882353 0.847059
0.803922 0.878431 0.854902
0.858824 0.886275 0.858824
0.901961 0.894118 0.847059
0.964706 0.901961 0.854902
0.737255 0.952941 0.882353
0.741176 0.952941 0.878431
0.756863 0.952941 0.886275
0.776471 0.94902 0.882353
0.811765 0.952941 0.890196
0.85098 0.956863 0.898039
0.901961 0.956863 0.905882
0.929412 0.964706 0.901961
0.968627 0.968627 0.894118
0.141176 0.301961 0.870588
0.207843 0.305882 0.870588
0.305882 0.305882 0.870588
0.419608 0.305882 0.862745
0.533333 0.301961 0.858824
0.643137 0.301961 0.847059
0.74902 0.317647 0.843137
0.854902 0.407843 0.85098
0.905882 0.513725 0.827451
0.168627 0.333333 0.866667
0.227451 0.341176 0.866667
0.313725 0.337255 0.858824
0.419608 0.333333 0.858824
0.537255 0.333333 0.858824
0.65098 0.337255 0.85098
0.745098 0.345098 0.843137
0.85098 0.423529 0.843137
0.905882 0.533333 0.827451
0.215686 0.403922 0.866667
0.262745 0.407843 0.866667
0.341176 0.407843 0.862745
0.439216 0.403922 0.862745
0.54902 0.403922 0.858824
0.654902 0.407843 0.854902
0.74902 0.411765 0.847059
0.862745 0.490196 0.858824
0.909804 0.576471 0.835294
0.258824 0.494118 0.870588
0.298039 0.498039 0.870588
0.372549 0.501961 0.866667
0.466667 0.501961 0.866667
0.568627 0.501961 0.862745
0.658824 0.498039 0.847059
0.752941 0.494118 0.847059
0.858824 0.560784 0.854902
0.905882 0.631373 0.843137
0.321569 0.607843 0.878431
0.337255 0.6 0.87451
0.396078 0.603922 0.878431
0.486275 0.6 0.87451
0.588235 0.607843 0.866667
0.682353 0.6 0.862745
0.768627 0.6 0.862745
0.870588 0.643137 0.870588
0.917647 0.698039 0.854902
0.419608 0.713725 0.878431
0.435294 0.709804 0.87451
0.466667 0.705882 0.878431
0.529412 0.701961 0.878431
0.603922 0.698039 0.878431
0.698039 0.701961 0.87451
0.780392 0.698039 0.866667
0.870588 0.721569 0.866667
0.929412 0.772549 0.866667
0.52549 0.803922 0.890196
0.537255 0.803922 0.886275
0.564706 0.803922 0.886275
0.615686 0.803922 0.890196
0.666667 0.803922 0.890196
0.737255 0.8 0.890196
0.811765 0.8 0.882353
0.882353 0.807843 0.882353
0.945098 0.835294 0.890196
0.623529 0.882353 0.894118
0.635294 0.882353 0.901961
0.658824 0.886275 0.901961
0.690196 0.882353 0.898039
0.737255 0.886275 0.898039
0.788235 0.882353 0.898039
0.847059 0.882353 0.901961
0.905882 0.898039 0.909804
0.956863 0.898039 0.901961
0.713725 0.952941 0.921569
0.733333 0.956863 0.929412
0.745098 0.952941 0.921569
0.768627 0.952941 0.921569
0.803922 0.94902 0.921569
0.854902 0.960784 0.933333
0.890196 0.956863 0.92549
0.937255 0.968627 0.941176
0.968627 0.972549 0.933333
0.380392 0.431373 0.94902
0.407843 0.435294 0.94902
0.458824 0.439216 0.94902
0.529412 0.439216 0.952941
0.615686 0.435294 0.941176
0.701961 0.443137 0.941176
0.788235 0.45098 0.937255
0.866667 0.486275 0.933333
0.937255 0.564706 0.933333
0.392157 0.458824 0.94902
0.415686 0.458824 0.94902
0.458824 0.458824 0.94902
0.533333 0.458824 0.952941
0.619608 0.458824 0.945098
0.701961 0.466667 0.941176
0.784314 0.470588 0.933333
0.866667 0.501961 0.929412
0.929412 0.576471 0.92549
0.415686 0.509804 0.94902
0.431373 0.513725 0.952941
0.482353 0.513725 0.952941
0.54902 0.513725 0.952941
0.619608 0.509804 0.941176
0.709804 0.513725 0.945098
0.792157 0.517647 0.937255
0.870588 0.537255 0.933333
0.937255 0.611765 0.933333
0.415686 0.568627 0.94902
0.443137 0.580392 0.94902
0.498039 0.584314 0.94902
0.564706 0.584314 0.945098
0.643137 0.584314 0.94902
0.717647 0.580392 0.941176
0.796078 0.584314 0.941176
0.870588 0.596078 0.941176
0.933333 0.65098 0.933333
0.388235 0.635294 0.94902
0.415686 0.639216 0.956863
0.47451 0.639216 0.952941
0.564706 0.65098 0.945098
0.647059 0.654902 0.945098
0.72549 0.654902 0.945098
0.803922 0.654902 0.941176
0.87451 0.654902 0.941176
0.937255 0.705882 0.937255
0.458824 0.729412 0.952941
0.482353 0.737255 0.956863
0.509804 0.729412 0.952941
0.560784 0.72549 0.956863
0.635294 0.721569 0.94902
0.733333 0.733333 0.945098
0.807843 0.733333 0.94902
0.878431 0.733333 0.945098
0.941176 0.764706 0.945098
0.552941 0.823529 0.956863
0.568627 0.827451 0.960784
0.588235 0.819608 0.952941
0.623529 0.815686 0.952941
0.678431 0.815686 0.960784
0.733333 0.803922 0.960784
0.815686 0.807843 0.952941
0.882353 0.803922 0.94902
0.94902 0.831373 0.94902
0.647059 0.898039 0.964706
0.654902 0.898039 0.964706
0.67451 0.898039 0.964706
0.701961 0.898039 0.964706
0.737255 0.898039 0.964706
0.784314 0.894118 0.960784
0.831373 0.886275 0.956863
0.898039 0.890196 0.960784
0.960784 0.894118 0.960784
0.737255 0.964706 0.972549
0.745098 0.960784 0.972549
0.752941 0.956863 0.968627
0.776471 0.964706 0.972549
0.803922 0.960784 0.972549
0.843137 0.964706 0.972549
0.882353 0.964706 0.972549
0.929412 0.968627 0.972549
0.972549 0.972549 0.976471
