example-Advanced/bin/data/ofxGpuLutCube/LUT/Hollywood-35.cube
# (C) 2014 VisionColor & Patchflyer [www.vision-color.com]
# Generator: VC Patchmatch v.2.1.1 [64/53]
# All work and no play makes Jack a dull boy.
# LUT generated from: Fuji Superior 200_FC
LUT_3D_SIZE 5
0.028260 0.027680 0.027558
0.110536 0.027070 0.025391
0.435782 0.048096 0.024323
0.708766 0.072572 0.029480
0.783291 0.084565 0.035737
0.031098 0.080262 0.039063
0.234882 0.188083 0.052308
0.600717 0.166659 0.041596
0.774624 0.163882 0.043946
0.831540 0.180362 0.057465
0.135134 0.345480 0.138643
0.272053 0.493126 0.140078
0.808362 0.623697 0.203372
0.914336 0.637064 0.176410
0.919280 0.635721 0.242512
0.293095 0.610986 0.324315
0.385412 0.753658 0.366461
0.822919 0.916869 0.297475
0.947082 0.943420 0.695537
0.947814 0.938018 0.759426
0.181064 0.439063 0.231510
0.438239 0.896819 0.433661
0.762432 0.944732 0.595041
0.947326 0.948089 0.787655
0.948302 0.948241 0.789883
0.026947 0.027558 0.076936
0.103334 0.025238 0.084047
0.480812 0.027253 0.078248
0.738003 0.029480 0.064485
0.830198 0.047974 0.076844
0.026307 0.089601 0.111696
0.113741 0.124392 0.108186
0.591989 0.086671 0.066316
0.814084 0.071351 0.053254
0.866667 0.135470 0.104524
0.124849 0.364584 0.233097
0.234089 0.507820 0.255299
0.764508 0.625620 0.249165
0.914855 0.591989 0.224506
0.916136 0.620188 0.332265
0.276280 0.675990 0.434119
0.341680 0.771267 0.450050
0.801312 0.933684 0.344472
0.947051 0.947143 0.705028
0.947753 0.945434 0.733700
0.380529 0.900298 0.544182
0.415473 0.910704 0.501060
0.778912 0.943999 0.564370
0.947417 0.947845 0.746517
0.947845 0.947845 0.742763
0.027100 0.029053 0.184604
0.061860 0.026276 0.232074
0.410361 0.027527 0.253742
0.729427 0.033936 0.290990
0.786923 0.059510 0.305425
0.024567 0.091035 0.241672
0.041382 0.073518 0.335164
0.478035 0.064973 0.342138
0.795071 0.065583 0.293538
0.833402 0.152834 0.336736
0.110262 0.372915 0.366690
0.150027 0.482353 0.491234
0.504372 0.486900 0.461265
0.891478 0.436957 0.395636
0.892760 0.571878 0.527077
0.240024 0.752377 0.583734
0.271580 0.870604 0.673533
0.640497 0.942748 0.594629
0.947356 0.946960 0.776593
0.949096 0.940673 0.827054
0.301976 0.911742 0.687358
0.293706 0.925109 0.722301
0.720256 0.947417 0.727764
0.948180 0.949523 0.834043
0.951751 0.951659 0.857145
0.026917 0.031373 0.312749
0.035523 0.029145 0.458930
0.307057 0.025696 0.434577
0.663020 0.034424 0.456703
0.703853 0.064851 0.468055
0.024445 0.071229 0.407904
0.027985 0.056397 0.554330
0.268879 0.042206 0.567864
0.692866 0.085451 0.511345
0.707271 0.158694 0.514183
0.106813 0.374990 0.515465
0.104280 0.452659 0.657298
0.074754 0.276448 0.778531
0.708614 0.436194 0.778286
0.778607 0.561654 0.822232
0.188663 0.810208 0.827573
0.127749 0.858183 0.873625
0.232471 0.895598 0.903380
0.856901 0.878355 0.869566
0.949004 0.896208 0.879179
0.144533 0.861387 0.869810
0.110872 0.848112 0.876982
0.517281 0.940154 0.918700
0.887877 0.950439 0.905760
0.955108 0.955108 0.909331
0.028290 0.032105 0.407538
0.032532 0.029511 0.541466
0.283284 0.025696 0.495247
0.674128 0.039796 0.485725
0.698604 0.064454 0.480964
0.024384 0.062989 0.505791
0.026886 0.056428 0.638392
0.216876 0.035798 0.634333
0.677241 0.093629 0.582361
0.678431 0.154208 0.567468
0.104524 0.407401 0.594827
0.082795 0.468650 0.740673
0.157107 0.400824 0.800778
0.735561 0.534798 0.823148
0.792035 0.594583 0.842405
0.136507 0.809293 0.883116
0.111635 0.833219 0.886015
0.335561 0.846036 0.899504
0.834104 0.874632 0.917815
0.935393 0.887968 0.925505
0.127687 0.853422 0.881804
0.104982 0.842649 0.879454
0.481559 0.938567 0.931304
0.831708 0.946777 0.938750
0.958953 0.958984 0.950683
