example-Advanced/bin/data/ofxGpuLutCube/LUT/Hollywood-84.cube
TITLE "mon_hornsey"
# LUT size
# data domain
# LUT data points
# 
# Copyright: (C) Copyright 2015 James Miller
# Created by: James Miller, www.DeLuts.co.uk
LUT_3D_SIZE 6
0.115112 0.096344 0.065186
0.152814 0.098724 0.066040
0.322070 0.113080 0.071649
0.700958 0.145794 0.093353
0.845880 0.155462 0.105859
0.870239 0.157349 0.107483
0.120343 0.138726 0.068640
0.155017 0.139582 0.069135
0.340924 0.152387 0.073901
0.717499 0.180884 0.095330
0.854535 0.187561 0.107153
0.876319 0.185217 0.108325
0.172174 0.345117 0.097619
0.193616 0.355359 0.099078
0.422027 0.392096 0.103473
0.822504 0.379980 0.117108
0.924573 0.368066 0.125348
0.942652 0.354926 0.125702
0.288477 0.720093 0.173706
0.313025 0.738190 0.179443
0.525946 0.773187 0.185712
0.909118 0.803198 0.192443
0.974677 0.793829 0.212475
0.990882 0.786395 0.218890
0.387109 0.869006 0.224182
0.416504 0.880634 0.229596
0.555121 0.898627 0.233038
0.922803 0.932696 0.239990
0.974988 0.919257 0.256274
0.994067 0.911493 0.265417
0.487701 0.935913 0.254608
0.513635 0.939911 0.257263
0.551819 0.943402 0.257801
0.919366 0.981726 0.265576
0.975031 0.967487 0.280090
0.997314 0.959351 0.292175
0.111700 0.095203 0.114728
0.147949 0.097040 0.122882
0.314850 0.110309 0.128839
0.697431 0.142297 0.148791
0.842950 0.152423 0.160754
0.866944 0.154223 0.162073
0.114984 0.135700 0.123529
0.148810 0.136548 0.124854
0.329559 0.148267 0.130627
0.712164 0.176959 0.151788
0.850464 0.183631 0.163001
0.872235 0.181189 0.163941
0.166858 0.341290 0.142090
0.189270 0.356861 0.147022
0.411151 0.394232 0.152844
0.820709 0.383441 0.160578
0.923895 0.370850 0.168817
0.941620 0.357098 0.169287
0.286371 0.722516 0.205243
0.309735 0.740277 0.215076
0.519067 0.774860 0.220270
0.907691 0.806061 0.225934
0.974762 0.797174 0.244201
0.990888 0.790106 0.250995
0.388666 0.871710 0.244312
0.414422 0.880963 0.251166
0.553485 0.898956 0.254608
0.922754 0.933179 0.261249
0.975067 0.919952 0.277454
0.994079 0.912610 0.288965
0.493726 0.938312 0.272070
0.513037 0.939899 0.274091
0.551624 0.943427 0.274640
0.919989 0.981793 0.282306
0.975092 0.967493 0.296912
0.997326 0.959790 0.313440
0.107739 0.097870 0.225397
0.141364 0.099689 0.327820
0.278754 0.108203 0.349500
0.638574 0.135376 0.388928
0.805444 0.146796 0.401154
0.829718 0.148565 0.402099
0.109955 0.138684 0.340485
0.141504 0.138068 0.342822
0.287921 0.145739 0.366211
0.652557 0.169763 0.407080
0.810266 0.175922 0.417975
0.832300 0.173596 0.417841
0.148255 0.335571 0.368451
0.171741 0.367505 0.405505
0.321326 0.382666 0.418188
0.758880 0.378064 0.439618
0.883227 0.367200 0.445080
0.904193 0.356006 0.446954
0.235541 0.729059 0.453046
0.254895 0.753033 0.492364
0.399060 0.768903 0.498108
0.844043 0.804431 0.510962
0.973065 0.800708 0.510064
0.990698 0.796033 0.520239
0.313489 0.872351 0.483588
0.330621 0.882342 0.520868
0.439734 0.890564 0.525812
0.857605 0.927801 0.538214
0.974408 0.923633 0.546033
0.993939 0.917297 0.570367
0.396283 0.932092 0.496551
0.412580 0.934802 0.531244
0.446515 0.936352 0.535077
0.854853 0.972205 0.547320
0.974371 0.970416 0.556397
0.997204 0.961346 0.629132
0.113623 0.099707 0.437879
0.169446 0.096893 0.614276
0.286035 0.101709 0.630310
0.599353 0.119024 0.691126
0.770764 0.127417 0.709112
0.794605 0.128900 0.710565
0.142108 0.136273 0.625506
0.171076 0.134692 0.624860
0.295160 0.137726 0.642517
0.614581 0.152228 0.703229
0.777301 0.155072 0.719440
0.798560 0.152515 0.719080
0.164557 0.342602 0.668560
0.189959 0.384399 0.697626
0.319348 0.374731 0.704138
0.697931 0.387878 0.754413
0.843536 0.377698 0.764581
0.869299 0.366217 0.764313
0.211914 0.724439 0.743683
0.236115 0.752209 0.766369
0.368781 0.762000 0.773444
0.775934 0.785095 0.800134
0.917163 0.781866 0.803161
0.953491 0.779468 0.804980
0.281751 0.868427 0.760608
0.307721 0.878589 0.781714
0.402789 0.884027 0.785895
0.790656 0.907507 0.809833
0.924365 0.909015 0.816199
0.967224 0.908453 0.822321
0.355005 0.925458 0.767133
0.380286 0.928455 0.787530
0.409857 0.929492 0.789844
0.789880 0.951697 0.812927
0.925702 0.954755 0.820416
0.971173 0.952942 0.846924
0.139423 0.096814 0.618860
0.182776 0.095361 0.711706
0.294617 0.099316 0.726697
0.591327 0.116199 0.781415
0.766327 0.123584 0.802216
0.791254 0.124664 0.803736
0.157776 0.133045 0.713849
0.182837 0.134375 0.718201
0.301813 0.135065 0.733966
0.606140 0.147577 0.788336
0.772522 0.150135 0.806860
0.794934 0.147345 0.806879
0.174982 0.357129 0.768964
0.199127 0.406012 0.790472
0.324188 0.377502 0.791534
0.686352 0.387335 0.837073
0.838660 0.381494 0.848285
0.865350 0.371600 0.847418
0.219787 0.727728 0.842072
0.242847 0.757666 0.853504
0.369720 0.761585 0.858685
0.757050 0.779913 0.882514
0.904138 0.780188 0.889587
0.942053 0.779462 0.890277
0.280560 0.866126 0.854608
0.308570 0.877801 0.864770
0.397705 0.882196 0.868549
0.772284 0.904052 0.891956
0.911145 0.904377 0.896198
0.955738 0.904657 0.897711
0.351001 0.922034 0.860266
0.376972 0.926721 0.869751
0.405804 0.927618 0.871307
0.772864 0.948492 0.893805
0.912897 0.950079 0.898731
0.962585 0.949597 0.909906
0.153809 0.095337 0.696960
0.184412 0.100104 0.750214
0.292450 0.101874 0.766742
0.582660 0.117987 0.816107
0.764715 0.125549 0.839185
0.790344 0.126648 0.840637
0.162360 0.132221 0.751917
0.184241 0.138788 0.753003
0.298218 0.135462 0.769568
0.593561 0.147479 0.819250
0.769324 0.150537 0.840613
0.792713 0.147870 0.841491
0.179272 0.385583 0.815656
0.202411 0.431140 0.827740
0.325238 0.392419 0.828376
0.679346 0.403394 0.869555
0.838196 0.404736 0.882349
0.867096 0.398334 0.882532
0.224127 0.726429 0.882263
0.250616 0.759808 0.885279
0.387097 0.765259 0.891474
0.757769 0.785907 0.913867
0.899591 0.791882 0.920782
0.937641 0.795703 0.921369
0.293835 0.862281 0.893805
0.337256 0.876050 0.895783
0.442633 0.882483 0.900683
0.795038 0.904010 0.922253
0.911963 0.905816 0.925012
0.952283 0.909112 0.925513
0.402588 0.920135 0.900909
0.477826 0.928216 0.904657
0.514490 0.929718 0.906177
0.833100 0.945575 0.924103
0.930566 0.946710 0.926495
0.968445 0.949921 0.926819
