example-Advanced/bin/data/ofxGpuLutCube/LUT/Hollywood-38.cube
#Generated by Picture Instruments - Look Creator
TITLE "Fujii Velvia 100F++"
LUT_3D_SIZE 9
0.0431373 0.027451 0.0156863
0.0745098 0.0235294 0.0156863
0.137255 0.0117647 0.00784314
0.243137 0.00392157 0
0.388235 0 0
0.529412 0 0
0.678431 0 0
0.815686 0 0
0.937255 0 0
0.054902 0.0705882 0.0117647
0.0823529 0.0627451 0.00784314
0.156863 0.0666667 0
0.270588 0.0352941 0
0.419608 0.00392157 0
0.572549 0.00392157 0
0.717647 0 0
0.85098 0.00784314 0
0.945098 0.0235294 0
0.0705882 0.152941 0
0.105882 0.152941 0
0.176471 0.14902 0
0.305882 0.14902 0
0.482353 0.14902 0
0.619608 0.12549 0
0.752941 0.137255 0
0.866667 0.184314 0
0.960784 0.247059 0
0.0627451 0.309804 0
0.113725 0.317647 0
0.211765 0.321569 0
0.345098 0.313725 0
0.498039 0.313725 0
0.670588 0.352941 0
0.8 0.376471 0
0.894118 0.396078 0
0.968627 0.431373 0
0.0784314 0.533333 0
0.133333 0.541176 0
0.243137 0.533333 0
0.388235 0.529412 0
0.537255 0.513725 0
0.67451 0.501961 0
0.807843 0.533333 0
0.92549 0.572549 0
0.980392 0.603922 0
0.141176 0.733333 0
0.203922 0.733333 0
0.294118 0.721569 0
0.431373 0.721569 0
0.572549 0.705882 0
0.705882 0.690196 0
0.819608 0.670588 0
0.921569 0.698039 0
0.976471 0.721569 0
0.262745 0.878431 0
0.298039 0.87451 0
0.372549 0.866667 0
0.47451 0.862745 0
0.6 0.847059 0
0.737255 0.843137 0
0.839216 0.827451 0
0.921569 0.803922 0
0.980392 0.819608 0
0.384314 0.968627 0
0.4 0.956863 0
0.45098 0.952941 0
0.533333 0.94902 0
0.631373 0.941176 0
0.74902 0.933333 0
0.858824 0.929412 0
0.94902 0.921569 0
0.980392 0.909804 0
0.486275 0.992157 0
0.490196 0.992157 0
0.537255 0.988235 0
0.596078 0.992157 0
0.682353 0.988235 0
0.776471 0.992157 0
0.878431 0.992157 0
0.952941 0.992157 0
0.988235 0.992157 0
0.0509804 0.0235294 0.0588235
0.0823529 0.0117647 0.0509804
0.133333 0.00784314 0.0431373
0.243137 0 0.027451
0.384314 0 0
0.529412 0 0
0.678431 0 0
0.819608 0 0
0.941176 0 0
0.0588235 0.0666667 0.054902
0.0901961 0.0627451 0.0509804
0.156863 0.054902 0.0431373
0.266667 0.0196078 0.0235294
0.415686 0 0
0.568627 0 0
0.713725 0 0
0.847059 0 0
0.945098 0.0196078 0
0.0823529 0.156863 0.0509804
0.101961 0.156863 0.0431373
0.184314 0.14902 0.027451
0.317647 0.14902 0
0.482353 0.129412 0
0.623529 0.0823529 0
0.74902 0.0745098 0
0.862745 0.129412 0
0.956863 0.227451 0
0.054902 0.321569 0.00784314
0.113725 0.329412 0.00392157
0.215686 0.329412 0.00392157
0.352941 0.321569 0
0.513725 0.317647 0
0.678431 0.345098 0
0.803922 0.360784 0
0.898039 0.380392 0
0.968627 0.419608 0
0.0509804 0.52549 0
0.12549 0.545098 0
0.247059 0.545098 0
0.392157 0.533333 0
0.552941 0.52549 0
0.682353 0.505882 0
0.819608 0.537255 0
0.92549 0.568627 0
0.976471 0.592157 0
0.117647 0.713725 0
0.196078 0.733333 0
0.301961 0.733333 0
0.427451 0.72549 0
0.584314 0.721569 0
0.717647 0.701961 0
0.819608 0.670588 0
0.92549 0.698039 0
0.976471 0.717647 0
0.247059 0.858824 0
0.294118 0.870588 0
0.368627 0.862745 0
0.47451 0.858824 0
0.6 0.85098 0
0.733333 0.843137 0
0.847059 0.831373 0
0.929412 0.803922 0
0.980392 0.823529 0
0.368627 0.952941 0
0.392157 0.960784 0
0.454902 0.956863 0
0.52549 0.945098 0
0.635294 0.945098 0
0.74902 0.937255 0
0.862745 0.929412 0
0.945098 0.921569 0
0.984314 0.905882 0
0.478431 0.988235 0
0.486275 0.992157 0
0.537255 0.992157 0
0.596078 0.992157 0
0.682353 0.992157 0
0.784314 0.992157 0
0.870588 0.992157 0
0.94902 0.992157 0
0.988235 0.992157 0
0.054902 0.00784314 0.168627
0.0980392 0 0.164706
0.184314 0 0.152941
0.231373 0.00392157 0.105882
0.372549 0 0.0823529
0.521569 0 0.0313725
0.654902 0 0.00784314
0.807843 0 0
0.92549 0 0
0.0352941 0.0588235 0.152941
0.0941176 0.054902 0.152941
0.188235 0.0352941 0.152941
0.258824 0.0235294 0.117647
0.407843 0 0.0784314
0.556863 0 0.0392157
0.705882 0 0.00784314
0.831373 0 0
0.937255 0 0
0.0745098 0.160784 0.160784
0.113725 0.160784 0.160784
0.203922 0.160784 0.152941
0.32549 0.129412 0.121569
0.470588 0.0627451 0.0784314
0.611765 0.0156863 0.0235294
0.737255 0.00784314 0.00392157
0.858824 0.0196078 0
0.952941 0.105882 0
0.0666667 0.329412 0.160784
0.141176 0.34902 0.160784
0.223529 0.345098 0.129412
0.376471 0.333333 0.0862745
0.541176 0.32549 0.027451
0.698039 0.337255 0.00784314
0.792157 0.313725 0
0.886275 0.32549 0
0.968627 0.372549 0
0.0862745 0.552941 0.113725
0.117647 0.560784 0.0666667
0.254902 0.560784 0.0588235
0.396078 0.545098 0.0313725
0.564706 0.533333 0.00392157
0.701961 0.517647 0
0.827451 0.533333 0
0.933333 0.556863 0
0.976471 0.564706 0
0.117647 0.729412 0.0156863
0.188235 0.741176 0.027451
0.309804 0.745098 0.0156863
0.431373 0.733333 0.00784314
0.580392 0.721569 0
0.729412 0.709804 0
0.831373 0.678431 0
0.937255 0.701961 0
0.980392 0.713725 0
0.25098 0.866667 0.0117647
0.301961 0.878431 0.0117647
0.380392 0.87451 0.00784314
0.482353 0.866667 0.00784314
0.603922 0.858824 0
0.737255 0.847059 0
0.858824 0.839216 0
0.933333 0.807843 0
0.984314 0.831373 0
0.368627 0.956863 0.00392157
0.403922 0.964706 0.0117647
0.462745 0.960784 0.0196078
0.537255 0.952941 0.00392157
0.635294 0.945098 0
0.752941 0.941176 0
0.858824 0.929412 0
0.94902 0.921569 0
0.984314 0.909804 0
0.470588 0.988235 0.027451
0.486275 0.992157 0.0235294
0.537255 0.992157 0.0235294
0.6 0.992157 0.0117647
0.678431 0.992157 0.0117647
0.772549 0.992157 0
0.870588 0.992157 0
0.952941 0.992157 0
0.984314 0.992157 0
0 0 0.403922
0.0431373 0 0.407843
0.215686 0 0.407843
0.364706 0 0.380392
0.407843 0 0.254902
0.509804 0 0.211765
0.658824 0 0.168627
0.768627 0 0.0470588
0.894118 0 0.0156863
0 0.0470588 0.380392
0.027451 0.0313725 0.388235
0.2 0.00392157 0.392157
0.372549 0 0.380392
0.423529 0 0.266667
0.541176 0 0.219608
0.694118 0 0.160784
0.823529 0 0.0745098
0.941176 0 0.00784314
0 0.152941 0.356863
0.00784314 0.152941 0.368627
0.180392 0.133333 0.376471
0.388235 0.101961 0.388235
0.45098 0.101961 0.286275
0.596078 0.00392157 0.227451
0.721569 0 0.156863
0.843137 0 0.0745098
0.952941 0 0.00392157
0.00784314 0.32549 0.364706
0.0431373 0.337255 0.376471
0.223529 0.352941 0.384314
0.411765 0.368627 0.392157
0.54902 0.329412 0.329412
0.666667 0.282353 0.258824
0.780392 0.25098 0.180392
0.890196 0.247059 0.0627451
0.964706 0.27451 0.00392157
0.054902 0.564706 0.4
0.152941 0.580392 0.407843
0.294118 0.576471 0.396078
0.427451 0.572549 0.364706
0.596078 0.564706 0.32549
0.729412 0.541176 0.27451
0.847059 0.541176 0.203922
0.92549 0.517647 0.0431373
0.976471 0.521569 0
0.239216 0.741176 0.407843
0.294118 0.756863 0.415686
0.34902 0.756863 0.372549
0.454902 0.745098 0.34902
0.596078 0.737255 0.317647
0.741176 0.721569 0.243137
0.835294 0.682353 0.101961
0.937255 0.698039 0.0117647
0.984314 0.705882 0
0.298039 0.870588 0.360784
0.313725 0.878431 0.341176
0.396078 0.878431 0.341176
0.498039 0.878431 0.333333
0.607843 0.862745 0.305882
0.741176 0.854902 0.227451
0.854902 0.835294 0.0627451
0.937255 0.807843 0
0.984314 0.819608 0
0.372549 0.952941 0.329412
0.403922 0.960784 0.333333
0.458824 0.956863 0.32549
0.541176 0.952941 0.313725
0.635294 0.945098 0.298039
0.745098 0.941176 0.223529
0.854902 0.929412 0.0392157
0.94902 0.92549 0
0.988235 0.905882 0
0.47451 0.988235 0.337255
0.498039 0.992157 0.337255
0.537255 0.992157 0.32549
0.6 0.992157 0.313725
0.67451 0.992157 0.298039
0.764706 0.992157 0.25098
0.866667 0.992157 0.054902
0.952941 0.992157 0
0.988235 0.992157 0
0 0 0.631373
0.00392157 0 0.639216
0.192157 0 0.635294
0.4 0 0.635294
0.541176 0 0.6
0.572549 0 0.462745
0.623529 0 0.380392
0.764706 0 0.34902
0.890196 0 0.286275
0 0.00784314 0.615686
0.00392157 0.00392157 0.623529
0.160784 0 0.627451
0.4 0 0.643137
0.568627 0 0.623529
0.596078 0 0.478431
0.67451 0 0.411765
0.815686 0 0.368627
0.937255 0 0.301961
0 0.109804 0.592157
0 0.117647 0.607843
0.109804 0.0784314 0.611765
0.384314 0.0196078 0.631373
0.576471 0 0.623529
0.619608 0.027451 0.498039
0.705882 0 0.431373
0.827451 0 0.356863
0.94902 0 0.258824
0 0.298039 0.568627
0 0.305882 0.588235
0.0745098 0.301961 0.588235
0.380392 0.313725 0.615686
0.588235 0.333333 0.619608
0.631373 0.329412 0.513725
0.74902 0.211765 0.439216
0.854902 0.00392157 0.321569
0.956863 0.0313725 0.258824
0 0.541176 0.6
0.0392157 0.560784 0.619608
0.25098 0.564706 0.615686
0.435294 0.576471 0.623529
0.615686 0.592157 0.631373
0.717647 0.54902 0.568627
0.815686 0.501961 0.482353
0.901961 0.458824 0.380392
0.972549 0.45098 0.278431
0.2 0.752941 0.627451
0.270588 0.768627 0.639216
0.380392 0.772549 0.639216
0.509804 0.760784 0.627451
0.619608 0.752941 0.607843
0.741176 0.733333 0.552941
0.843137 0.705882 0.494118
0.929412 0.701961 0.435294
0.980392 0.686275 0.317647
0.356863 0.87451 0.615686
0.396078 0.878431 0.627451
0.466667 0.882353 0.623529
0.545098 0.87451 0.607843
0.627451 0.866667 0.572549
0.72549 0.847059 0.529412
0.858824 0.847059 0.470588
0.933333 0.815686 0.364706
0.984314 0.815686 0.270588
0.470588 0.956863 0.619608
0.501961 0.952941 0.627451
0.521569 0.956863 0.6
0.560784 0.94902 0.564706
0.658824 0.952941 0.560784
0.745098 0.945098 0.537255
0.85098 0.933333 0.454902
0.945098 0.92549 0.337255
0.988235 0.909804 0.0823529
0.509804 0.988235 0.588235
0.517647 0.992157 0.580392
0.556863 0.992157 0.572549
0.619608 0.992157 0.568627
0.690196 0.992157 0.556863
0.772549 0.992157 0.54902
0.854902 0.992157 0.47451
0.941176 0.992157 0.317647
0.984314 0.992157 0.0117647
0 0 0.780392
0.0117647 0 0.796078
0.196078 0 0.788235
0.403922 0 0.788235
0.572549 0 0.780392
0.690196 0 0.756863
0.713725 0 0.647059
0.772549 0 0.580392
0.878431 0 0.576471
0 0 0.776471
0 0 0.780392
0.156863 0 0.792157
0.396078 0 0.803922
0.6 0 0.823529
0.729412 0 0.8
0.752941 0 0.682353
0.811765 0 0.615686
0.917647 0 0.596078
0 0.0705882 0.772549
0 0.0470588 0.772549
0.0980392 0.0156863 0.784314
0.380392 0 0.792157
0.592157 0 0.811765
0.72549 0 0.788235
0.760784 0.00392157 0.686275
0.811765 0.0235294 0.615686
0.929412 0 0.603922
0 0.258824 0.737255
0 0.25098 0.74902
0.0235294 0.262745 0.768627
0.364706 0.270588 0.784314
0.584314 0.286275 0.796078
0.737255 0.317647 0.792157
0.768627 0.321569 0.694118
0.831373 0.278431 0.623529
0.941176 0.121569 0.584314
0 0.494118 0.74902
0 0.498039 0.756863
0.0941176 0.501961 0.764706
0.34902 0.501961 0.760784
0.584314 0.545098 0.788235
0.752941 0.580392 0.792157
0.772549 0.537255 0.698039
0.862745 0.435294 0.627451
0.956863 0.321569 0.52549
0.133333 0.741176 0.792157
0.203922 0.733333 0.780392
0.337255 0.737255 0.784314
0.47451 0.737255 0.780392
0.623529 0.74902 0.784314
0.764706 0.764706 0.796078
0.827451 0.713725 0.729412
0.905882 0.67451 0.662745
0.964706 0.631373 0.564706
0.384314 0.901961 0.807843
0.411765 0.898039 0.803922
0.47451 0.886275 0.796078
0.572549 0.882353 0.796078
0.678431 0.87451 0.784314
0.752941 0.862745 0.764706
0.847059 0.85098 0.729412
0.933333 0.839216 0.690196
0.980392 0.835294 0.65098
0.501961 0.968627 0.8
0.513725 0.960784 0.784314
0.564706 0.960784 0.784314
0.639216 0.956863 0.784314
0.717647 0.94902 0.784314
0.764706 0.945098 0.752941
0.839216 0.933333 0.717647
0.929412 0.929412 0.658824
0.980392 0.909804 0.568627
0.588235 0.992157 0.788235
0.592157 0.992157 0.780392
0.635294 0.992157 0.784314
0.705882 0.992157 0.796078
0.729412 0.992157 0.760784
0.792157 0.992157 0.752941
0.858824 0.992157 0.737255
0.92549 0.992157 0.658824
0.988235 0.992157 0.517647
0.0117647 0 0.87451
0.0705882 0 0.886275
0.262745 0 0.886275
0.411765 0 0.870588
0.568627 0 0.870588
0.713725 0 0.878431
0.815686 0 0.870588
0.835294 0 0.8
0.905882 0 0.780392
0.00784314 0 0.890196
0.0431373 0 0.901961
0.235294 0 0.905882
0.427451 0 0.909804
0.588235 0 0.905882
0.741176 0 0.913725
0.847059 0 0.905882
0.870588 0 0.831373
0.933333 0 0.807843
0 0.00784314 0.878431
0.00392157 0 0.894118
0.184314 0 0.898039
0.4 0 0.901961
0.580392 0 0.905882
0.745098 0 0.913725
0.85098 0 0.905882
0.870588 0.0313725 0.831373
0.933333 0.160784 0.807843
0 0.211765 0.858824
0 0.231373 0.894118
0.101961 0.219608 0.890196
0.384314 0.219608 0.898039
0.572549 0.219608 0.901961
0.741176 0.270588 0.909804
0.85098 0.32549 0.898039
0.870588 0.337255 0.827451
0.933333 0.380392 0.807843
0 0.431373 0.843137
0 0.443137 0.87451
0.0235294 0.443137 0.878431
0.313725 0.431373 0.87451
0.572549 0.490196 0.898039
0.737255 0.529412 0.898039
0.854902 0.576471 0.898039
0.87451 0.545098 0.831373
0.929412 0.533333 0.8
0.00784314 0.662745 0.862745
0.0313725 0.670588 0.870588
0.188235 0.666667 0.870588
0.376471 0.670588 0.878431
0.541176 0.670588 0.87451
0.737255 0.713725 0.886275
0.854902 0.752941 0.890196
0.87451 0.709804 0.835294
0.945098 0.643137 0.792157
0.294118 0.847059 0.878431
0.337255 0.854902 0.882353
0.419608 0.854902 0.886275
0.533333 0.858824 0.886275
0.65098 0.854902 0.882353
0.772549 0.866667 0.890196
0.870588 0.87451 0.894118
0.905882 0.831373 0.839216
0.968627 0.811765 0.803922
0.498039 0.952941 0.886275
0.52549 0.960784 0.894118
0.580392 0.956863 0.894118
0.647059 0.956863 0.890196
0.72549 0.94902 0.886275
0.803922 0.945098 0.886275
0.866667 0.945098 0.882353
0.921569 0.929412 0.847059
0.980392 0.917647 0.819608
0.592157 0.992157 0.886275
0.607843 0.992157 0.886275
0.647059 0.992157 0.886275
0.698039 0.992157 0.882353
0.760784 0.992157 0.878431
0.835294 0.992157 0.890196
0.866667 0.992157 0.866667
0.921569 0.992157 0.843137
0.984314 0.992157 0.792157
0.164706 0 0.92549
0.231373 0 0.941176
0.333333 0 0.937255
0.447059 0 0.92549
0.576471 0 0.929412
0.698039 0 0.921569
0.819608 0 0.933333
0.898039 0 0.933333
0.92549 0 0.909804
0.129412 0 0.941176
0.203922 0 0.964706
0.329412 0 0.964706
0.458824 0 0.968627
0.596078 0 0.964706
0.741176 0 0.976471
0.85098 0 0.968627
0.933333 0 0.964706
0.94902 0 0.933333
0.0627451 0 0.937255
0.152941 0 0.968627
0.294118 0 0.960784
0.443137 0 0.964706
0.592157 0 0.964706
0.729412 0 0.960784
0.854902 0 0.968627
0.929412 0.0156863 0.964706
0.952941 0.164706 0.937255
0.00784314 0.180392 0.933333
0.0509804 0.184314 0.964706
0.254902 0.168627 0.960784
0.431373 0.145098 0.960784
0.592157 0.152941 0.968627
0.729412 0.180392 0.964706
0.85098 0.286275 0.964706
0.933333 0.372549 0.964706
0.94902 0.411765 0.929412
0.00392157 0.376471 0.921569
0 0.388235 0.956863
0.0823529 0.380392 0.94902
0.4 0.415686 0.960784
0.580392 0.439216 0.964706
0.72549 0.47451 0.960784
0.858824 0.552941 0.964706
0.921569 0.584314 0.952941
0.94902 0.588235 0.929412
0 0.607843 0.933333
0.00392157 0.615686 0.952941
0.054902 0.607843 0.945098
0.313725 0.603922 0.94902
0.533333 0.619608 0.952941
0.72549 0.67451 0.956863
0.847059 0.721569 0.952941
0.92549 0.752941 0.952941
0.952941 0.741176 0.933333
0.129412 0.8 0.941176
0.196078 0.803922 0.945098
0.321569 0.811765 0.94902
0.447059 0.811765 0.945098
0.568627 0.803922 0.94902
0.690196 0.8 0.941176
0.843137 0.843137 0.94902
0.933333 0.870588 0.952941
0.945098 0.839216 0.92549
0.435294 0.933333 0.945098
0.466667 0.933333 0.945098
0.52549 0.941176 0.952941
0.6 0.937255 0.94902
0.698039 0.937255 0.94902
0.784314 0.933333 0.945098
0.866667 0.937255 0.94902
0.937255 0.941176 0.94902
0.968627 0.913725 0.921569
0.588235 0.992157 0.952941
0.611765 0.992157 0.956863
0.65098 0.992157 0.956863
0.717647 0.992157 0.960784
0.764706 0.992157 0.94902
0.835294 0.992157 0.941176
0.890196 0.992157 0.945098
0.933333 0.992157 0.937255
0.984314 0.992157 0.921569
0.286275 0 0.941176
0.329412 0 0.956863
0.388235 0 0.952941
0.482353 0 0.956863
0.588235 0 0.941176
0.698039 0 0.952941
0.803922 0 0.956863
0.894118 0 0.964706
0.952941 0 0.964706
0.266667 0 0.960784
0.317647 0 0.992157
0.4 0 0.992157
0.509804 0 0.992157
0.615686 0 0.992157
0.729412 0 0.988235
0.835294 0 0.992157
0.921569 0 0.988235
0.964706 0.00784314 0.988235
0.243137 0 0.964706
0.290196 0 0.988235
0.384314 0 0.992157
0.478431 0 0.988235
0.611765 0 0.988235
0.729412 0 0.988235
0.831373 0 0.988235
0.92549 0 0.988235
0.972549 0.180392 0.988235
0.184314 0.105882 0.952941
0.262745 0.109804 0.988235
0.352941 0.0862745 0.988235
0.478431 0.0705882 0.988235
0.607843 0.054902 0.988235
0.72549 0.0784314 0.988235
0.831373 0.180392 0.988235
0.929412 0.321569 0.988235
0.968627 0.439216 0.988235
0.0862745 0.34902 0.952941
0.192157 0.376471 0.988235
0.329412 0.388235 0.988235
0.47451 0.392157 0.988235
0.6 0.4 0.984314
0.729412 0.435294 0.988235
0.843137 0.494118 0.988235
0.921569 0.564706 0.988235
0.968627 0.627451 0.988235
0.0313725 0.564706 0.968627
0.054902 0.572549 0.984314
0.196078 0.572549 0.988235
0.4 0.576471 0.988235
0.596078 0.619608 0.988235
0.733333 0.65098 0.988235
0.835294 0.686275 0.988235
0.921569 0.733333 0.988235
0.972549 0.764706 0.988235
0.0980392 0.764706 0.980392
0.137255 0.768627 0.988235
0.25098 0.768627 0.988235
0.403922 0.768627 0.988235
0.537255 0.760784 0.984314
0.705882 0.784314 0.988235
0.839216 0.823529 0.988235
0.921569 0.847059 0.988235
0.972549 0.862745 0.988235
0.345098 0.905882 0.984314
0.376471 0.909804 0.988235
0.447059 0.913725 0.988235
0.541176 0.913725 0.992157
0.635294 0.905882 0.988235
0.737255 0.905882 0.988235
0.819608 0.901961 0.988235
0.921569 0.921569 0.992157
0.980392 0.937255 0.992157
0.52549 0.984314 0.984314
0.556863 0.984314 0.988235
0.588235 0.984314 0.988235
0.662745 0.984314 0.988235
0.729412 0.984314 0.992157
0.807843 0.988235 0.992157
0.870588 0.988235 0.992157
0.933333 0.988235 0.992157
0.984314 0.988235 0.992157
