example-Advanced/bin/data/ofxGpuLutCube/LUT/Hollywood-37.cube
#Generated by Picture Instruments - Look Creator
TITLE "Fujii Velvia 50+++"
LUT_3D_SIZE 17
0.0117647 0.054902 0.0784314
0.0156863 0.054902 0.0745098
0.027451 0.0588235 0.0705882
0.0588235 0.0627451 0.0784314
0.0823529 0.0627451 0.0784314
0.113725 0.0666667 0.0745098
0.164706 0.054902 0.0745098
0.231373 0.0156863 0.0705882
0.309804 0 0.0627451
0.396078 0 0.0509804
0.490196 0 0.0117647
0.584314 0 0.00392157
0.670588 0 0
0.752941 0 0
0.823529 0 0.00392157
0.878431 0 0
0.913725 0 0
0.00784314 0.0666667 0.0784314
0.0235294 0.0666667 0.0745098
0.0392157 0.0705882 0.0784314
0.0588235 0.0705882 0.0745098
0.0862745 0.0745098 0.0784314
0.117647 0.0705882 0.0745098
0.172549 0.0705882 0.0745098
0.239216 0.0431373 0.0705882
0.317647 0 0.0588235
0.407843 0 0.0431373
0.498039 0 0.0117647
0.588235 0 0.00392157
0.678431 0.00392157 0.00392157
0.756863 0 0.00392157
0.823529 0 0.00392157
0.878431 0 0
0.913725 0 0
0.0156863 0.0784314 0.0784314
0.0196078 0.0745098 0.0784314
0.0431373 0.0823529 0.0784314
0.0666667 0.0823529 0.0784314
0.0901961 0.0862745 0.0745098
0.12549 0.0862745 0.0784314
0.180392 0.0862745 0.0705882
0.247059 0.0784314 0.0745098
0.32549 0.0431373 0.0588235
0.415686 0 0.0392157
0.509804 0 0
0.6 0 0
0.682353 0 0.00392157
0.760784 0 0
0.827451 0 0
0.882353 0 0
0.921569 0.0588235 0
0.0156863 0.0941176 0.0862745
0.0235294 0.0980392 0.0901961
0.0392157 0.0980392 0.0823529
0.0705882 0.109804 0.0784314
0.105882 0.109804 0.0784314
0.145098 0.117647 0.0745098
0.192157 0.117647 0.0745098
0.266667 0.117647 0.0666667
0.341176 0.109804 0.054902
0.431373 0.0901961 0.0235294
0.521569 0.0431373 0
0.611765 0 0.00392157
0.690196 0 0
0.764706 0 0.00392157
0.831373 0.0470588 0
0.886275 0.121569 0
0.921569 0.168627 0
0.0117647 0.129412 0.0862745
0.0235294 0.129412 0.0823529
0.0392157 0.129412 0.0901961
0.0666667 0.137255 0.0823529
0.105882 0.152941 0.0784314
0.168627 0.168627 0.0745098
0.223529 0.168627 0.0666667
0.290196 0.168627 0.054902
0.364706 0.168627 0.0313725
0.454902 0.160784 0
0.541176 0.160784 0
0.619608 0.152941 0
0.698039 0.152941 0
0.776471 0.168627 0
0.839216 0.188235 0
0.890196 0.219608 0
0.929412 0.247059 0
0 0.172549 0.0941176
0.0117647 0.176471 0.0901961
0.0352941 0.172549 0.0901961
0.0666667 0.184314 0.0901961
0.105882 0.196078 0.0823529
0.172549 0.219608 0.0705882
0.266667 0.243137 0.0392157
0.329412 0.243137 0.0156863
0.407843 0.247059 0
0.482353 0.243137 0
0.560784 0.243137 0
0.643137 0.243137 0
0.717647 0.247059 0
0.784314 0.262745 0
0.843137 0.278431 0
0.898039 0.301961 0.00392157
0.937255 0.32549 0
0 0.239216 0.0901961
0 0.239216 0.0941176
0.0196078 0.239216 0.0941176
0.0666667 0.239216 0.0980392
0.109804 0.254902 0.0862745
0.172549 0.278431 0.0745098
0.258824 0.309804 0.0352941
0.376471 0.337255 0
0.454902 0.337255 0
0.52549 0.337255 0
0.596078 0.329412 0
0.666667 0.337255 0
0.737255 0.337255 0.00392157
0.8 0.34902 0
0.854902 0.364706 0
0.905882 0.380392 0
0.941176 0.396078 0
0 0.317647 0.0901961
0 0.317647 0.0901961
0.0117647 0.313725 0.0941176
0.0745098 0.309804 0.0980392
0.121569 0.321569 0.0980392
0.176471 0.341176 0.0823529
0.258824 0.372549 0.0431373
0.364706 0.407843 0
0.490196 0.439216 0
0.568627 0.439216 0
0.635294 0.431373 0
0.698039 0.431373 0
0.760784 0.427451 0
0.811765 0.435294 0
0.862745 0.443137 0
0.909804 0.458824 0
0.941176 0.470588 0
0 0.4 0.101961
0 0.396078 0.0980392
0.0196078 0.4 0.0980392
0.0901961 0.396078 0.101961
0.129412 0.388235 0.105882
0.184314 0.407843 0.0901961
0.258824 0.435294 0.0705882
0.360784 0.470588 0.00392157
0.47451 0.501961 0
0.592157 0.529412 0
0.678431 0.533333 0
0.733333 0.529412 0
0.784314 0.521569 0
0.839216 0.521569 0
0.878431 0.52549 0
0.917647 0.533333 0
0.945098 0.541176 0
0 0.482353 0.101961
0 0.478431 0.105882
0.0705882 0.478431 0.105882
0.109804 0.478431 0.109804
0.156863 0.47451 0.113725
0.2 0.478431 0.117647
0.270588 0.498039 0.0941176
0.356863 0.52549 0.0627451
0.462745 0.552941 0
0.572549 0.584314 0
0.686275 0.611765 0
0.768627 0.615686 0
0.807843 0.611765 0
0.854902 0.607843 0
0.894118 0.607843 0
0.933333 0.607843 0
0.956863 0.611765 0
0.0666667 0.564706 0.117647
0.0862745 0.560784 0.117647
0.121569 0.560784 0.121569
0.14902 0.556863 0.121569
0.188235 0.552941 0.129412
0.227451 0.545098 0.133333
0.290196 0.564706 0.12549
0.368627 0.588235 0.109804
0.462745 0.611765 0.0745098
0.564706 0.635294 0
0.666667 0.662745 0
0.764706 0.686275 0
0.835294 0.690196 0
0.870588 0.686275 0
0.905882 0.682353 0
0.937255 0.678431 0
0.960784 0.682353 0
0.14902 0.643137 0.14902
0.152941 0.643137 0.14902
0.172549 0.635294 0.152941
0.203922 0.635294 0.152941
0.235294 0.631373 0.152941
0.270588 0.627451 0.160784
0.313725 0.623529 0.156863
0.392157 0.647059 0.152941
0.470588 0.666667 0.137255
0.560784 0.686275 0.117647
0.65098 0.709804 0.0862745
0.745098 0.729412 0
0.827451 0.74902 0
0.890196 0.756863 0
0.921569 0.752941 0
0.945098 0.74902 0
0.968627 0.74902 0
0.223529 0.717647 0.188235
0.227451 0.713725 0.188235
0.243137 0.713725 0.188235
0.266667 0.709804 0.192157
0.290196 0.705882 0.188235
0.321569 0.701961 0.196078
0.364706 0.698039 0.2
0.419608 0.701961 0.2
0.494118 0.717647 0.196078
0.572549 0.741176 0.188235
0.662745 0.756863 0.176471
0.733333 0.768627 0.160784
0.815686 0.788235 0.141176
0.878431 0.803922 0.109804
0.929412 0.811765 0.0862745
0.960784 0.807843 0.0980392
0.972549 0.807843 0.121569
0.294118 0.784314 0.243137
0.301961 0.780392 0.243137
0.317647 0.780392 0.239216
0.329412 0.776471 0.239216
0.352941 0.772549 0.239216
0.384314 0.768627 0.247059
0.415686 0.768627 0.25098
0.454902 0.760784 0.258824
0.52549 0.776471 0.258824
0.588235 0.788235 0.25098
0.666667 0.8 0.254902
0.741176 0.815686 0.25098
0.803922 0.827451 0.243137
0.866667 0.839216 0.239216
0.921569 0.85098 0.223529
0.956863 0.858824 0.223529
0.984314 0.858824 0.231373
0.388235 0.847059 0.317647
0.388235 0.843137 0.313725
0.396078 0.843137 0.309804
0.407843 0.839216 0.309804
0.431373 0.835294 0.309804
0.454902 0.835294 0.313725
0.486275 0.827451 0.317647
0.517647 0.827451 0.32549
0.568627 0.827451 0.333333
0.627451 0.839216 0.337255
0.690196 0.847059 0.337255
0.752941 0.858824 0.341176
0.815686 0.866667 0.345098
0.866667 0.878431 0.345098
0.909804 0.886275 0.341176
0.952941 0.894118 0.333333
0.980392 0.894118 0.333333
0.490196 0.898039 0.411765
0.486275 0.894118 0.403922
0.490196 0.894118 0.4
0.498039 0.890196 0.4
0.517647 0.890196 0.4
0.537255 0.890196 0.407843
0.568627 0.886275 0.415686
0.596078 0.882353 0.423529
0.631373 0.882353 0.435294
0.678431 0.886275 0.447059
0.729412 0.898039 0.45098
0.784314 0.901961 0.458824
0.831373 0.909804 0.462745
0.866667 0.917647 0.470588
0.909804 0.92549 0.470588
0.941176 0.929412 0.466667
0.972549 0.933333 0.466667
0.596078 0.941176 0.529412
0.588235 0.937255 0.517647
0.588235 0.937255 0.513725
0.6 0.937255 0.517647
0.615686 0.933333 0.521569
0.635294 0.933333 0.529412
0.658824 0.933333 0.537255
0.686275 0.933333 0.552941
0.713725 0.933333 0.572549
0.74902 0.929412 0.588235
0.788235 0.937255 0.6
0.819608 0.945098 0.607843
0.854902 0.945098 0.619608
0.886275 0.952941 0.631373
0.913725 0.956863 0.639216
0.945098 0.964706 0.639216
0.968627 0.964706 0.639216
0.00392157 0.054902 0.0862745
0.0156863 0.0588235 0.0823529
0.027451 0.054902 0.0784314
0.054902 0.0588235 0.0784314
0.0823529 0.0627451 0.0862745
0.113725 0.0627451 0.0823529
0.168627 0.0509804 0.0823529
0.235294 0.00784314 0.0745098
0.313725 0 0.0745098
0.4 0 0.0627451
0.494118 0 0.0352941
0.584314 0 0.00392157
0.67451 0 0
0.752941 0 0
0.823529 0 0.00392157
0.878431 0 0
0.921569 0 0
0.00784314 0.0666667 0.0862745
0.0156863 0.0705882 0.0823529
0.0352941 0.0705882 0.0901961
0.0588235 0.0745098 0.0862745
0.0823529 0.0705882 0.0862745
0.121569 0.0745098 0.0823529
0.172549 0.0666667 0.0862745
0.239216 0.0313725 0.0823529
0.321569 0 0.0745098
0.411765 0 0.0588235
0.505882 0 0.027451
0.596078 0 0.00392157
0.678431 0 0.00392157
0.756863 0 0.00392157
0.823529 0 0.00392157
0.878431 0 0
0.917647 0 0
0.0117647 0.0823529 0.0901961
0.0196078 0.0823529 0.0823529
0.0392157 0.0862745 0.0862745
0.0666667 0.0862745 0.0862745
0.0901961 0.0862745 0.0823529
0.129412 0.0901961 0.0862745
0.184314 0.0862745 0.0823529
0.25098 0.0784314 0.0823529
0.329412 0.027451 0.0784314
0.423529 0 0.0588235
0.513725 0 0.0235294
0.603922 0 0
0.682353 0 0.00392157
0.760784 0 0
0.827451 0 0
0.882353 0 0
0.921569 0.0431373 0
0.0156863 0.101961 0.0901961
0.027451 0.101961 0.0941176
0.0392157 0.101961 0.0901961
0.0705882 0.105882 0.0862745
0.101961 0.113725 0.0862745
0.145098 0.117647 0.0862745
0.196078 0.117647 0.0823529
0.266667 0.117647 0.0784314
0.34902 0.101961 0.0666667
0.435294 0.0823529 0.0470588
0.52549 0.0196078 0
0.611765 0 0.00392157
0.690196 0 0
0.768627 0 0.00392157
0.831373 0.00392157 0
0.886275 0.109804 0
0.92549 0.164706 0
0.0117647 0.133333 0.0941176
0.027451 0.133333 0.0941176
0.0431373 0.133333 0.0941176
0.0705882 0.141176 0.0941176
0.109804 0.152941 0.0862745
0.168627 0.164706 0.0823529
0.227451 0.168627 0.0784314
0.294118 0.168627 0.0705882
0.376471 0.164706 0.054902
0.458824 0.160784 0.0196078
0.545098 0.156863 0
0.627451 0.14902 0
0.705882 0.14902 0
0.776471 0.160784 0
0.839216 0.188235 0
0.894118 0.215686 0
0.929412 0.247059 0
0 0.184314 0.0980392
0.0117647 0.180392 0.101961
0.0352941 0.184314 0.101961
0.0705882 0.184314 0.0980392
0.109804 0.2 0.0901961
0.176471 0.223529 0.0823529
0.266667 0.243137 0.0627451
0.337255 0.247059 0.0470588
0.407843 0.243137 0.0156863
0.490196 0.239216 0
0.568627 0.239216 0
0.647059 0.243137 0
0.717647 0.247059 0
0.788235 0.258824 0
0.85098 0.27451 0
0.898039 0.298039 0
0.933333 0.321569 0
0 0.247059 0.101961
0 0.247059 0.101961
0.027451 0.247059 0.101961
0.0705882 0.243137 0.105882
0.113725 0.258824 0.0980392
0.172549 0.282353 0.0901961
0.266667 0.313725 0.0627451
0.380392 0.341176 0
0.458824 0.341176 0
0.533333 0.337255 0.00392157
0.6 0.333333 0
0.666667 0.329412 0
0.737255 0.337255 0
0.8 0.34902 0
0.858824 0.360784 0
0.905882 0.380392 0
0.941176 0.396078 0
0 0.321569 0.101961
0 0.32549 0.105882
0.0196078 0.321569 0.105882
0.0862745 0.321569 0.109804
0.121569 0.32549 0.105882
0.184314 0.34902 0.0980392
0.266667 0.376471 0.0784314
0.364706 0.407843 0
0.490196 0.439216 0
0.572549 0.439216 0
0.639216 0.435294 0.00392157
0.698039 0.431373 0
0.760784 0.427451 0
0.815686 0.431373 0
0.862745 0.443137 0
0.913725 0.454902 0
0.945098 0.47451 0
0 0.403922 0.109804
0 0.407843 0.113725
0.0352941 0.403922 0.113725
0.0941176 0.4 0.117647
0.133333 0.396078 0.117647
0.188235 0.411765 0.109804
0.266667 0.439216 0.0901961
0.360784 0.466667 0.0470588
0.47451 0.501961 0
0.6 0.529412 0
0.682353 0.533333 0
0.733333 0.529412 0
0.784314 0.521569 0
0.839216 0.521569 0
0.878431 0.521569 0
0.921569 0.529412 0
0.952941 0.541176 0
0 0.486275 0.117647
0.0117647 0.486275 0.121569
0.0784314 0.482353 0.121569
0.117647 0.482353 0.12549
0.160784 0.47451 0.12549
0.203922 0.478431 0.129412
0.27451 0.501961 0.109804
0.364706 0.529412 0.0941176
0.466667 0.556863 0.0313725
0.576471 0.588235 0
0.686275 0.615686 0
0.768627 0.615686 0
0.807843 0.611765 0
0.854902 0.607843 0
0.894118 0.607843 0
0.929412 0.607843 0
0.956863 0.611765 0
0.0666667 0.560784 0.133333
0.0941176 0.564706 0.137255
0.121569 0.560784 0.137255
0.156863 0.560784 0.141176
0.192157 0.556863 0.141176
0.235294 0.552941 0.14902
0.294118 0.564706 0.145098
0.372549 0.588235 0.129412
0.466667 0.611765 0.105882
0.564706 0.639216 0.0666667
0.666667 0.662745 0
0.764706 0.686275 0
0.835294 0.690196 0
0.870588 0.686275 0
0.905882 0.682353 0
0.941176 0.682353 0
0.960784 0.682353 0
0.145098 0.639216 0.156863
0.152941 0.639216 0.160784
0.176471 0.639216 0.160784
0.207843 0.639216 0.164706
0.239216 0.635294 0.172549
0.27451 0.631373 0.172549
0.317647 0.627451 0.176471
0.396078 0.647059 0.168627
0.47451 0.670588 0.156863
0.564706 0.686275 0.145098
0.654902 0.709804 0.121569
0.74902 0.729412 0.0823529
0.827451 0.74902 0
0.890196 0.756863 0
0.921569 0.752941 0
0.945098 0.74902 0
0.968627 0.74902 0
0.211765 0.709804 0.196078
0.219608 0.713725 0.192157
0.239216 0.705882 0.196078
0.266667 0.709804 0.196078
0.294118 0.709804 0.203922
0.32549 0.701961 0.207843
0.364706 0.694118 0.215686
0.423529 0.705882 0.215686
0.498039 0.721569 0.207843
0.572549 0.737255 0.203922
0.658824 0.756863 0.196078
0.737255 0.772549 0.184314
0.811765 0.788235 0.168627
0.878431 0.807843 0.14902
0.929412 0.811765 0.133333
0.956863 0.807843 0.141176
0.976471 0.807843 0.156863
0.286275 0.776471 0.243137
0.298039 0.776471 0.247059
0.309804 0.776471 0.25098
0.333333 0.776471 0.25098
0.356863 0.772549 0.254902
0.388235 0.772549 0.254902
0.419608 0.764706 0.262745
0.462745 0.760784 0.266667
0.529412 0.776471 0.266667
0.592157 0.788235 0.266667
0.670588 0.803922 0.262745
0.745098 0.819608 0.266667
0.807843 0.827451 0.258824
0.866667 0.839216 0.254902
0.917647 0.854902 0.243137
0.960784 0.858824 0.247059
0.984314 0.858824 0.254902
0.372549 0.835294 0.313725
0.380392 0.839216 0.313725
0.396078 0.839216 0.313725
0.407843 0.839216 0.317647
0.431373 0.835294 0.321569
0.458824 0.831373 0.321569
0.490196 0.827451 0.329412
0.521569 0.827451 0.337255
0.572549 0.831373 0.345098
0.627451 0.839216 0.345098
0.690196 0.85098 0.352941
0.752941 0.858824 0.352941
0.811765 0.870588 0.356863
0.866667 0.878431 0.356863
0.909804 0.886275 0.356863
0.94902 0.898039 0.34902
0.980392 0.898039 0.352941
0.47451 0.894118 0.4
0.482353 0.894118 0.403922
0.490196 0.894118 0.403922
0.501961 0.894118 0.407843
0.521569 0.894118 0.411765
0.541176 0.890196 0.415686
0.572549 0.890196 0.423529
0.6 0.886275 0.431373
0.635294 0.886275 0.443137
0.682353 0.890196 0.454902
0.729412 0.894118 0.462745
0.780392 0.905882 0.466667
0.831373 0.909804 0.478431
0.870588 0.917647 0.478431
0.905882 0.921569 0.482353
0.941176 0.929412 0.482353
0.972549 0.933333 0.482353
0.588235 0.937255 0.521569
0.588235 0.937255 0.521569
0.596078 0.937255 0.521569
0.603922 0.937255 0.52549
0.619608 0.937255 0.529412
0.639216 0.933333 0.537255
0.662745 0.933333 0.54902
0.690196 0.933333 0.564706
0.717647 0.933333 0.580392
0.74902 0.933333 0.596078
0.788235 0.937255 0.607843
0.819608 0.945098 0.615686
0.854902 0.952941 0.627451
0.882353 0.956863 0.635294
0.909804 0.960784 0.643137
0.945098 0.964706 0.647059
0.972549 0.964706 0.647059
0.00392157 0.054902 0.0901961
0.0156863 0.054902 0.0941176
0.0313725 0.0588235 0.0980392
0.0509804 0.0627451 0.0980392
0.0823529 0.0627451 0.0901961
0.117647 0.054902 0.0941176
0.168627 0.0392157 0.0941176
0.239216 0 0.0980392
0.317647 0 0.0901961
0.407843 0 0.0823529
0.498039 0 0.0666667
0.588235 0 0.0431373
0.678431 0.00392157 0.00392157
0.756863 0 0.00392157
0.823529 0 0.00392157
0.882353 0 0
0.921569 0 0
0 0.0666667 0.0980392
0.0156863 0.0666667 0.0980392
0.0352941 0.0705882 0.0980392
0.0588235 0.0745098 0.0980392
0.0862745 0.0705882 0.0980392
0.121569 0.0705882 0.0980392
0.180392 0.0588235 0.101961
0.247059 0.0196078 0.0941176
0.32549 0 0.0862745
0.415686 0 0.0823529
0.505882 0 0.0705882
0.596078 0.00392157 0.0392157
0.678431 0 0.00392157
0.760784 0 0
0.827451 0 0
0.878431 0 0
0.917647 0 0
0.00784314 0.0823529 0.101961
0.0117647 0.0823529 0.0980392
0.0392157 0.0823529 0.0980392
0.0666667 0.0862745 0.101961
0.0941176 0.0862745 0.0980392
0.133333 0.0862745 0.0980392
0.188235 0.0862745 0.0980392
0.254902 0.0666667 0.0901961
0.333333 0 0.0901961
0.427451 0 0.0823529
0.517647 0 0.0627451
0.607843 0 0.0313725
0.682353 0 0.00392157
0.760784 0 0
0.831373 0 0
0.882353 0 0
0.921569 0 0
0.0117647 0.105882 0.105882
0.0235294 0.105882 0.101961
0.0392157 0.105882 0.105882
0.0705882 0.109804 0.105882
0.105882 0.113725 0.101961
0.14902 0.117647 0.105882
0.2 0.113725 0.0980392
0.270588 0.109804 0.0941176
0.352941 0.0980392 0.0901961
0.443137 0.0666667 0.0745098
0.529412 0 0.054902
0.611765 0 0.0117647
0.698039 0 0
0.768627 0 0.00392157
0.835294 0 0
0.886275 0.0980392 0
0.92549 0.152941 0
0.0117647 0.141176 0.113725
0.0196078 0.141176 0.109804
0.0431373 0.145098 0.109804
0.0666667 0.145098 0.109804
0.109804 0.156863 0.101961
0.172549 0.168627 0.0980392
0.227451 0.168627 0.0941176
0.298039 0.168627 0.0941176
0.380392 0.164706 0.0823529
0.462745 0.156863 0.0705882
0.545098 0.14902 0.0352941
0.627451 0.141176 0
0.705882 0.141176 0.00392157
0.776471 0.152941 0
0.835294 0.176471 0
0.894118 0.207843 0
0.929412 0.243137 0
0 0.196078 0.109804
0.00392157 0.192157 0.113725
0.0392157 0.192157 0.117647
0.0784314 0.192157 0.121569
0.113725 0.207843 0.113725
0.184314 0.227451 0.101961
0.262745 0.243137 0.0901961
0.337255 0.247059 0.0823529
0.411765 0.243137 0.0745098
0.486275 0.235294 0.0470588
0.576471 0.239216 0
0.647059 0.239216 0
0.72549 0.247059 0
0.784314 0.254902 0
0.85098 0.27451 0
0.898039 0.298039 0
0.933333 0.321569 0
0 0.262745 0.117647
0 0.262745 0.117647
0.0313725 0.254902 0.117647
0.0784314 0.254902 0.12549
0.117647 0.266667 0.121569
0.180392 0.286275 0.109804
0.27451 0.317647 0.0980392
0.388235 0.341176 0.0588235
0.462745 0.337255 0.027451
0.533333 0.337255 0
0.596078 0.329412 0
0.666667 0.329412 0
0.737255 0.337255 0.00392157
0.8 0.34902 0
0.858824 0.360784 0
0.905882 0.380392 0
0.941176 0.396078 0
0 0.337255 0.121569
0 0.337255 0.129412
0.027451 0.337255 0.12549
0.0862745 0.329412 0.129412
0.12549 0.329412 0.137255
0.188235 0.34902 0.121569
0.262745 0.380392 0.105882
0.372549 0.411765 0.0745098
0.501961 0.439216 0
0.580392 0.439216 0
0.635294 0.431373 0
0.701961 0.427451 0
0.760784 0.427451 0
0.815686 0.431373 0
0.862745 0.443137 0
0.913725 0.454902 0
0.94902 0.466667 0
0 0.415686 0.133333
0 0.415686 0.133333
0.0509804 0.415686 0.137255
0.0980392 0.411765 0.133333
0.145098 0.407843 0.137255
0.2 0.419608 0.141176
0.27451 0.443137 0.12549
0.368627 0.47451 0.101961
0.47451 0.501961 0.0509804
0.6 0.529412 0
0.682353 0.533333 0
0.733333 0.52549 0
0.788235 0.521569 0
0.839216 0.521569 0
0.878431 0.521569 0
0.92549 0.533333 0
0.952941 0.541176 0
0 0.490196 0.145098
0.0352941 0.494118 0.145098
0.0901961 0.494118 0.145098
0.12549 0.486275 0.145098
0.164706 0.486275 0.152941
0.207843 0.478431 0.152941
0.282353 0.501961 0.145098
0.364706 0.529412 0.129412
0.470588 0.560784 0.105882
0.580392 0.588235 0.0509804
0.694118 0.615686 0
0.768627 0.619608 0
0.807843 0.611765 0
0.854902 0.607843 0
0.894118 0.607843 0
0.933333 0.607843 0
0.956863 0.611765 0
0.0862745 0.568627 0.156863
0.101961 0.572549 0.160784
0.133333 0.568627 0.164706
0.168627 0.568627 0.168627
0.203922 0.564706 0.168627
0.243137 0.556863 0.168627
0.298039 0.564706 0.168627
0.380392 0.588235 0.160784
0.466667 0.615686 0.14902
0.572549 0.639216 0.129412
0.670588 0.662745 0.0901961
0.772549 0.686275 0
0.839216 0.694118 0
0.870588 0.686275 0
0.905882 0.682353 0
0.941176 0.682353 0
0.964706 0.686275 0
0.152941 0.643137 0.184314
0.164706 0.647059 0.188235
0.184314 0.643137 0.184314
0.215686 0.643137 0.192157
0.247059 0.639216 0.192157
0.286275 0.639216 0.196078
0.32549 0.631373 0.2
0.396078 0.65098 0.196078
0.478431 0.666667 0.188235
0.568627 0.690196 0.180392
0.662745 0.713725 0.164706
0.74902 0.733333 0.141176
0.835294 0.74902 0.109804
0.890196 0.756863 0.0901961
0.917647 0.752941 0.0823529
0.94902 0.74902 0.0901961
0.968627 0.74902 0.105882
0.219608 0.713725 0.219608
0.231373 0.713725 0.223529
0.247059 0.713725 0.219608
0.27451 0.713725 0.227451
0.301961 0.709804 0.227451
0.333333 0.709804 0.227451
0.372549 0.701961 0.235294
0.427451 0.705882 0.235294
0.498039 0.72549 0.231373
0.580392 0.741176 0.231373
0.658824 0.756863 0.227451
0.741176 0.776471 0.219608
0.811765 0.788235 0.207843
0.878431 0.803922 0.192157
0.929412 0.811765 0.188235
0.960784 0.807843 0.192157
0.972549 0.807843 0.2
0.290196 0.780392 0.262745
0.305882 0.780392 0.266667
0.317647 0.780392 0.270588
0.337255 0.780392 0.266667
0.360784 0.776471 0.27451
0.396078 0.772549 0.278431
0.423529 0.768627 0.286275
0.462745 0.764706 0.286275
0.52549 0.776471 0.294118
0.596078 0.788235 0.290196
0.67451 0.803922 0.290196
0.737255 0.815686 0.290196
0.811765 0.827451 0.290196
0.866667 0.839216 0.282353
0.917647 0.854902 0.278431
0.960784 0.858824 0.282353
0.980392 0.858824 0.286275
0.380392 0.843137 0.32549
0.388235 0.839216 0.329412
0.4 0.843137 0.329412
0.411765 0.839216 0.333333
0.439216 0.839216 0.337255
0.462745 0.835294 0.341176
0.494118 0.831373 0.34902
0.52549 0.831373 0.352941
0.572549 0.827451 0.356863
0.631373 0.843137 0.364706
0.694118 0.85098 0.368627
0.756863 0.862745 0.376471
0.811765 0.870588 0.380392
0.866667 0.87451 0.376471
0.905882 0.886275 0.380392
0.952941 0.898039 0.376471
0.980392 0.898039 0.380392
0.478431 0.898039 0.419608
0.486275 0.898039 0.419608
0.494118 0.894118 0.419608
0.505882 0.894118 0.423529
0.52549 0.894118 0.427451
0.545098 0.890196 0.431373
0.576471 0.890196 0.439216
0.603922 0.886275 0.45098
0.635294 0.886275 0.458824
0.682353 0.890196 0.466667
0.733333 0.894118 0.47451
0.780392 0.905882 0.482353
0.827451 0.913725 0.490196
0.870588 0.917647 0.498039
0.909804 0.92549 0.498039
0.941176 0.929412 0.498039
0.972549 0.933333 0.498039
0.592157 0.937255 0.537255
0.592157 0.937255 0.537255
0.596078 0.937255 0.533333
0.607843 0.937255 0.537255
0.623529 0.937255 0.541176
0.643137 0.937255 0.54902
0.666667 0.937255 0.560784
0.694118 0.933333 0.572549
0.717647 0.933333 0.592157
0.74902 0.933333 0.607843
0.788235 0.941176 0.615686
0.823529 0.945098 0.627451
0.854902 0.94902 0.635294
0.882353 0.956863 0.647059
0.913725 0.960784 0.654902
0.941176 0.964706 0.654902
0.964706 0.964706 0.654902
0 0.0588235 0.121569
0.00784314 0.054902 0.117647
0.0313725 0.0588235 0.121569
0.0627451 0.0588235 0.117647
0.0784314 0.0627451 0.117647
0.121569 0.054902 0.117647
0.176471 0.0235294 0.117647
0.247059 0 0.113725
0.32549 0 0.109804
0.415686 0 0.117647
0.505882 0 0.109804
0.596078 0 0.0901961
0.678431 0 0.0784314
0.760784 0 0.0509804
0.831373 0 0
0.886275 0 0.00392157
0.92549 0 0
0 0.0705882 0.12549
0.00392157 0.0666667 0.12549
0.0313725 0.0705882 0.121569
0.0588235 0.0705882 0.121569
0.0862745 0.0745098 0.117647
0.12549 0.0705882 0.121569
0.180392 0.0431373 0.121569
0.25098 0 0.113725
0.333333 0 0.121569
0.423529 0 0.113725
0.513725 0 0.101961
0.603922 0 0.0941176
0.690196 0 0.0823529
0.764706 0.00392157 0.0470588
0.831373 0 0
0.882353 0 0
