example-Advanced/bin/data/ofxGpuLutCube/LUT/Hollywood-79.cube
TITLE "mon_chelsea"
# LUT size
# data domain
# LUT data points
# 
# Copyright: (C) Copyright 2015 James Miller
# Created by: James Miller, www.DeLuts.co.uk
LUT_3D_SIZE 16
0.097168 0.095428 0.094360
0.097469 0.096031 0.094299
0.098667 0.096130 0.094302
0.101782 0.096716 0.094458
0.110581 0.098537 0.095370
0.139292 0.104157 0.099040
0.222681 0.115320 0.106214
0.342607 0.127230 0.113918
0.422054 0.133085 0.117169
0.475897 0.137488 0.120447
0.513224 0.139852 0.121460
0.539060 0.141309 0.122146
0.559479 0.143176 0.122967
0.574760 0.144686 0.123659
0.580548 0.145205 0.123757
0.584412 0.144806 0.123810
0.097214 0.096808 0.094342
0.098053 0.096881 0.094328
0.098891 0.097253 0.094450
0.101947 0.097563 0.094603
0.110516 0.099121 0.095506
0.138798 0.104661 0.099033
0.221952 0.116049 0.106226
0.342381 0.128296 0.113902
0.422310 0.134176 0.117226
0.476443 0.138924 0.120492
0.513934 0.141136 0.121684
0.539880 0.142684 0.122331
0.560226 0.144554 0.123220
0.575553 0.146086 0.123856
0.581448 0.146336 0.124084
0.585228 0.146386 0.124001
0.097803 0.098354 0.094580
0.098434 0.098444 0.094596
0.099420 0.098425 0.094849
0.102407 0.098881 0.095017
0.110913 0.100488 0.095784
0.139187 0.106057 0.099365
0.222300 0.117542 0.106596
0.342680 0.130101 0.114303
0.423192 0.135844 0.117440
0.477488 0.140641 0.120784
0.515147 0.142826 0.121947
0.540955 0.144334 0.122593
0.561072 0.146053 0.123399
0.576339 0.147485 0.124035
0.582328 0.147758 0.124207
0.586127 0.147854 0.124140
0.099188 0.102326 0.095715
0.099943 0.102183 0.095715
0.100989 0.102212 0.095868
0.104291 0.102820 0.096234
0.112894 0.104391 0.096631
0.144016 0.110077 0.100173
0.233410 0.122925 0.107977
0.355646 0.136100 0.115523
0.435958 0.141972 0.118578
0.491229 0.146771 0.121923
0.528105 0.149155 0.123061
0.552716 0.150557 0.123792
0.570984 0.151630 0.124469
0.584536 0.152336 0.125016
0.589060 0.151939 0.124957
0.591058 0.151050 0.124737
0.103138 0.110865 0.098029
0.103447 0.111041 0.098124
0.104250 0.111078 0.098220
0.107943 0.111902 0.098818
0.117743 0.114762 0.100136
0.160539 0.121549 0.102185
0.268990 0.136318 0.111344
0.392665 0.148521 0.118640
0.472495 0.155349 0.121995
0.526186 0.159754 0.124737
0.559049 0.162020 0.125987
0.579427 0.163059 0.126585
0.595217 0.164170 0.127289
0.608229 0.164817 0.127861
0.612134 0.163878 0.127775
0.612872 0.162488 0.127480
0.119995 0.150371 0.109385
0.120774 0.150474 0.109487
0.121161 0.150143 0.109412
0.124487 0.151925 0.109886
0.138839 0.162522 0.112667
0.204692 0.188212 0.121989
0.390204 0.207320 0.125218
0.518188 0.209920 0.129103
0.582121 0.213088 0.132908
0.619749 0.214453 0.135258
0.641134 0.214467 0.136180
0.655638 0.214435 0.136876
0.666880 0.214312 0.137302
0.676615 0.213949 0.137659
0.676654 0.209583 0.137079
0.672964 0.203786 0.135946
0.169312 0.276422 0.136621
0.170681 0.276683 0.136689
0.171889 0.276091 0.136672
0.174310 0.276745 0.136902
0.196424 0.300090 0.141850
0.322884 0.368026 0.164064
0.513574 0.420831 0.182818
0.651355 0.427132 0.183159
0.723411 0.424412 0.182983
0.754816 0.416589 0.180603
0.773222 0.410846 0.179350
0.782591 0.406376 0.179282
0.790686 0.403271 0.179309
0.798592 0.401239 0.179311
0.803192 0.390501 0.176239
0.803394 0.372724 0.171271
0.243532 0.446183 0.172939
0.245892 0.446548 0.173197
0.248003 0.446338 0.173393
0.249813 0.445675 0.173371
0.272642 0.462545 0.178577
0.418872 0.536784 0.205093
0.627419 0.593028 0.233590
0.719879 0.610384 0.240900
0.782863 0.612248 0.241665
0.804958 0.608793 0.241413
0.810801 0.602803 0.242047
0.816736 0.598845 0.242438
0.822782 0.596093 0.242641
0.829191 0.594318 0.242648
0.833406 0.590193 0.241524
0.834863 0.581140 0.238757
0.309068 0.560861 0.203538
0.312076 0.561214 0.203959
0.314933 0.561308 0.204187
0.317403 0.561054 0.204399
0.329222 0.565745 0.205945
0.470823 0.624213 0.229956
0.674087 0.681821 0.260236
0.764180 0.695133 0.266012
0.809932 0.700741 0.269138
0.826467 0.701239 0.272264
0.831496 0.694999 0.272606
0.836442 0.691201 0.273244
0.841678 0.688627 0.273883
0.847266 0.686780 0.274217
0.851557 0.684493 0.273832
0.852983 0.680006 0.272125
0.382776 0.643048 0.230017
0.386355 0.643365 0.230416
0.389769 0.643526 0.230765
0.392682 0.643341 0.230945
0.395345 0.642942 0.231032
0.501190 0.681480 0.249750
0.693799 0.729364 0.275988
0.786800 0.745577 0.283812
0.831801 0.749129 0.286523
0.848340 0.750751 0.289404
0.853265 0.745849 0.291687
0.858299 0.742668 0.293101
0.863568 0.740546 0.294159
0.869241 0.739193 0.295050
0.874298 0.738100 0.295436
0.876819 0.736279 0.294599
0.466939 0.708028 0.255575
0.470815 0.708299 0.256030
0.474622 0.708464 0.256417
0.477962 0.708488 0.256686
0.480994 0.708307 0.256862
0.522644 0.719330 0.263641
0.708917 0.764081 0.288951
0.803530 0.780845 0.297966
0.845632 0.781678 0.300272
0.859320 0.783182 0.302024
0.862874 0.778412 0.303985
0.867941 0.775014 0.305402
0.873660 0.772709 0.306575
0.879676 0.771124 0.307448
0.885429 0.770003 0.308008
0.888570 0.768972 0.307536
0.564435 0.757188 0.282204
0.568510 0.757300 0.282471
0.572219 0.757300 0.282620
0.575680 0.757222 0.282686
0.578754 0.757033 0.282792
0.585197 0.757603 0.283234
0.717082 0.788220 0.298720
0.811940 0.804657 0.308085
0.855701 0.806134 0.312052
0.868561 0.806236 0.312858
0.872497 0.801101 0.314701
0.876998 0.797199 0.315609
0.881808 0.794460 0.316211
0.887044 0.792733 0.316758
0.892619 0.791667 0.317310
0.896218 0.790963 0.317112
0.657367 0.795990 0.301856
0.661259 0.795891 0.301870
0.665011 0.795837 0.301805
0.668506 0.795618 0.301654
0.671643 0.795367 0.301497
0.674552 0.795040 0.301314
0.723077 0.805310 0.306464
0.814520 0.821112 0.315003
0.862156 0.825248 0.322764
0.874957 0.823968 0.322687
0.879627 0.817531 0.323547
0.884165 0.813153 0.324259
0.888947 0.810376 0.324836
0.894151 0.808665 0.325370
0.899369 0.807479 0.325769
0.903284 0.806964 0.325635
0.719431 0.822585 0.315755
0.723486 0.822585 0.315702
0.727433 0.822471 0.315678
0.731280 0.822355 0.315599
0.734932 0.822217 0.315464
0.738326 0.821991 0.315289
0.744446 0.822278 0.315312
0.814978 0.833881 0.321618
0.865464 0.840267 0.331128
0.880056 0.839512 0.332969
0.884798 0.833195 0.333407
0.889327 0.828379 0.333537
0.894281 0.824996 0.333675
0.899491 0.822726 0.333815
0.904938 0.821262 0.334158
0.909292 0.820656 0.334192
0.758690 0.839835 0.325688
0.762817 0.839797 0.325710
0.766907 0.839754 0.325610
0.770850 0.839655 0.325494
0.774701 0.839551 0.325401
0.778387 0.839427 0.325281
0.781905 0.839319 0.325094
0.814748 0.844515 0.328501
0.867000 0.852130 0.337759
0.883602 0.853373 0.342100
0.888647 0.847388 0.342491
0.893105 0.842357 0.342595
0.898002 0.838955 0.342694
0.903137 0.836592 0.342802
0.908433 0.834809 0.343060
0.913385 0.833941 0.343191
0.778290 0.850677 0.333710
0.782465 0.850704 0.333710
0.786699 0.850655 0.333710
0.790820 0.850647 0.333679
0.794987 0.850647 0.333649
0.799072 0.850647 0.333659
0.802985 0.850671 0.333612
0.812211 0.851673 0.334615
0.861993 0.858643 0.341327
0.883978 0.862475 0.347998
0.890971 0.858296 0.350037
0.895042 0.852775 0.350063
0.899768 0.849109 0.350250
0.904995 0.847058 0.351111
0.910679 0.845970 0.352287
0.916199 0.845459 0.353333
0.097079 0.095805 0.094676
0.097481 0.096116 0.094731
0.098678 0.096093 0.094940
0.101614 0.096747 0.095182
0.110398 0.098376 0.096161
0.138957 0.104049 0.099959
0.222341 0.115175 0.107137
0.341946 0.127224 0.114833
0.421289 0.133059 0.118209
0.475232 0.137358 0.121478
0.512679 0.139726 0.122742
0.538607 0.141398 0.123362
0.559033 0.143186 0.124213
0.574321 0.144560 0.124850
0.580097 0.144989 0.124933
0.583921 0.144962 0.124892
0.097026 0.097091 0.094863
0.097892 0.096881 0.094944
0.098845 0.097200 0.095093
0.101825 0.097451 0.095294
0.110470 0.098942 0.096220
0.138491 0.104551 0.099951
0.221584 0.115833 0.107084
0.341801 0.128088 0.114881
0.421649 0.134113 0.118313
0.475820 0.138639 0.121680
0.513404 0.141026 0.122886
0.539368 0.142487 0.123545
0.559843 0.144377 0.124355
0.575155 0.145945 0.125000
0.581022 0.146141 0.125024
0.584767 0.146401 0.125010
0.097890 0.098262 0.095219
0.098313 0.098430 0.095200
0.099459 0.098564 0.095357
0.102453 0.098767 0.095645
0.110901 0.100429 0.096334
0.139144 0.106030 0.099992
0.222192 0.117368 0.107157
0.342259 0.129769 0.115071
0.422440 0.135683 0.118357
0.476737 0.140344 0.121796
0.514447 0.142530 0.122980
0.540351 0.144133 0.123616
0.560555 0.145901 0.124396
0.575863 0.147311 0.125069
0.581828 0.147707 0.125128
0.585630 0.147764 0.125194
0.099404 0.101996 0.096259
0.099917 0.102112 0.096247
0.100944 0.102244 0.096435
0.104411 0.102846 0.096743
0.112903 0.104366 0.097131
0.143856 0.109994 0.100757
0.232910 0.122670 0.108653
0.354917 0.135771 0.116323
0.435085 0.141681 0.119287
0.490301 0.146429 0.122683
0.527274 0.148928 0.124048
0.551876 0.150301 0.124666
0.570268 0.151412 0.125354
0.583921 0.152002 0.125879
0.588434 0.151668 0.125793
0.590406 0.150918 0.125576
0.102995 0.110834 0.098619
0.103326 0.110996 0.098700
0.104218 0.110931 0.098741
0.107902 0.111890 0.099353
0.117847 0.114516 0.100649
0.160374 0.121311 0.102779
0.268345 0.136244 0.112012
0.391933 0.148222 0.119389
0.471826 0.155025 0.122733
0.525614 0.159452 0.125549
0.558596 0.161668 0.126841
0.578976 0.162818 0.127602
0.594826 0.163851 0.128192
0.607802 0.164484 0.128735
0.611794 0.163607 0.128573
0.612559 0.162177 0.128345
0.120014 0.150039 0.110093
0.120680 0.150220 0.110070
0.121055 0.149923 0.110046
0.124347 0.151737 0.110521
0.138729 0.162244 0.113379
0.204297 0.187925 0.122738
0.389628 0.206753 0.125942
0.517525 0.209542 0.129978
0.581539 0.212665 0.133848
0.619033 0.214079 0.136224
0.640584 0.214063 0.137156
0.655068 0.214046 0.137718
0.666347 0.214012 0.138298
0.676107 0.213631 0.138621
0.676225 0.209214 0.137995
0.672658 0.203420 0.136784
0.169171 0.275983 0.137447
0.170540 0.276165 0.137602
0.171692 0.275598 0.137544
0.174099 0.276302 0.137891
0.196023 0.299589 0.142843
0.322286 0.367423 0.165340
0.513039 0.420292 0.184217
0.650934 0.426575 0.184566
0.723094 0.423873 0.184308
0.754541 0.416127 0.181932
0.773030 0.410270 0.180739
0.782340 0.405817 0.180646
0.790511 0.402767 0.180650
0.798421 0.400681 0.180660
0.802973 0.389878 0.177487
0.803162 0.372188 0.172553
0.243315 0.445695 0.174305
0.245598 0.446069 0.174540
0.247737 0.445906 0.174660
0.249556 0.445288 0.174615
0.272215 0.462089 0.179842
0.418264 0.536257 0.206630
0.627047 0.592721 0.235366
0.719818 0.610313 0.242954
0.782847 0.612160 0.243752
0.804950 0.608681 0.243463
0.810799 0.602694 0.244179
0.816723 0.598747 0.244521
0.822758 0.595990 0.244728
0.829181 0.594210 0.244751
0.833396 0.590002 0.243602
0.834853 0.581016 0.240853
0.308739 0.560473 0.205194
0.311688 0.560868 0.205550
0.314607 0.560944 0.205805
0.317049 0.560638 0.205971
0.328719 0.565322 0.207506
0.470337 0.623854 0.231657
0.673972 0.681716 0.262424
0.764089 0.695044 0.268292
0.809896 0.700678 0.271450
0.826440 0.701157 0.274552
0.831515 0.694938 0.274917
0.836448 0.691136 0.275584
0.841685 0.688574 0.276225
0.847263 0.686688 0.276530
0.851555 0.684422 0.276201
0.853015 0.679909 0.274441
0.382416 0.642694 0.231752
0.386019 0.643064 0.232192
0.389384 0.643207 0.232520
0.392328 0.643078 0.232721
0.394940 0.642676 0.232821
0.500694 0.681154 0.251585
0.693729 0.729325 0.278320
0.786776 0.745522 0.286149
0.831801 0.749052 0.288879
0.848331 0.750694 0.291795
0.853237 0.745813 0.294094
0.858236 0.742637 0.295516
0.863580 0.740531 0.296627
0.869241 0.739188 0.297473
0.874294 0.738121 0.297903
0.876819 0.736212 0.297058
0.466465 0.707668 0.257440
0.470457 0.708044 0.257892
0.474225 0.708223 0.258332
0.477565 0.708240 0.258608
0.480566 0.708030 0.258838
0.522143 0.719088 0.265584
0.708832 0.764036 0.291343
0.803447 0.780794 0.300456
0.845632 0.781675 0.302765
0.859330 0.783152 0.304533
0.862844 0.778428 0.306516
0.867967 0.774953 0.307941
0.873661 0.772715 0.309084
0.879673 0.771145 0.309961
0.885455 0.769993 0.310569
0.888597 0.768972 0.310144
0.564270 0.756968 0.284403
0.568270 0.757121 0.284640
0.572019 0.757161 0.284829
0.575466 0.757105 0.284934
0.578532 0.756881 0.284979
0.584985 0.757451 0.285406
0.716990 0.788165 0.301194
0.811910 0.804635 0.310651
0.855729 0.806120 0.314620
0.868585 0.806228 0.315434
0.872524 0.801070 0.317269
0.877013 0.797196 0.318215
0.881795 0.794468 0.318803
0.887032 0.792735 0.319356
0.892602 0.791636 0.319932
0.896189 0.790930 0.319653
0.657283 0.795962 0.304413
0.661247 0.795897 0.304382
0.664947 0.795803 0.304297
0.668461 0.795603 0.304189
0.671631 0.795390 0.304018
0.674489 0.795042 0.303808
0.723020 0.805274 0.309033
0.814478 0.821110 0.317635
0.862156 0.825265 0.325415
0.874969 0.823973 0.325340
0.879635 0.817531 0.326196
0.884192 0.813153 0.326920
0.888963 0.810364 0.327537
0.894155 0.808653 0.328013
0.899377 0.807479 0.328445
0.903315 0.806933 0.328320
0.719417 0.822559 0.318355
0.723486 0.822562 0.318321
0.727458 0.822463 0.318254
0.731258 0.822351 0.318160
0.734906 0.822207 0.318083
0.738326 0.822026 0.317904
0.744397 0.822248 0.317934
0.814864 0.833846 0.324298
0.865495 0.840238 0.333858
0.880049 0.839481 0.335679
0.884794 0.833201 0.336102
0.889349 0.828374 0.336249
0.894297 0.825004 0.336367
0.899491 0.822748 0.336542
0.904916 0.821262 0.336857
0.909300 0.820634 0.336896
0.758707 0.839809 0.328349
0.762825 0.839797 0.328344
0.766903 0.839750 0.328275
0.770837 0.839624 0.328158
0.774701 0.839571 0.328062
0.778410 0.839421 0.327948
0.781925 0.839288 0.327757
0.814767 0.844511 0.331195
0.866949 0.852152 0.340523
0.883584 0.853377 0.344822
0.888682 0.847404 0.345266
0.893066 0.842367 0.345341
0.898002 0.838936 0.345416
0.903163 0.836548 0.345559
0.908460 0.834786 0.345821
0.913354 0.833964 0.345941
0.778316 0.850677 0.336444
0.782491 0.850677 0.336406
0.786733 0.850677 0.336410
0.790851 0.850647 0.336406
0.794989 0.850649 0.336381
0.799099 0.850647 0.336369
0.803015 0.850647 0.336355
0.812213 0.851669 0.337299
0.862024 0.858616 0.344094
0.884031 0.862528 0.350800
0.891001 0.858296 0.352867
0.895058 0.852775 0.352895
0.899780 0.849113 0.353035
0.904999 0.847058 0.353853
0.910706 0.845947 0.355082
0.916229 0.845459 0.356171
0.096852 0.095589 0.095726
0.097378 0.095898 0.095728
0.098378 0.096258 0.095974
0.101524 0.096643 0.096517
0.109682 0.098466 0.097479
0.137699 0.103860 0.101196
0.220487 0.114752 0.108734
0.339449 0.126611 0.116738
0.418959 0.132416 0.120506
0.472254 0.136887 0.123665
0.509959 0.139276 0.124982
0.536949 0.141048 0.125834
0.557584 0.142723 0.126780
0.572862 0.144360 0.127409
0.578656 0.144594 0.127525
0.582530 0.144594 0.127576
0.096844 0.096749 0.095852
0.097636 0.096743 0.095968
0.098519 0.097030 0.096129
0.101554 0.097408 0.096552
0.109817 0.098865 0.097439
0.137431 0.104313 0.101211
0.219757 0.115452 0.108694
0.339357 0.127726 0.116783
0.419356 0.133573 0.120532
0.472902 0.138185 0.123751
0.510744 0.140535 0.125124
0.537720 0.142265 0.125934
0.558411 0.144102 0.126904
0.573743 0.145530 0.127633
0.579594 0.145939 0.127700
0.583458 0.145878 0.127745
0.097634 0.098022 0.096224
0.098061 0.098167 0.096206
0.098963 0.098391 0.096325
0.102079 0.098704 0.096692
0.110634 0.100141 0.097408
0.139040 0.105851 0.101008
0.221735 0.116890 0.108462
0.340802 0.129264 0.116477
0.420589 0.135189 0.120003
0.474368 0.139689 0.123500
0.512221 0.142100 0.124992
0.538859 0.143737 0.125881
0.559312 0.145449 0.126853
0.574656 0.147042 0.127574
0.580648 0.147280 0.127779
0.584448 0.147176 0.127672
0.099093 0.101640 0.097129
0.099491 0.101898 0.097205
0.100588 0.102209 0.097312
0.104572 0.103017 0.097743
0.113025 0.104106 0.098104
0.143791 0.109595 0.101813
0.231268 0.121808 0.109562
0.351671 0.134550 0.117279
0.431002 0.140352 0.120449
0.485575 0.145040 0.123791
0.522970 0.147302 0.125139
0.547961 0.148739 0.125791
0.566555 0.149821 0.126503
0.580662 0.150683 0.127138
0.585482 0.150496 0.127305
0.588045 0.149923 0.127331
0.102541 0.110529 0.099778
0.102993 0.110567 0.099809
0.103813 0.110812 0.099839
0.107928 0.112691 0.100380
0.119527 0.116148 0.102103
0.161664 0.121039 0.103941
0.266414 0.134947 0.112964
0.387773 0.146643 0.120294
0.466396 0.152991 0.123511
0.520286 0.157243 0.126426
0.553744 0.159570 0.127690
0.574449 0.160714 0.128475
0.590529 0.161680 0.129100
0.603591 0.162392 0.129657
0.607581 0.161550 0.129488
0.608238 0.160162 0.129173
0.119560 0.149613 0.111350
0.120263 0.149642 0.111414
0.120797 0.149302 0.111406
0.124764 0.153451 0.112099
0.139349 0.164783 0.115143
0.211859 0.193321 0.125486
0.390196 0.205168 0.127124
0.511727 0.205969 0.130993
0.572906 0.208048 0.134827
0.608819 0.208724 0.137156
0.630281 0.208541 0.138149
0.645115 0.208152 0.138682
0.657137 0.207959 0.138971
0.668056 0.207615 0.139134
0.669232 0.203379 0.138249
0.665690 0.197681 0.136855
0.168697 0.275179 0.139246
0.170062 0.275401 0.139374
0.171305 0.274796 0.139311
0.173885 0.276544 0.139571
0.195758 0.300498 0.144609
0.322445 0.369450 0.167570
0.516256 0.423326 0.187215
0.650783 0.425145 0.186387
0.721098 0.419548 0.185252
0.752295 0.410327 0.182328
0.770906 0.403581 0.180912
0.780450 0.398440 0.180509
0.788991 0.394753 0.180251
0.797339 0.392267 0.180119
0.801835 0.381429 0.176925
0.800993 0.364006 0.172152
0.242863 0.445140 0.176007
0.245101 0.445457 0.176263
0.247341 0.445290 0.176414
0.249152 0.444645 0.176385
0.270996 0.461239 0.181299
0.415660 0.535404 0.208144
0.626664 0.592802 0.237586
0.720014 0.610669 0.245463
0.782733 0.611866 0.246096
0.804765 0.607963 0.245722
0.810579 0.601634 0.246252
0.816500 0.597512 0.246609
0.822516 0.594753 0.246724
0.828935 0.592863 0.246714
0.833105 0.588601 0.245504
0.834570 0.579386 0.242590
0.308335 0.559989 0.206862
0.311375 0.560362 0.207223
0.314054 0.560472 0.207530
0.316596 0.560169 0.207713
0.327679 0.564514 0.209049
0.468453 0.622919 0.233234
0.673307 0.681513 0.264698
0.763993 0.694989 0.270644
0.809886 0.700695 0.273845
0.826402 0.701076 0.276939
0.831411 0.694779 0.277297
0.836365 0.690904 0.277942
0.841540 0.688360 0.278526
0.847070 0.686432 0.278924
0.851377 0.684076 0.278483
0.852797 0.679594 0.276685
0.381938 0.642367 0.233514
0.385539 0.642643 0.233950
0.388827 0.642727 0.234182
0.391776 0.642617 0.234432
0.394415 0.642191 0.234521
0.499695 0.680664 0.253282
0.693380 0.729226 0.280623
0.786590 0.745503 0.288560
0.831781 0.748995 0.291337
0.848321 0.750631 0.294191
0.853226 0.745721 0.296498
0.858221 0.742537 0.297935
0.863556 0.740442 0.299054
0.869202 0.739075 0.299949
0.874278 0.738005 0.300340
0.876811 0.736135 0.299454
0.465965 0.707389 0.259336
0.469940 0.707654 0.259821
0.473702 0.707861 0.260201
0.477047 0.707835 0.260478
0.480025 0.707727 0.260683
0.521320 0.718716 0.267452
0.708518 0.763932 0.293723
0.803367 0.780764 0.302895
0.845597 0.781612 0.305278
0.859324 0.783081 0.306991
0.862836 0.778365 0.309015
0.867965 0.774976 0.310490
0.873690 0.772689 0.311619
0.879663 0.771100 0.312514
0.885472 0.769920 0.313090
0.888577 0.768937 0.312673
0.563871 0.756824 0.286571
0.567883 0.756936 0.286837
0.571663 0.756960 0.287010
0.575080 0.756883 0.287103
0.578178 0.756679 0.287116
0.584534 0.757212 0.287579
0.716675 0.788094 0.303644
0.811764 0.804600 0.313169
0.855680 0.806071 0.317214
0.868551 0.806187 0.318026
0.872516 0.801074 0.319879
0.876990 0.797158 0.320803
0.881781 0.794415 0.321413
0.887014 0.792670 0.321926
0.892609 0.791611 0.322499
0.896216 0.790859 0.322255
0.657115 0.795882 0.306867
0.661064 0.795846 0.306828
0.664811 0.795746 0.306767
0.668327 0.795563 0.306640
0.671531 0.795331 0.306488
0.674381 0.794973 0.306287
0.722776 0.805172 0.311517
0.814362 0.821059 0.320170
0.862118 0.825230 0.328032
0.874951 0.823954 0.328001
0.879633 0.817489 0.328851
0.884168 0.813114 0.329553
0.888977 0.810356 0.330129
0.894135 0.808618 0.330674
0.899394 0.807452 0.331079
0.903284 0.806923 0.330973
0.719271 0.822553 0.320937
0.723421 0.822512 0.320919
0.727364 0.822440 0.320856
0.731189 0.822310 0.320754
0.734839 0.822168 0.320640
0.738277 0.821973 0.320465
0.744340 0.822252 0.320520
0.814756 0.833836 0.326847
0.865448 0.840232 0.336505
0.880076 0.839487 0.338348
0.884806 0.833195 0.338794
0.889366 0.828349 0.338926
0.894312 0.824992 0.339067
0.899505 0.822740 0.339243
0.904938 0.821224 0.339539
0.909314 0.820618 0.339553
0.758624 0.839748 0.331018
0.762758 0.839748 0.330965
0.766834 0.839716 0.330910
0.770768 0.839620 0.330819
0.774668 0.839579 0.330719
0.778369 0.839431 0.330573
0.781897 0.839276 0.330383
0.814658 0.844501 0.333815
0.866982 0.852136 0.343203
0.883606 0.853377 0.347595
0.888696 0.847400 0.348033
0.893091 0.842357 0.348098
0.897998 0.838924 0.348183
0.903168 0.836552 0.348324
0.908456 0.834774 0.348556
0.913363 0.833941 0.348696
0.778320 0.850677 0.339140
0.782496 0.850651 0.339184
0.786760 0.850669 0.339110
0.790863 0.850665 0.339105
0.795015 0.850663 0.339101
0.799113 0.850647 0.339071
0.803015 0.850647 0.339063
0.812207 0.851644 0.340016
0.861959 0.858582 0.346802
0.884007 0.862567 0.353595
0.891001 0.858337 0.355656
0.895018 0.852775 0.355680
0.899788 0.849109 0.355861
0.905025 0.847058 0.356702
0.910691 0.845970 0.357894
0.916237 0.845459 0.359015
0.095947 0.095508 0.097791
0.096678 0.095831 0.098012
0.097693 0.096269 0.098197
0.101019 0.096661 0.099085
0.107687 0.098350 0.100346
0.132802 0.103514 0.104704
0.211865 0.113934 0.112598
0.328338 0.125446 0.121041
0.409784 0.131555 0.125938
0.461566 0.135828 0.129150
0.499327 0.138412 0.130694
0.526988 0.140235 0.131779
0.549664 0.141968 0.132751
0.566494 0.143179 0.133504
0.572459 0.143597 0.133547
0.576325 0.143707 0.133514
0.096281 0.096405 0.097982
0.096517 0.096761 0.098161
0.097835 0.096794 0.098421
0.100916 0.097353 0.099085
0.107658 0.098877 0.100311
0.132452 0.103855 0.104636
0.211123 0.114604 0.112510
0.328318 0.126438 0.121114
0.410276 0.132713 0.125983
0.462262 0.137217 0.129195
0.500169 0.139618 0.130776
0.527830 0.141537 0.131875
0.550594 0.143270 0.132904
0.567442 0.144757 0.133673
0.573454 0.145026 0.133748
0.577370 0.145020 0.133645
0.096611 0.097597 0.098273
0.097044 0.097843 0.098405
0.097835 0.097815 0.098700
0.101261 0.098445 0.099341
0.108467 0.099670 0.100443
0.134053 0.105015 0.104380
0.213735 0.115898 0.112162
0.330837 0.127730 0.120575
0.412337 0.134033 0.125476
0.463853 0.138488 0.128717
0.501587 0.140960 0.130414
0.529069 0.142875 0.131704
0.551713 0.144568 0.132719
0.568656 0.145992 0.133561
0.574788 0.146342 0.133661
0.578656 0.146362 0.133663
0.097894 0.100989 0.099134
0.098331 0.101157 0.099255
0.099272 0.101361 0.099679
0.102465 0.101813 0.100183
0.110500 0.102885 0.101098
0.139188 0.108301 0.104431
0.223664 0.119800 0.112066
0.341780 0.131952 0.120054
0.422048 0.137976 0.124062
0.474615 0.142590 0.127264
0.512278 0.145093 0.128971
0.539699 0.146836 0.130160
0.560602 0.148297 0.131384
0.575464 0.149235 0.132369
0.580477 0.149085 0.132749
0.583050 0.148663 0.132934
0.101335 0.109096 0.101963
0.101845 0.109206 0.102006
0.102478 0.109562 0.102175
0.106064 0.112028 0.102689
0.119352 0.116447 0.104678
0.157324 0.119621 0.107088
0.257861 0.132031 0.115859
0.376406 0.143311 0.122764
0.452187 0.148621 0.125810
0.505107 0.152718 0.128511
0.540346 0.154907 0.130121
0.563171 0.156227 0.130894
0.580056 0.157229 0.131561
0.593510 0.157747 0.132007
0.597860 0.157170 0.131880
0.599134 0.156109 0.131639
0.117547 0.147874 0.114801
0.118309 0.147896 0.114909
0.118927 0.147504 0.114801
0.123352 0.153589 0.115879
0.138324 0.167898 0.119006
0.222418 0.203351 0.131344
0.386239 0.201638 0.130259
0.494485 0.198531 0.133962
0.550047 0.197449 0.137132
0.585122 0.196187 0.138928
0.607070 0.194787 0.139396
0.622793 0.193408 0.139117
0.635386 0.192312 0.138918
0.646171 0.191500 0.138810
0.646566 0.187605 0.137984
0.643567 0.182906 0.136839
0.167206 0.274634 0.144959
0.168567 0.274817 0.145131
0.169676 0.274233 0.145060
0.172681 0.276880 0.145276
0.195040 0.305440 0.149890
0.319965 0.378629 0.173865
0.531763 0.438953 0.197333
0.650830 0.421228 0.190531
0.715259 0.404099 0.185614
0.744513 0.386975 0.180219
0.761635 0.374556 0.177525
0.771529 0.365151 0.175696
0.779681 0.358374 0.174371
0.787437 0.353609 0.173608
0.789707 0.342647 0.170603
0.785339 0.326953 0.166834
0.241449 0.446497 0.184103
0.243777 0.446851 0.184373
