example-Advanced/bin/data/ofxGpuLutCube/LUT/Movie-52.cube
#Generated by Picture Instruments - Look Creator
TITLE "Kodak Portra 100t"
LUT_3D_SIZE 5
0 0 0
0.156863 0.0588235 0.0156863
0.317647 0.105882 0.0235294
0.513725 0.14902 0.0196078
0.776471 0.239216 0.0196078
0.129412 0.207843 0.0941176
0.203922 0.219608 0.0862745
0.372549 0.239216 0.054902
0.576471 0.278431 0.0705882
0.807843 0.337255 0.0627451
0.262745 0.462745 0.207843
0.317647 0.47451 0.211765
0.454902 0.498039 0.2
0.65098 0.52549 0.176471
0.87451 0.576471 0.203922
0.447059 0.768627 0.415686
0.47451 0.760784 0.411765
0.564706 0.772549 0.419608
0.713725 0.792157 0.407843
0.917647 0.827451 0.443137
0.737255 0.980392 0.733333
0.737255 0.972549 0.721569
0.784314 0.976471 0.737255
0.866667 0.980392 0.764706
0.952941 0.984314 0.780392
0.0784314 0.0705882 0.152941
0.180392 0.0862745 0.164706
0.333333 0.109804 0.164706
0.521569 0.176471 0.188235
0.772549 0.243137 0.203922
0.160784 0.223529 0.192157
0.227451 0.231373 0.207843
0.376471 0.247059 0.203922
0.572549 0.286275 0.219608
0.811765 0.34902 0.239216
0.282353 0.466667 0.298039
0.341176 0.482353 0.313725
0.466667 0.505882 0.305882
0.662745 0.537255 0.301961
0.87451 0.580392 0.329412
0.45098 0.752941 0.466667
0.490196 0.768627 0.482353
0.584314 0.784314 0.498039
0.72549 0.8 0.486275
0.921569 0.831373 0.521569
0.733333 0.972549 0.741176
0.745098 0.972549 0.745098
0.792157 0.972549 0.760784
0.870588 0.984314 0.784314
0.960784 0.988235 0.803922
0.109804 0.129412 0.34902
0.196078 0.137255 0.356863
0.352941 0.14902 0.376471
0.537255 0.164706 0.376471
0.772549 0.219608 0.411765
0.188235 0.254902 0.380392
0.247059 0.262745 0.403922
0.403922 0.278431 0.431373
0.584314 0.290196 0.427451
0.811765 0.341176 0.454902
0.298039 0.47451 0.466667
0.356863 0.494118 0.490196
0.490196 0.521569 0.529412
0.65098 0.533333 0.521569
0.854902 0.572549 0.529412
0.466667 0.756863 0.588235
0.509804 0.772549 0.603922
0.603922 0.780392 0.627451
0.741176 0.807843 0.635294
0.917647 0.827451 0.65098
0.721569 0.972549 0.776471
0.760784 0.980392 0.803922
0.811765 0.980392 0.819608
0.878431 0.980392 0.831373
0.960784 0.984314 0.843137
0.145098 0.203922 0.588235
0.235294 0.211765 0.603922
0.388235 0.227451 0.615686
0.576471 0.239216 0.639216
0.796078 0.290196 0.662745
0.196078 0.294118 0.611765
0.27451 0.305882 0.635294
0.427451 0.329412 0.658824
0.623529 0.34902 0.686275
0.827451 0.388235 0.694118
0.333333 0.513725 0.654902
0.384314 0.52549 0.670588
0.482353 0.517647 0.698039
0.67451 0.564706 0.72549
0.85098 0.580392 0.721569
0.486275 0.764706 0.745098
0.517647 0.772549 0.74902
0.607843 0.780392 0.760784
0.768627 0.815686 0.807843
0.913725 0.823529 0.8
0.729412 0.972549 0.854902
0.74902 0.976471 0.858824
0.796078 0.976471 0.866667
0.894118 0.984314 0.898039
0.968627 0.988235 0.905882
0.341176 0.380392 0.858824
0.403922 0.4 0.882353
0.521569 0.419608 0.882353
0.694118 0.466667 0.898039
0.870588 0.494118 0.913725
0.380392 0.458824 0.898039
0.427451 0.466667 0.905882
0.556863 0.490196 0.909804
0.717647 0.537255 0.917647
0.886275 0.560784 0.929412
0.454902 0.623529 0.905882
0.470588 0.615686 0.913725
0.580392 0.627451 0.921569
0.745098 0.670588 0.929412
0.917647 0.698039 0.945098
0.6 0.839216 0.933333
0.619608 0.839216 0.937255
0.670588 0.839216 0.933333
0.776471 0.819608 0.945098
0.945098 0.85098 0.960784
0.8 0.988235 0.976471
0.815686 0.988235 0.980392
0.847059 0.988235 0.980392
0.894118 0.988235 0.980392
0.984314 0.988235 0.984314
