example-Advanced/bin/data/ofxGpuLutCube/LUT/Movie-53.cube
# (C) 2014 VisionColor & Patchflyer [www.vision-color.com]
# Generator: VC Patchmatch v.2.1.1 [64/53]
# All work and no play makes Jack a dull boy.
# LUT generated from: Kodak Ultramax 400_FPE
LUT_3D_SIZE 17
0.033570 0.038087 0.038300
0.033967 0.038209 0.038453
0.036286 0.039124 0.039857
0.047150 0.038697 0.037079
0.060456 0.040162 0.036408
0.082856 0.043153 0.036255
0.137484 0.052399 0.038331
0.199649 0.061707 0.039429
0.255009 0.064393 0.040314
0.311223 0.066316 0.042145
0.364446 0.065339 0.044495
0.411780 0.061769 0.046815
0.451270 0.057099 0.048951
0.480568 0.053590 0.050111
0.489265 0.052491 0.050385
0.490608 0.052308 0.050446
0.490669 0.052308 0.050446
0.033783 0.038727 0.039002
0.034577 0.039216 0.039399
0.037324 0.040375 0.041047
0.050752 0.039887 0.037293
0.066804 0.042023 0.036500
0.104067 0.050385 0.036713
0.153689 0.058839 0.038483
0.202518 0.062226 0.039490
0.264820 0.064790 0.040681
0.322972 0.068299 0.042634
0.372930 0.066346 0.044892
0.414862 0.062287 0.046967
0.454505 0.057679 0.049134
0.482033 0.053864 0.050202
0.491066 0.052674 0.050477
0.492439 0.052461 0.050538
0.492317 0.052430 0.050507
0.034760 0.042756 0.042969
0.035706 0.043854 0.043854
0.057588 0.055024 0.044709
0.083406 0.061097 0.039765
0.116945 0.063233 0.040192
0.149233 0.065705 0.039857
0.186343 0.067353 0.039460
0.224262 0.068086 0.040162
0.287434 0.067597 0.041535
0.341894 0.071717 0.043397
0.384894 0.067842 0.045472
0.423285 0.063203 0.047425
0.460273 0.058717 0.049439
0.486061 0.054322 0.050385
0.494759 0.053071 0.050660
0.496162 0.052796 0.050721
0.495949 0.052766 0.050690
0.036530 0.050080 0.042512
0.038514 0.053529 0.042267
0.064210 0.068177 0.047883
0.133211 0.101930 0.052644
0.174594 0.109071 0.050721
0.231373 0.106996 0.044648
0.281483 0.103273 0.043519
0.329091 0.097536 0.043763
0.381552 0.093751 0.045350
0.429511 0.092317 0.047395
0.440589 0.082979 0.048157
0.470954 0.077241 0.049836
0.495644 0.069154 0.051026
0.518090 0.065583 0.051911
0.525414 0.062715 0.052186
0.525841 0.062074 0.052186
0.524498 0.061494 0.052125
0.035401 0.061830 0.053376
0.039673 0.077943 0.056855
0.066560 0.098421 0.055818
0.144900 0.138888 0.058717
0.255024 0.183810 0.067079
0.322133 0.184176 0.060945
0.378836 0.177096 0.056916
0.438560 0.167636 0.052277
0.479973 0.154330 0.051179
0.531731 0.151431 0.052918
0.521385 0.125521 0.052094
0.541405 0.112612 0.053010
0.557580 0.100801 0.053681
0.573571 0.090639 0.054475
0.584619 0.092897 0.055512
0.584375 0.090486 0.055451
0.582422 0.088899 0.055329
0.038544 0.085756 0.061280
0.045686 0.109529 0.068086
0.093111 0.154299 0.068940
0.161471 0.190036 0.072511
0.271199 0.242466 0.077577
0.406363 0.287083 0.083558
0.477592 0.276616 0.068513
0.541085 0.265904 0.062806
0.575418 0.237339 0.060456
0.588129 0.208881 0.059113
0.607904 0.200092 0.058778
0.621698 0.173358 0.058320
0.633448 0.151324 0.058412
0.647486 0.141878 0.059998
0.653162 0.141527 0.061097
0.653284 0.141039 0.061646
0.651698 0.139086 0.061494
0.041505 0.101610 0.068849
0.068605 0.157626 0.082887
0.136812 0.231235 0.080690
0.196353 0.256382 0.072572
0.279637 0.289494 0.074708
0.403250 0.336202 0.086976
0.549935 0.373541 0.092805
0.614969 0.361883 0.082612
0.653483 0.338170 0.076356
0.672145 0.305837 0.071595
0.690547 0.301106 0.074556
0.704189 0.271077 0.070680
0.713680 0.240467 0.067140
0.724941 0.236622 0.069429
0.733639 0.245563 0.073762
0.734707 0.247944 0.075380
0.733944 0.246662 0.075227
0.089204 0.203494 0.096498
0.105959 0.226291 0.098543
0.172976 0.288975 0.087556
0.214725 0.308995 0.085847
0.275517 0.328038 0.081392
0.393271 0.376257 0.093874
0.561135 0.433219 0.114717
0.664378 0.448203 0.122866
0.707347 0.431815 0.110353
0.741360 0.419089 0.102174
0.758999 0.406394 0.097658
0.777249 0.374197 0.088869
0.784665 0.345327 0.087861
0.793973 0.347219 0.092988
0.804685 0.372030 0.113100
0.805051 0.373648 0.114626
0.804532 0.372610 0.114290
0.114199 0.259648 0.120912
0.117342 0.265110 0.121767
0.131289 0.283513 0.121370
0.177859 0.327184 0.112978
0.256168 0.367773 0.100862
0.355627 0.392370 0.096437
0.526040 0.461479 0.139345
0.680430 0.511513 0.169924
0.756298 0.519631 0.163760
0.795041 0.514107 0.153719
0.815702 0.500740 0.136568
0.838285 0.478508 0.122438
0.845701 0.456443 0.114504
0.853025 0.471397 0.142321
0.854093 0.488029 0.178759
0.853880 0.490471 0.186236
0.853727 0.490013 0.185901
0.125124 0.304814 0.146670
0.127901 0.308812 0.146456
0.136568 0.319188 0.144350
0.160159 0.351476 0.140383
0.220508 0.398260 0.124666
0.325185 0.432868 0.121462
0.444495 0.457237 0.133211
0.678660 0.558618 0.198581
0.791775 0.597559 0.216861
0.821164 0.585962 0.196689
0.856291 0.582361 0.175387
0.880583 0.569711 0.168093
0.888670 0.568551 0.181750
0.886778 0.581704 0.246052
0.885283 0.597086 0.305684
0.885344 0.600107 0.314382
0.885405 0.600320 0.314717
0.124849 0.344549 0.171847
0.125643 0.347051 0.171633
0.128511 0.352178 0.170413
0.143435 0.372595 0.165133
0.169757 0.411170 0.136110
0.269734 0.453193 0.106966
0.440482 0.501488 0.125063
0.626932 0.570092 0.181277
0.759747 0.618830 0.220523
0.836332 0.644404 0.244724
0.879454 0.651545 0.237064
0.904173 0.658076 0.243168
0.908080 0.661448 0.294301
0.909270 0.682597 0.404898
0.910002 0.697185 0.457359
0.910216 0.699870 0.466972
0.910307 0.700450 0.468009
0.123171 0.381323 0.194461
0.123873 0.381811 0.193454
0.124422 0.384985 0.192905
0.123201 0.395514 0.186374
0.132815 0.423743 0.142611
0.195117 0.460395 0.105745
0.371191 0.518639 0.109651
0.601541 0.598169 0.161395
0.740490 0.654078 0.221576
0.833417 0.694697 0.270512
0.889525 0.717433 0.295476
0.920958 0.733455 0.337911
0.924681 0.751095 0.457938
0.922118 0.764523 0.542916
0.921050 0.771695 0.575662
0.920897 0.773312 0.582101
0.920958 0.773953 0.583108
0.105959 0.401007 0.200015
0.106203 0.405859 0.200351
0.106783 0.407324 0.198611
0.106508 0.415290 0.186313
0.099886 0.431159 0.143465
0.120806 0.459602 0.081636
0.292058 0.530480 0.087953
0.561471 0.621820 0.146471
0.722606 0.693599 0.260609
0.816236 0.740780 0.357900
0.883024 0.779751 0.457298
0.919158 0.804837 0.523568
0.930236 0.818235 0.589181
0.925933 0.822171 0.647440
0.925536 0.825864 0.658869
0.925505 0.826749 0.660975
0.925536 0.827024 0.661402
0.118288 0.326238 0.170077
0.097749 0.414527 0.202579
0.091432 0.423774 0.195346
0.083925 0.428199 0.176791
0.070985 0.436377 0.126864
0.094224 0.469337 0.087098
0.291859 0.571649 0.152041
0.559823 0.671077 0.259876
0.725017 0.745480 0.428199
0.817884 0.787350 0.533516
0.876921 0.816861 0.610880
0.918273 0.835813 0.651408
0.926238 0.841611 0.670802
0.926818 0.841917 0.683955
0.926604 0.842741 0.687709
0.926635 0.843168 0.688563
0.926635 0.843229 0.688685
0.100893 0.275090 0.150912
0.104707 0.393561 0.201785
0.070283 0.429633 0.177493
0.063478 0.431342 0.159731
0.064271 0.443641 0.127749
0.119310 0.509224 0.158953
0.380575 0.637415 0.306950
0.612222 0.724300 0.441352
0.747875 0.774899 0.537133
0.825818 0.803922 0.599161
0.886778 0.826322 0.643366
0.920256 0.840269 0.673854
0.926757 0.844511 0.689113
0.926635 0.844572 0.691432
0.926635 0.844602 0.691554
0.926635 0.844602 0.691554
0.926635 0.844602 0.691554
0.106203 0.299687 0.164736
0.098238 0.412634 0.208896
0.062654 0.431678 0.162142
0.060182 0.433051 0.150820
0.061646 0.446510 0.127352
0.139239 0.529397 0.197955
0.419883 0.656931 0.349508
0.631815 0.738308 0.487343
0.752880 0.781643 0.562188
0.827665 0.807492 0.613275
0.888884 0.827604 0.647730
0.920897 0.840665 0.675196
0.926726 0.844541 0.689937
0.926635 0.844602 0.691524
0.926635 0.844602 0.691554
0.926635 0.844602 0.691554
0.926635 0.844602 0.691554
0.100771 0.321904 0.189883
0.093782 0.416541 0.205478
0.061982 0.432013 0.160647
0.060121 0.433814 0.150149
0.061341 0.446632 0.127596
0.141192 0.531075 0.201434
0.424781 0.658946 0.353201
0.635050 0.739742 0.490547
0.754192 0.782345 0.564080
0.828702 0.807889 0.614282
0.889647 0.827878 0.648219
0.921050 0.840757 0.675502
0.926726 0.844541 0.689998
0.926635 0.844602 0.691554
0.926635 0.844602 0.691554
0.926635 0.844602 0.691554
0.926635 0.844602 0.691554
0.033661 0.038270 0.038758
0.033967 0.038392 0.039002
0.036622 0.039582 0.040864
0.048585 0.038758 0.037263
0.063508 0.040284 0.036530
0.085603 0.042725 0.036469
0.127382 0.048249 0.038331
0.184024 0.054932 0.039368
0.249149 0.058412 0.040314
0.306340 0.060304 0.042084
0.360601 0.060883 0.044282
0.404303 0.058320 0.046326
0.446967 0.055360 0.048615
0.477913 0.052888 0.049928
0.487709 0.051820 0.050263
0.489662 0.051698 0.050324
0.489906 0.051789 0.050355
0.033814 0.039155 0.039918
0.034485 0.039673 0.040253
0.037293 0.040711 0.041871
0.050263 0.039521 0.037446
0.066011 0.041444 0.036683
0.102480 0.048890 0.036774
0.151705 0.055512 0.038758
0.207370 0.058320 0.039704
0.272572 0.060792 0.041108
0.328283 0.063050 0.043030
0.370001 0.063294 0.044739
0.410529 0.060334 0.046693
0.450568 0.056641 0.048859
0.479927 0.053315 0.050050
0.489479 0.052155 0.050355
0.491218 0.052003 0.050416
0.491218 0.052094 0.050446
0.034638 0.043122 0.044434
0.035584 0.043946 0.045075
0.057252 0.055634 0.046662
0.075624 0.058289 0.043336
0.106325 0.058991 0.041779
0.141207 0.061707 0.040345
0.181003 0.063722 0.040070
0.233051 0.066011 0.040620
0.291859 0.064027 0.041932
0.352514 0.067170 0.044007
0.381170 0.064942 0.045228
0.419196 0.061250 0.047150
0.456947 0.057801 0.049195
0.484260 0.053803 0.050263
0.493477 0.052583 0.050568
0.495155 0.052399 0.050629
0.495003 0.052430 0.050629
0.036225 0.050416 0.044160
0.037446 0.052705 0.044800
0.053346 0.063966 0.052766
0.110353 0.089815 0.057649
0.151949 0.096773 0.052308
0.211353 0.096925 0.045533
0.269184 0.095674 0.043977
0.315267 0.090059 0.044373
0.361990 0.084901 0.044892
0.413001 0.082063 0.046754
0.437598 0.076051 0.048188
0.466560 0.072511 0.049683
0.491890 0.065858 0.050904
0.514153 0.062928 0.051789
0.522423 0.060761 0.052094
0.523461 0.060456 0.052125
0.522454 0.060182 0.052064
0.033722 0.065522 0.061280
0.036805 0.074464 0.061524
0.061006 0.095796 0.060731
0.121370 0.124300 0.062806
0.232929 0.171145 0.071321
0.300252 0.171145 0.065492
0.364645 0.167147 0.058198
0.429160 0.159335 0.052277
0.472923 0.147616 0.051118
0.517906 0.140444 0.052674
0.517388 0.116030 0.052186
0.536187 0.107332 0.052796
0.553613 0.097414 0.053498
0.570245 0.087953 0.054292
0.582116 0.090883 0.055421
0.582422 0.088808 0.055390
0.580865 0.087587 0.055268
0.038300 0.088899 0.065339
0.041566 0.103761 0.070008
0.079255 0.145510 0.073945
0.140658 0.178927 0.076570
0.254475 0.232547 0.083040
0.392538 0.278630 0.088624
0.464347 0.267124 0.072663
0.532357 0.259403 0.064149
0.570047 0.237125 0.062470
0.585626 0.206622 0.059724
0.602441 0.187823 0.058595
0.617517 0.167498 0.058076
0.631098 0.148959 0.058350
0.646082 0.140414 0.060029
0.652247 0.140490 0.061128
0.652857 0.140856 0.061921
0.651545 0.139178 0.061769
0.044526 0.113664 0.076997
0.057191 0.147372 0.088441
0.115267 0.216739 0.088960
0.176669 0.249699 0.081056
0.257908 0.278660 0.082338
0.387717 0.329580 0.096925
0.540047 0.369741 0.099184
0.609964 0.362753 0.087068
0.651804 0.343328 0.078676
0.674128 0.311269 0.074983
0.688258 0.291737 0.074464
0.702266 0.267384 0.070863
0.712764 0.239521 0.067201
0.724880 0.236408 0.069429
0.733852 0.246082 0.074067
0.735103 0.248737 0.075746
0.734462 0.247669 0.075593
0.084504 0.206210 0.104494
0.095338 0.220066 0.104250
0.155795 0.277684 0.094697
0.195102 0.303349 0.092195
0.259312 0.325750 0.087800
0.382132 0.373953 0.098116
0.552834 0.433585 0.118929
0.662181 0.454337 0.132052
0.707286 0.441459 0.116030
0.741268 0.423545 0.105715
0.760342 0.401907 0.096925
0.777371 0.373770 0.089631
0.785061 0.346487 0.088533
0.794949 0.349233 0.094179
0.805478 0.374044 0.114382
0.805966 0.375937 0.115938
0.805570 0.375113 0.115633
0.107485 0.261357 0.130282
0.107240 0.252995 0.121798
0.121584 0.272038 0.121584
0.162264 0.320836 0.121370
0.241001 0.367742 0.106233
0.351202 0.398032 0.106020
0.520668 0.465965 0.147646
0.673503 0.513710 0.174350
0.751781 0.523476 0.173953
0.793912 0.517342 0.158419
0.817655 0.500130 0.138155
0.839170 0.478660 0.122621
0.846372 0.458091 0.115175
0.853697 0.473625 0.144671
0.854795 0.490776 0.182361
0.854673 0.493492 0.190051
0.854643 0.493339 0.189868
0.118807 0.307134 0.155459
0.122042 0.310094 0.153964
0.122042 0.297887 0.145785
0.132570 0.311955 0.143099
0.193866 0.385870 0.138338
0.301167 0.431708 0.127687
0.456703 0.472038 0.142580
0.669200 0.557397 0.200229
0.783200 0.594446 0.218143
0.828061 0.591333 0.198947
0.859434 0.585199 0.177279
0.881132 0.571878 0.169924
0.889006 0.570748 0.183825
0.887358 0.584543 0.250080
0.885954 0.600046 0.310384
0.886351 0.603586 0.319570
0.886503 0.604135 0.320272
0.114961 0.345830 0.183719
0.115969 0.347631 0.182742
0.118227 0.351781 0.181521
0.130129 0.336126 0.164004
0.156558 0.384039 0.156863
0.247211 0.452399 0.112673
0.449271 0.514153 0.132876
0.643412 0.583093 0.187411
0.767132 0.626795 0.228275
0.840757 0.648798 0.247501
0.882811 0.654414 0.239567
0.904692 0.659815 0.244968
0.908537 0.664012 0.298634
0.910033 0.685985 0.410513
0.910582 0.700420 0.462943
0.910826 0.703380 0.473045
0.910979 0.704234 0.474601
0.116152 0.382330 0.202914
0.117250 0.383307 0.200870
0.117250 0.385229 0.199222
0.117769 0.395239 0.191226
0.128145 0.422522 0.148989
0.183337 0.458259 0.106813
0.374884 0.525567 0.112886
0.608072 0.604059 0.161669
0.745769 0.659632 0.225559
0.832425 0.695491 0.270817
0.889555 0.718868 0.295933
0.921416 0.735561 0.340047
0.925078 0.754116 0.463432
0.922362 0.767880 0.549264
0.921416 0.775387 0.581674
0.921355 0.777371 0.587808
0.921416 0.778286 0.589303
0.101320 0.408850 0.214237
0.102388 0.410285 0.209659
0.103273 0.410712 0.206485
0.103365 0.416114 0.190677
0.095827 0.430121 0.148714
0.113298 0.457008 0.081086
0.281621 0.528161 0.086854
0.553368 0.619760 0.144701
0.720012 0.693355 0.259571
0.814893 0.740993 0.358206
0.882322 0.780484 0.460105
0.918883 0.806149 0.527871
0.930480 0.820462 0.592294
0.926116 0.825101 0.652354
0.925811 0.828916 0.663417
0.925780 0.829953 0.665736
0.925841 0.830442 0.666407
0.087068 0.414771 0.228794
0.090333 0.419013 0.206699
0.084749 0.425238 0.196139
0.080232 0.428473 0.177951
0.070283 0.436469 0.130526
0.092088 0.467658 0.089235
0.283558 0.568536 0.150607
0.554604 0.668879 0.256001
0.721660 0.744076 0.424872
0.816968 0.786831 0.532021
0.876066 0.816648 0.610910
0.918029 0.836545 0.654429
0.926268 0.842344 0.675776
0.926879 0.843503 0.686976
0.926635 0.843503 0.689326
0.926635 0.843839 0.689967
0.926635 0.843900 0.690089
0.089845 0.395636 0.242069
0.097047 0.405341 0.224826
0.065614 0.430304 0.174563
0.062593 0.431800 0.159731
0.063172 0.443336 0.130129
0.116686 0.507515 0.158495
0.371176 0.633814 0.302220
0.606760 0.722103 0.437385
0.745586 0.774105 0.535698
0.824567 0.803464 0.598184
0.885985 0.825986 0.642512
0.920104 0.840177 0.673487
0.926757 0.844511 0.689113
0.926635 0.844572 0.691402
0.926635 0.844602 0.691554
0.926635 0.844602 0.691554
0.926635 0.844602 0.691554
0.082277 0.413733 0.244083
0.088563 0.414771 0.224826
0.061677 0.432227 0.164401
0.060029 0.433906 0.152071
0.060639 0.445991 0.129976
0.136004 0.526772 0.196277
0.408820 0.652811 0.343435
0.627695 0.736171 0.482033
0.750408 0.780636 0.560052
0.826352 0.806943 0.612055
0.887999 0.827268 0.647028
0.920745 0.840543 0.674800
0.926726 0.844541 0.689876
0.926635 0.844602 0.691524
0.926635 0.844602 0.691554
0.926635 0.844602 0.691554
0.926635 0.844602 0.691554
0.075441 0.420325 0.239353
0.083253 0.418952 0.222263
0.060914 0.432624 0.163485
0.059907 0.434638 0.151369
0.060456 0.446204 0.130648
0.138018 0.528511 0.199847
0.413489 0.654734 0.347036
0.630198 0.737606 0.486091
0.751629 0.781308 0.561883
0.827329 0.807340 0.613001
0.888762 0.827512 0.647486
0.920867 0.840635 0.675074
0.926726 0.844541 0.689937
0.926635 0.844602 0.691554
0.926635 0.844602 0.691554
0.926635 0.844602 0.691554
0.926635 0.844602 0.691554
0.033478 0.038880 0.041901
0.033845 0.039094 0.042267
0.035920 0.039887 0.043885
0.048157 0.038972 0.040528
0.065827 0.040681 0.043427
0.093233 0.043366 0.046784
0.128786 0.046845 0.049866
0.176608 0.049378 0.047700
0.239597 0.050782 0.040253
0.297673 0.052125 0.041871
0.350134 0.053285 0.043732
0.396277 0.053132 0.045716
0.440314 0.052430 0.048096
0.474678 0.051392 0.049622
0.485664 0.050965 0.050294
0.488075 0.050965 0.050416
0.488441 0.051026 0.050385
0.033600 0.040040 0.043702
0.034668 0.040955 0.044556
0.036652 0.041535 0.045747
0.050111 0.039734 0.041871
0.070192 0.041779 0.044556
0.103243 0.045747 0.044831
0.143648 0.049348 0.044862
0.193515 0.050080 0.043000
0.259373 0.051911 0.041108
0.318273 0.052583 0.042725
0.359503 0.055665 0.044129
0.402106 0.054810 0.046052
0.443854 0.053498 0.048310
0.476539 0.051698 0.049744
0.487312 0.051240 0.050385
0.489479 0.051179 0.050477
0.489601 0.051209 0.050446
0.033967 0.043946 0.048341
0.035004 0.046174 0.049989
0.044923 0.052918 0.054688
0.061799 0.055268 0.053101
0.091737 0.053986 0.046723
0.126009 0.054810 0.043671
0.167758 0.055848 0.042329
0.229770 0.058045 0.042359
0.286244 0.055604 0.042878
0.354925 0.057771 0.044129
0.374792 0.058503 0.044800
0.412909 0.056825 0.046662
0.452338 0.055238 0.048798
0.481575 0.052552 0.050050
0.492012 0.051972 0.050721
0.493965 0.051881 0.050782
0.493874 0.051881 0.050752
0.032929 0.056062 0.058503
0.034333 0.058686 0.059113
0.046204 0.065370 0.062745
0.092317 0.084321 0.067262
0.134218 0.089082 0.056916
0.187503 0.087709 0.052125
0.242786 0.084443 0.050263
0.300618 0.080140 0.047639
0.356161 0.079622 0.045777
0.411139 0.075990 0.046815
0.428870 0.068788 0.047822
0.458228 0.066773 0.049226
0.485206 0.060365 0.050538
0.505150 0.055787 0.051392
0.514733 0.055177 0.051881
0.516411 0.055268 0.051942
0.515801 0.055268 0.051881
0.032319 0.067536 0.068208
0.034546 0.077089 0.070771
0.051789 0.092714 0.070924
0.088258 0.109834 0.074800
0.193622 0.151308 0.082612
0.260914 0.153109 0.075990
0.335775 0.151949 0.063142
0.408957 0.144564 0.053162
0.453269 0.129641 0.052003
0.488685 0.120089 0.052552
0.512657 0.104707 0.052461
0.526970 0.095369 0.052461
0.545739 0.089448 0.053132
0.563317 0.081880 0.053986
0.576593 0.086091 0.055207
0.577356 0.084321 0.055207
0.576257 0.083436 0.055116
0.037385 0.092134 0.075196
0.039734 0.105104 0.083497
0.060212 0.139071 0.089784
0.110231 0.172396 0.091279
0.216770 0.214389 0.093874
0.358358 0.264714 0.108583
0.434806 0.251392 0.085267
0.508186 0.245975 0.073152
0.553811 0.227909 0.065644
0.577295 0.202014 0.060792
0.596063 0.174212 0.058534
0.608362 0.150820 0.057527
0.624842 0.141360 0.058198
0.641688 0.135531 0.060121
0.648890 0.136584 0.061280
0.650538 0.139208 0.062776
0.649683 0.138079 0.062654
0.043519 0.126253 0.096803
0.053529 0.155184 0.104219
0.095613 0.205814 0.104860
0.136995 0.238621 0.102998
0.213870 0.264836 0.103365
0.348226 0.314199 0.117556
0.510933 0.360922 0.121218
0.594278 0.357931 0.095247
0.642588 0.341344 0.082979
0.671778 0.318105 0.080110
0.684504 0.284840 0.076631
0.696345 0.253803 0.071290
0.709377 0.234882 0.067201
0.724178 0.234791 0.069459
0.733761 0.246479 0.074922
0.735134 0.249378 0.076600
0.734707 0.248646 0.076478
0.075776 0.208865 0.123507
0.084077 0.226017 0.126711
0.124117 0.271153 0.119905
0.157321 0.294835 0.112459
0.223056 0.321248 0.103609
0.352651 0.364584 0.105074
0.531411 0.430014 0.129397
0.652598 0.457786 0.144594
0.701366 0.446830 0.126131
0.734768 0.427787 0.112444
0.758633 0.399680 0.100832
0.776761 0.369192 0.091585
0.785153 0.347189 0.089723
0.796048 0.352071 0.096681
0.806241 0.376669 0.116884
0.806912 0.378897 0.118502
0.806729 0.378439 0.118257
0.091402 0.264683 0.152010
0.085054 0.251011 0.148653
0.099245 0.268238 0.142123
0.141268 0.319707 0.139834
0.214511 0.364080 0.120394
0.322484 0.400366 0.124239
0.500252 0.465202 0.159762
0.657542 0.514290 0.188693
0.741588 0.526772 0.190646
0.786068 0.520455 0.167819
0.818326 0.501625 0.142611
0.842252 0.474296 0.120531
0.846708 0.459373 0.116136
0.854124 0.476097 0.148669
0.855344 0.494072 0.188251
0.855375 0.497185 0.196246
0.855436 0.497337 0.196338
0.096773 0.310338 0.184939
0.101350 0.313085 0.181430
0.103761 0.316869 0.181765
0.122499 0.334661 0.174258
0.151019 0.375189 0.168704
0.253468 0.426429 0.141756
0.449943 0.483040 0.160891
0.641337 0.550958 0.207340
0.766308 0.589471 0.223270
0.831800 0.597925 0.210208
0.865095 0.589471 0.181003
0.881682 0.574350 0.172885
0.889067 0.573037 0.187274
0.887724 0.587625 0.256886
0.886534 0.603372 0.317006
0.887327 0.607584 0.326711
0.887602 0.608408 0.327810
0.098970 0.348852 0.207034
0.101320 0.350439 0.204105
0.103853 0.353399 0.201389
0.100832 0.320043 0.187747
0.115572 0.324025 0.174044
0.180316 0.435859 0.150576
0.398291 0.508110 0.138003
0.633066 0.587427 0.197848
0.771649 0.635645 0.239963
0.847578 0.655940 0.251713
0.888457 0.658686 0.243992
0.905241 0.661768 0.247013
0.908995 0.666850 0.304616
0.910521 0.688579 0.414969
0.911070 0.703166 0.467765
0.911376 0.706401 0.478325
0.911559 0.707561 0.480369
0.096284 0.384955 0.229221
0.098512 0.385321 0.223209
0.100313 0.386694 0.218143
0.103761 0.395911 0.207980
0.115206 0.420752 0.169192
0.163348 0.455116 0.106447
0.378576 0.542596 0.108095
0.631785 0.621851 0.166217
0.762280 0.674769 0.239841
0.831357 0.696986 0.272099
0.889982 0.720974 0.297215
0.921996 0.737850 0.342153
0.925383 0.756191 0.466880
0.922606 0.770504 0.553903
0.921721 0.778378 0.586007
0.921691 0.780545 0.592294
0.921782 0.781765 0.594217
0.086610 0.412268 0.242832
0.089143 0.412879 0.233158
0.091463 0.413306 0.225895
0.093324 0.417975 0.206882
0.084718 0.428321 0.162966
0.099046 0.452918 0.081758
0.266667 0.525826 0.085512
0.545647 0.618540 0.143877
0.717693 0.694057 0.260304
0.814145 0.742336 0.363119
0.881804 0.781582 0.463828
0.918761 0.807065 0.531594
0.930602 0.821500 0.593820
0.926238 0.826444 0.654307
0.925963 0.830503 0.665400
0.925994 0.831724 0.667994
0.926055 0.832364 0.668788
0.069764 0.426123 0.236759
0.069825 0.426307 0.216190
0.070375 0.426581 0.206912
0.067842 0.429114 0.187381
0.067628 0.436225 0.145602
0.090593 0.467109 0.095308
0.278004 0.567529 0.152712
0.552712 0.669429 0.260029
0.719310 0.744106 0.426825
0.816541 0.786770 0.531960
0.875975 0.816587 0.610727
0.918029 0.836759 0.655192
0.926299 0.842496 0.676966
0.926909 0.844053 0.688075
0.926635 0.843839 0.689998
0.926665 0.844175 0.690394
0.926757 0.844236 0.689937
0.059236 0.433997 0.220768
0.059663 0.433600 0.200137
0.060426 0.433051 0.184848
0.059052 0.434058 0.166201
0.058839 0.442298 0.140108
0.117906 0.509651 0.165560
0.364569 0.631525 0.299168
0.602823 0.720363 0.433722
0.743877 0.773465 0.534325
0.823590 0.802945 0.596780
0.885832 0.825803 0.641840
0.920104 0.840085 0.673091
0.926757 0.844511 0.689113
0.926635 0.844572 0.691371
0.926635 0.844602 0.691554
0.926635 0.844602 0.691432
0.926696 0.844572 0.690974
0.054566 0.438178 0.201907
0.056550 0.436377 0.188418
0.058045 0.435187 0.176120
0.057923 0.436408 0.160342
0.057282 0.444862 0.139712
0.135698 0.527443 0.202014
0.400458 0.649790 0.339467
0.624887 0.734401 0.476753
0.748486 0.779782 0.557885
0.825254 0.806394 0.610498
0.887724 0.827054 0.646357
0.920714 0.840452 0.674311
0.926726 0.844541 0.689784
0.926635 0.844602 0.691524
0.926635 0.844602 0.691554
0.926635 0.844602 0.691554
0.926665 0.844572 0.691218
0.053529 0.439460 0.198642
0.055879 0.437201 0.186831
0.057801 0.435462 0.175998
0.057710 0.436652 0.160128
0.057221 0.445045 0.140078
0.136797 0.529030 0.205005
0.404273 0.651499 0.343221
0.627176 0.735714 0.480415
0.749584 0.780362 0.559472
0.826169 0.806760 0.611383
0.888426 0.827298 0.646784
0.920806 0.840543 0.674586
0.926726 0.844541 0.689876
0.926635 0.844602 0.691554
0.926635 0.844602 0.691554
0.926635 0.844602 0.691554
0.926665 0.844572 0.691432
0.033295 0.039429 0.044648
0.033631 0.039460 0.045991
0.036469 0.039765 0.049561
0.046845 0.039612 0.053590
0.069215 0.041535 0.055879
0.098360 0.044373 0.058686
0.137423 0.047456 0.061067
0.193225 0.049500 0.062867
0.258915 0.048737 0.056123
0.294926 0.047120 0.051911
0.341222 0.045624 0.049531
0.385779 0.045136 0.048493
0.428931 0.046387 0.049165
0.466255 0.048402 0.049897
