example-Advanced/bin/data/ofxGpuLutCube/LUT/Movie-53.cube
# (C) 2014 VisionColor & Patchflyer [www.vision-color.com]
# Generator: VC Patchmatch v.2.1.1 [64/53]
# All work and no play makes Jack a dull boy.
# LUT generated from: Kodak Ultramax 400_FPE
LUT_3D_SIZE 5
0.033570 0.038087 0.038300
0.060456 0.040162 0.036408
0.255009 0.064393 0.040314
0.451270 0.057099 0.048951
0.490669 0.052308 0.050446
0.035401 0.061830 0.053376
0.255024 0.183810 0.067079
0.479973 0.154330 0.051179
0.557580 0.100801 0.053681
0.582422 0.088899 0.055329
0.114199 0.259648 0.120912
0.256168 0.367773 0.100862
0.756298 0.519631 0.163760
0.845701 0.456443 0.114504
0.853727 0.490013 0.185901
0.105959 0.401007 0.200015
0.099886 0.431159 0.143465
0.722606 0.693599 0.260609
0.930236 0.818235 0.589181
0.925536 0.827024 0.661402
0.100771 0.321904 0.189883
0.061341 0.446632 0.127596
0.754192 0.782345 0.564080
0.926726 0.844541 0.689998
0.926635 0.844602 0.691554
0.030457 0.037049 0.052796
0.067323 0.041657 0.064057
0.276677 0.048920 0.074983
0.437018 0.047303 0.064546
0.495277 0.050752 0.067597
0.031617 0.070192 0.095735
0.121340 0.123232 0.115633
0.375326 0.090486 0.073548
0.501183 0.053590 0.055848
0.568536 0.081971 0.080842
0.067292 0.276097 0.213413
0.129397 0.363134 0.199252
0.710826 0.528878 0.237675
0.838987 0.465049 0.175952
0.849515 0.525948 0.295491
0.066712 0.421088 0.290654
0.064729 0.430793 0.229404
0.714885 0.718990 0.325032
0.931487 0.825193 0.599344
0.930144 0.830259 0.632105
0.052583 0.447761 0.245884
0.056977 0.456153 0.204471
0.755840 0.777615 0.539788
0.929931 0.835752 0.645655
0.930297 0.834897 0.641352
0.029877 0.037110 0.090150
0.043122 0.038117 0.110536
0.254841 0.044984 0.160555
0.446784 0.047913 0.181033
0.513848 0.064790 0.195193
0.034058 0.072175 0.163180
0.036805 0.067048 0.185428
0.344533 0.085664 0.243229
0.522881 0.066896 0.193271
0.620783 0.185168 0.253605
0.048920 0.292515 0.342824
0.053559 0.361334 0.428367
0.532113 0.490501 0.451011
0.767514 0.417029 0.331243
0.812314 0.531777 0.450523
0.050263 0.430091 0.402686
0.048188 0.430304 0.391043
0.644862 0.752834 0.544854
0.927031 0.841306 0.679332
0.920623 0.839750 0.731685
0.049012 0.441871 0.369940
0.050080 0.450233 0.401114
0.768475 0.806882 0.658915
0.922454 0.849210 0.737789
0.919097 0.849668 0.759182
0.032227 0.037171 0.167178
0.034272 0.035767 0.183505
0.217456 0.040314 0.256870
0.461036 0.050233 0.271519
0.513848 0.071504 0.298589
0.036561 0.060426 0.233951
0.037995 0.053925 0.273716
0.218158 0.062165 0.324559
0.536980 0.105501 0.352270
0.609522 0.232792 0.407691
0.048646 0.303105 0.439277
0.051179 0.327337 0.511864
0.072541 0.298466 0.509285
0.749203 0.528801 0.682277
0.800931 0.599496 0.722774
0.053986 0.403235 0.565881
0.056580 0.425940 0.608576
0.274861 0.702602 0.738033
0.811612 0.765347 0.751308
0.890929 0.782986 0.776120
0.055756 0.419409 0.599115
0.056947 0.431800 0.613092
0.691600 0.822232 0.809110
0.850950 0.848356 0.793759
0.914427 0.859525 0.813993
0.034180 0.037598 0.211307
0.034913 0.036164 0.213840
0.210575 0.040772 0.288609
0.478340 0.052705 0.294316
0.513573 0.071168 0.308141
0.038483 0.055634 0.266026
0.039734 0.055055 0.298405
0.154528 0.051881 0.325719
0.547082 0.122255 0.410834
0.602686 0.235630 0.451453
0.050050 0.315984 0.484901
0.050538 0.308110 0.524010
0.239643 0.436561 0.604471
0.780667 0.585824 0.721309
0.813687 0.618692 0.740658
0.055695 0.400214 0.596063
0.056886 0.424598 0.612879
0.525704 0.738643 0.770016
0.831357 0.778958 0.813535
0.887816 0.792538 0.826749
0.056245 0.418769 0.605035
0.057618 0.437781 0.617639
0.679500 0.822080 0.817044
0.823453 0.848814 0.842405
0.914946 0.878782 0.870756
