example-Advanced/bin/data/ofxGpuLutCube/LUT/Movie-53.cube
# (C) 2014 VisionColor & Patchflyer [www.vision-color.com]
# Generator: VC Patchmatch v.2.1.1 [64/53]
# All work and no play makes Jack a dull boy.
# LUT generated from: Kodak Ultramax 400_FPE
LUT_3D_SIZE 9
0.033570 0.038087 0.038300
0.036286 0.039124 0.039857
0.060456 0.040162 0.036408
0.137484 0.052399 0.038331
0.255009 0.064393 0.040314
0.364446 0.065339 0.044495
0.451270 0.057099 0.048951
0.489265 0.052491 0.050385
0.490669 0.052308 0.050446
0.034760 0.042756 0.042969
0.057588 0.055024 0.044709
0.116945 0.063233 0.040192
0.186343 0.067353 0.039460
0.287434 0.067597 0.041535
0.384894 0.067842 0.045472
0.460273 0.058717 0.049439
0.494759 0.053071 0.050660
0.495949 0.052766 0.050690
0.035401 0.061830 0.053376
0.066560 0.098421 0.055818
0.255024 0.183810 0.067079
0.378836 0.177096 0.056916
0.479973 0.154330 0.051179
0.521385 0.125521 0.052094
0.557580 0.100801 0.053681
0.584619 0.092897 0.055512
0.582422 0.088899 0.055329
0.041505 0.101610 0.068849
0.136812 0.231235 0.080690
0.279637 0.289494 0.074708
0.549935 0.373541 0.092805
0.653483 0.338170 0.076356
0.690547 0.301106 0.074556
0.713680 0.240467 0.067140
0.733639 0.245563 0.073762
0.733944 0.246662 0.075227
0.114199 0.259648 0.120912
0.131289 0.283513 0.121370
0.256168 0.367773 0.100862
0.526040 0.461479 0.139345
0.756298 0.519631 0.163760
0.815702 0.500740 0.136568
0.845701 0.456443 0.114504
0.854093 0.488029 0.178759
0.853727 0.490013 0.185901
0.124849 0.344549 0.171847
0.128511 0.352178 0.170413
0.169757 0.411170 0.136110
0.440482 0.501488 0.125063
0.759747 0.618830 0.220523
0.879454 0.651545 0.237064
0.908080 0.661448 0.294301
0.910002 0.697185 0.457359
0.910307 0.700450 0.468009
0.105959 0.401007 0.200015
0.106783 0.407324 0.198611
0.099886 0.431159 0.143465
0.292058 0.530480 0.087953
0.722606 0.693599 0.260609
0.883024 0.779751 0.457298
0.930236 0.818235 0.589181
0.925536 0.825864 0.658869
0.925536 0.827024 0.661402
0.100893 0.275090 0.150912
0.070283 0.429633 0.177493
0.064271 0.443641 0.127749
0.380575 0.637415 0.306950
0.747875 0.774899 0.537133
0.886778 0.826322 0.643366
0.926757 0.844511 0.689113
0.926635 0.844602 0.691554
0.926635 0.844602 0.691554
0.100771 0.321904 0.189883
0.061982 0.432013 0.160647
0.061341 0.446632 0.127596
0.424781 0.658946 0.353201
0.754192 0.782345 0.564080
0.889647 0.827878 0.648219
0.926726 0.844541 0.689998
0.926635 0.844602 0.691554
0.926635 0.844602 0.691554
0.033478 0.038880 0.041901
0.035920 0.039887 0.043885
0.065827 0.040681 0.043427
0.128786 0.046845 0.049866
0.239597 0.050782 0.040253
0.350134 0.053285 0.043732
0.440314 0.052430 0.048096
0.485664 0.050965 0.050294
0.488441 0.051026 0.050385
0.033967 0.043946 0.048341
0.044923 0.052918 0.054688
0.091737 0.053986 0.046723
0.167758 0.055848 0.042329
0.286244 0.055604 0.042878
0.374792 0.058503 0.044800
0.452338 0.055238 0.048798
0.492012 0.051972 0.050721
0.493874 0.051881 0.050752
0.032319 0.067536 0.068208
0.051789 0.092714 0.070924
0.193622 0.151308 0.082612
0.335775 0.151949 0.063142
0.453269 0.129641 0.052003
0.512657 0.104707 0.052461
0.545739 0.089448 0.053132
0.576593 0.086091 0.055207
0.576257 0.083436 0.055116
0.043519 0.126253 0.096803
0.095613 0.205814 0.104860
0.213870 0.264836 0.103365
0.510933 0.360922 0.121218
0.642588 0.341344 0.082979
0.684504 0.284840 0.076631
0.709377 0.234882 0.067201
0.733761 0.246479 0.074922
0.734707 0.248646 0.076478
0.091402 0.264683 0.152010
0.099245 0.268238 0.142123
0.214511 0.364080 0.120394
0.500252 0.465202 0.159762
0.741588 0.526772 0.190646
0.818326 0.501625 0.142611
0.846708 0.459373 0.116136
0.855344 0.494072 0.188251
0.855436 0.497337 0.196338
0.098970 0.348852 0.207034
0.103853 0.353399 0.201389
0.115572 0.324025 0.174044
0.398291 0.508110 0.138003
0.771649 0.635645 0.239963
0.888457 0.658686 0.243992
0.908995 0.666850 0.304616
0.911070 0.703166 0.467765
0.911559 0.707561 0.480369
0.086610 0.412268 0.242832
0.091463 0.413306 0.225895
0.084718 0.428321 0.162966
0.266667 0.525826 0.085512
0.717693 0.694057 0.260304
0.881804 0.781582 0.463828
0.930602 0.821500 0.593820
0.925963 0.830503 0.665400
0.926055 0.832364 0.668788
0.059236 0.433997 0.220768
0.060426 0.433051 0.184848
0.058839 0.442298 0.140108
0.364569 0.631525 0.299168
0.743877 0.773465 0.534325
0.885832 0.825803 0.641840
0.926757 0.844511 0.689113
0.926635 0.844602 0.691554
0.926696 0.844572 0.690974
0.053529 0.439460 0.198642
0.057801 0.435462 0.175998
0.057221 0.445045 0.140078
0.404273 0.651499 0.343221
0.749584 0.780362 0.559472
0.888426 0.827298 0.646784
0.926726 0.844541 0.689876
0.926635 0.844602 0.691554
0.926665 0.844572 0.691432
0.030457 0.037049 0.052796
0.036927 0.038422 0.058564
0.067323 0.041657 0.064057
0.142702 0.047730 0.075196
0.276677 0.048920 0.074983
0.347936 0.046632 0.066835
0.437018 0.047303 0.064546
0.491859 0.050294 0.067689
0.495277 0.050752 0.067597
0.030854 0.047883 0.064424
0.042206 0.052888 0.073854
0.084077 0.053925 0.083864
0.187442 0.055695 0.079347
0.289738 0.049928 0.072908
0.375341 0.046296 0.069398
0.443641 0.047578 0.064210
0.496071 0.050660 0.069612
0.499428 0.051118 0.069978
0.031617 0.070192 0.095735
0.041444 0.100984 0.113832
0.121340 0.123232 0.115633
0.262501 0.123812 0.098085
0.375326 0.090486 0.073548
0.455879 0.068177 0.064179
0.501183 0.053590 0.055848
0.563073 0.080049 0.078645
0.568536 0.081971 0.080842
0.041321 0.163973 0.173312
0.053315 0.196597 0.171908
0.133516 0.256382 0.170016
0.437675 0.345907 0.193301
0.577859 0.315541 0.132052
0.641993 0.246906 0.094453
0.673304 0.188617 0.084504
0.727047 0.259358 0.125414
0.729107 0.264485 0.130327
0.067292 0.276097 0.213413
0.068391 0.298039 0.234989
0.129397 0.363134 0.199252
0.428458 0.446708 0.174655
0.710826 0.528878 0.237675
0.794827 0.500496 0.187396
0.838987 0.465049 0.175952
0.848020 0.519203 0.284443
0.849515 0.525948 0.295491
0.070924 0.359655 0.277043
0.073762 0.363561 0.273411
0.080232 0.404852 0.272068
0.281895 0.494514 0.164218
0.711925 0.631220 0.269398
0.886656 0.681483 0.300664
0.912077 0.689433 0.382803
0.913695 0.720211 0.503120
0.914519 0.725551 0.514794
0.066712 0.421088 0.290654
0.068330 0.421729 0.277348
0.064729 0.430793 0.229404
0.199130 0.526741 0.116014
0.714885 0.718990 0.325032
0.883726 0.793576 0.497642
0.931487 0.825193 0.599344
0.929870 0.829129 0.631922
0.930144 0.830259 0.632105
0.051698 0.438911 0.245640
0.052705 0.439155 0.223331
0.055207 0.449531 0.198062
0.355596 0.635233 0.326162
0.750957 0.774777 0.531853
0.899199 0.824216 0.618250
0.930022 0.835386 0.643915
0.930114 0.835447 0.644099
0.930419 0.834592 0.639857
0.052583 0.447761 0.245884
0.052583 0.442756 0.218845
0.056977 0.456153 0.204471
0.384985 0.648875 0.356313
0.755840 0.777615 0.539788
0.902007 0.825498 0.620539
0.929931 0.835752 0.645655
0.929992 0.835752 0.645685
0.930297 0.834897 0.641352
0.029908 0.037568 0.063264
0.035431 0.038239 0.084596
0.065461 0.041688 0.094911
0.141939 0.047150 0.105623
0.261936 0.046937 0.116945
0.360479 0.045747 0.124392
0.448615 0.047028 0.125277
0.506432 0.053101 0.134066
0.510033 0.053590 0.134493
0.031037 0.051881 0.097780
0.033631 0.048280 0.100984
0.061463 0.048402 0.111299
0.185580 0.052583 0.129824
0.305241 0.047730 0.133242
0.382757 0.045808 0.125978
0.454810 0.047181 0.125704
0.510918 0.053498 0.135195
0.514977 0.054231 0.136355
0.033845 0.083436 0.145998
0.034333 0.084352 0.147738
0.062318 0.099153 0.152529
0.232456 0.121736 0.181582
0.362387 0.085176 0.158450
0.457527 0.063813 0.145724
0.514824 0.057343 0.122866
0.593805 0.111727 0.170565
0.600855 0.122057 0.176364
0.042542 0.196475 0.240177
0.042542 0.189670 0.227604
0.075532 0.250217 0.268421
0.317311 0.301289 0.262989
0.480858 0.283299 0.230930
0.572168 0.218494 0.191546
0.637751 0.167681 0.160922
0.722591 0.300069 0.237064
0.727840 0.310536 0.244617
0.053285 0.287053 0.278965
0.054108 0.297429 0.287419
0.068849 0.366674 0.322911
0.304494 0.435325 0.296910
0.646525 0.520333 0.326589
0.752804 0.476951 0.246509
0.808957 0.435996 0.242573
0.831601 0.523079 0.370809
0.833036 0.529732 0.381949
0.059937 0.370947 0.336919
0.061006 0.375921 0.334936
0.061128 0.414466 0.340398
0.185641 0.491463 0.237079
0.652903 0.629358 0.316426
0.876967 0.701091 0.385321
0.912566 0.717449 0.497307
0.914336 0.746670 0.567681
0.914641 0.751308 0.576104
0.056184 0.430091 0.344518
0.056184 0.430976 0.336461
0.052766 0.436072 0.303288
0.150011 0.542107 0.247257
0.688914 0.744228 0.453803
0.893004 0.816312 0.591257
0.930480 0.834073 0.636286
0.929290 0.835416 0.650202
0.928954 0.837278 0.657160
0.049775 0.442695 0.302617
0.050813 0.445869 0.288212
0.053223 0.456123 0.284337
0.308751 0.637583 0.393149
0.750805 0.782864 0.570016
0.912291 0.831510 0.636316
0.929900 0.835935 0.646540
0.929564 0.837003 0.651728
0.929046 0.838529 0.659327
0.049958 0.447608 0.303899
0.050752 0.448920 0.287907
0.053254 0.458228 0.284276
0.326482 0.644083 0.401999
0.755444 0.784176 0.571420
0.914946 0.832273 0.636530
0.929961 0.835843 0.646021
0.929686 0.836698 0.650294
0.929137 0.838224 0.657923
0.029877 0.037110 0.090150
0.030243 0.036347 0.096315
0.043122 0.038117 0.110536
0.125734 0.044099 0.138033
0.254841 0.044984 0.160555
0.369818 0.045075 0.189487
0.446784 0.047913 0.181033
0.510124 0.061799 0.192203
0.513848 0.064790 0.195193
0.030732 0.042878 0.111147
0.030640 0.040406 0.120943
0.036591 0.038941 0.138216
0.147616 0.046967 0.181430
0.314275 0.046082 0.213840
0.382971 0.045380 0.196689
0.453956 0.048432 0.181003
0.518242 0.063966 0.193973
0.522881 0.067445 0.197177
0.034058 0.072175 0.163180
0.034333 0.070253 0.169955
0.036805 0.067048 0.185428
0.157809 0.092622 0.217960
0.344533 0.085664 0.243229
0.452644 0.061036 0.219303
0.522881 0.066896 0.193271
0.615106 0.175174 0.247868
0.620783 0.185168 0.253605
0.040131 0.167605 0.247807
0.040833 0.178653 0.262806
0.047181 0.210407 0.313069
0.178103 0.246235 0.311025
0.432975 0.288884 0.348714
0.545892 0.220966 0.291981
0.642054 0.212940 0.252888
0.720180 0.360311 0.336904
0.723232 0.370626 0.346365
0.048920 0.292515 0.342824
0.049134 0.298924 0.353109
0.053559 0.361334 0.428367
0.194186 0.433982 0.437430
0.532113 0.490501 0.451011
0.658289 0.443290 0.377646
0.767514 0.417029 0.331243
0.810178 0.524392 0.439597
0.812314 0.531777 0.450523
0.054231 0.379675 0.392676
0.054322 0.383093 0.393500
0.052613 0.414038 0.431662
0.098161 0.493141 0.414633
0.534737 0.603418 0.427970
0.806561 0.676005 0.487434
0.897383 0.683146 0.496818
0.903288 0.732464 0.600015
0.905608 0.742016 0.611841
0.050263 0.430091 0.402686
0.049622 0.429603 0.400336
0.048188 0.430304 0.391043
0.114580 0.573693 0.444999
0.644862 0.752834 0.544854
0.882490 0.821607 0.627787
0.927031 0.841306 0.679332
0.921599 0.839567 0.722499
0.920623 0.839750 0.731685
0.048768 0.439368 0.370336
0.048737 0.439063 0.381704
0.050019 0.449592 0.398642
0.277546 0.667247 0.546456
0.755505 0.803128 0.654063
0.915602 0.845090 0.712337
0.922454 0.849241 0.737606
0.920439 0.849882 0.751614
0.919005 0.849577 0.759670
0.049012 0.441871 0.369940
0.048798 0.439765 0.383505
0.050080 0.450233 0.401114
0.288853 0.673167 0.550515
0.768475 0.806882 0.658915
0.916594 0.845731 0.715633
0.922454 0.849210 0.737789
0.920470 0.849851 0.751431
0.919097 0.849668 0.759182
0.030549 0.036408 0.124514
0.030640 0.035309 0.131106
0.036805 0.036194 0.141054
0.103517 0.041016 0.169406
0.237018 0.042512 0.201389
0.364355 0.043946 0.234348
0.446265 0.048463 0.219150
0.512810 0.072786 0.240208
0.515435 0.073854 0.242863
0.031617 0.042084 0.145937
0.031739 0.040284 0.152468
0.033356 0.035828 0.164614
0.127596 0.040925 0.215274
0.261280 0.041871 0.223728
0.373968 0.044343 0.237186
0.452674 0.049073 0.219303
0.523247 0.079377 0.243412
0.527214 0.082368 0.247288
0.034974 0.066407 0.196139
0.035340 0.067475 0.204257
0.036103 0.054231 0.235843
0.081346 0.060914 0.244053
0.293324 0.082826 0.304723
0.447852 0.060243 0.283848
0.526360 0.086366 0.257572
0.618952 0.213260 0.319707
0.624598 0.225162 0.329503
0.040833 0.167849 0.287755
0.041566 0.176089 0.305882
0.044038 0.196902 0.373571
0.072953 0.193317 0.337041
0.320974 0.243610 0.385748
0.523217 0.234974 0.394446
0.640345 0.266300 0.371527
0.699763 0.390906 0.444923
0.703212 0.401892 0.457008
0.047883 0.292149 0.390539
0.048127 0.298131 0.398779
0.050843 0.337255 0.480293
0.078111 0.360555 0.486824
0.326482 0.409659 0.486656
0.604578 0.458488 0.529442
0.743160 0.484138 0.515328
0.786831 0.564752 0.590356
0.790158 0.572686 0.602075
0.051789 0.381659 0.458686
0.051850 0.385992 0.464057
0.052369 0.395361 0.526543
0.058808 0.446281 0.579034
0.346395 0.601434 0.615396
0.684993 0.637507 0.614862
0.802915 0.593271 0.526528
0.866880 0.678126 0.638102
0.870420 0.687190 0.649042
0.050263 0.418128 0.477729
0.050263 0.418891 0.483925
0.052003 0.425116 0.518944
0.086122 0.562768 0.635767
0.504128 0.768765 0.710002
0.755047 0.778042 0.646159
0.906645 0.812650 0.687160
0.908476 0.797726 0.724025
0.907866 0.799405 0.730831
0.050446 0.428412 0.483375
0.051667 0.426215 0.511498
0.054536 0.438331 0.559472
0.156222 0.632944 0.690394
0.711986 0.822538 0.784512
0.835691 0.838773 0.762722
0.898314 0.851621 0.779507
0.917235 0.857145 0.794675
0.917540 0.857450 0.795529
0.050538 0.428534 0.485451
0.051759 0.426062 0.514031
0.054871 0.439399 0.564782
0.171939 0.638560 0.694728
0.722515 0.823972 0.787747
0.839414 0.840604 0.766781
0.898253 0.852872 0.783230
0.916350 0.857908 0.797482
0.917357 0.858152 0.797208
0.032227 0.037171 0.167178
0.032624 0.036042 0.176669
0.034272 0.035767 0.183505
0.084199 0.039948 0.215335
0.217456 0.040314 0.256870
0.343664 0.042451 0.266819
0.461036 0.050233 0.271519
0.512718 0.071077 0.296147
0.513848 0.071504 0.298589
0.033021 0.039612 0.182925
0.033356 0.039948 0.190707
0.034333 0.035889 0.205447
0.073976 0.039704 0.228916
0.221424 0.040436 0.270420
0.354528 0.042817 0.271885
0.463020 0.051270 0.273014
0.522362 0.078309 0.294194
0.525078 0.080781 0.297642
0.036561 0.060426 0.233951
0.037263 0.064485 0.243534
0.037995 0.053925 0.273716
0.046784 0.044739 0.253117
0.218158 0.062165 0.324559
0.420630 0.059663 0.360204
0.536980 0.105501 0.352270
0.605432 0.222782 0.397711
0.609522 0.232792 0.407691
0.042542 0.175326 0.339849
0.042908 0.183688 0.351019
0.044434 0.188846 0.406806
0.043824 0.154818 0.378393
0.167651 0.185748 0.398611
0.429725 0.202991 0.479591
0.636896 0.322728 0.534051
0.675746 0.397147 0.570733
0.678157 0.404807 0.581750
0.048646 0.303105 0.439277
0.049073 0.310246 0.447822
0.051179 0.327337 0.511864
0.049073 0.280690 0.507988
0.072541 0.298466 0.509285
0.523720 0.443458 0.627985
0.749203 0.528801 0.682277
0.795560 0.591928 0.714809
0.800931 0.599496 0.722774
0.052583 0.374212 0.526574
0.053010 0.376623 0.536553
0.054566 0.370428 0.573205
0.057252 0.401862 0.604517
0.286976 0.581491 0.678187
0.570932 0.590982 0.691325
0.795071 0.627405 0.721828
0.868650 0.717037 0.763302
0.870787 0.723781 0.769985
0.053986 0.403235 0.565881
0.054810 0.412024 0.585290
0.056580 0.425940 0.608576
0.071504 0.526482 0.665461
0.274861 0.702602 0.738033
0.643229 0.771878 0.772580
0.811612 0.765347 0.751308
0.887938 0.774197 0.766720
0.890929 0.782986 0.776120
0.055665 0.419348 0.597803
0.055909 0.419226 0.601038
0.056825 0.430518 0.611933
0.148486 0.624002 0.702785
0.681590 0.820798 0.807492
0.787961 0.833341 0.800443
0.848112 0.846128 0.790311
0.913024 0.855955 0.808988
0.914122 0.858244 0.813138
0.055756 0.419409 0.599115
0.055970 0.419196 0.601709
0.056947 0.431800 0.613092
0.160952 0.634043 0.706447
0.691600 0.822232 0.809110
0.794034 0.834562 0.801968
0.850950 0.848356 0.793759
0.912474 0.857847 0.811002
0.914427 0.859525 0.813993
0.033906 0.037446 0.206516
0.034272 0.036164 0.215213
0.034852 0.036133 0.213230
0.071992 0.039887 0.242252
0.207950 0.040803 0.288304
0.336217 0.041810 0.287053
0.477180 0.052186 0.293858
0.499580 0.065949 0.290623
0.514244 0.071656 0.295018
0.034363 0.038392 0.213779
0.034943 0.039277 0.224125
0.035492 0.036896 0.233555
0.060029 0.039521 0.248173
0.199725 0.041169 0.298711
0.345434 0.042145 0.298192
0.469368 0.051942 0.300206
0.520623 0.077546 0.316533
0.522484 0.079255 0.317876
0.038392 0.056458 0.265171
0.039155 0.064820 0.277653
0.039734 0.055055 0.298131
0.038209 0.040589 0.255161
0.154467 0.051575 0.324315
0.375662 0.054170 0.380652
0.543877 0.117464 0.405219
0.598749 0.223941 0.440436
0.601801 0.231907 0.446601
0.043793 0.185275 0.386603
0.044007 0.190249 0.393622
0.046540 0.190768 0.439094
0.043641 0.126650 0.375830
0.093278 0.148150 0.400443
0.370611 0.230091 0.506615
0.622675 0.335286 0.584344
0.667628 0.395132 0.608576
0.672297 0.402792 0.614069
0.049866 0.313298 0.481331
0.050355 0.321416 0.490394
0.050477 0.308385 0.522393
0.049622 0.278508 0.515358
0.200214 0.410834 0.588479
0.662470 0.558221 0.703334
0.776394 0.580484 0.717983
0.807340 0.607462 0.734371
0.811246 0.614359 0.738247
0.053864 0.368719 0.555047
0.054414 0.369421 0.566461
0.055299 0.372229 0.587701
0.108751 0.509514 0.652705
0.532296 0.679774 0.745907
0.752331 0.707103 0.777981
0.824247 0.701320 0.784817
0.871885 0.741665 0.804929
0.873472 0.745388 0.806302
0.055573 0.400153 0.594537
0.055909 0.408637 0.600092
0.056733 0.422797 0.611566
0.111681 0.573938 0.685054
0.503426 0.732143 0.765866
0.701686 0.762875 0.795926
0.828031 0.773465 0.810025
0.883757 0.782162 0.820859
0.887144 0.790158 0.824643
0.056214 0.418524 0.604761
0.056245 0.418708 0.604974
0.057038 0.432563 0.614527
0.152758 0.633707 0.706264
0.658595 0.818143 0.813107
0.755673 0.832242 0.829831
0.818082 0.845396 0.839078
0.911162 0.874662 0.866209
0.914275 0.876768 0.868406
0.056245 0.418769 0.604944
0.056245 0.418860 0.605066
0.057252 0.434791 0.615900
0.159792 0.644297 0.710292
0.676310 0.821317 0.816037
0.761807 0.833158 0.829801
0.823270 0.848447 0.840391
0.912077 0.877348 0.867338
0.914672 0.878141 0.868742
0.034180 0.037598 0.211307
0.034333 0.036194 0.216159
0.034913 0.036164 0.213840
0.074983 0.039948 0.244450
0.210575 0.040772 0.288609
0.337194 0.041840 0.287449
0.478340 0.052705 0.294316
0.501060 0.066346 0.302892
0.513573 0.071168 0.308141
0.034424 0.038300 0.215091
0.035035 0.039185 0.225559
0.035584 0.036988 0.234806
0.061128 0.039612 0.251102
0.201236 0.041199 0.299474
0.348211 0.042206 0.299962
0.471168 0.052247 0.301762
0.521935 0.078523 0.318120
0.523735 0.080446 0.319341
0.038483 0.055634 0.266026
0.039307 0.065156 0.280156
0.039734 0.055055 0.298405
0.038422 0.041138 0.256992
0.154528 0.051881 0.325719
0.377432 0.054475 0.383734
0.547082 0.122255 0.410834
0.599847 0.228275 0.445533
0.602686 0.235630 0.451453
0.043915 0.186557 0.389441
0.044129 0.191959 0.396582
0.046784 0.192844 0.443030
0.043732 0.127657 0.377234
0.092180 0.148821 0.403189
0.373419 0.237263 0.511986
0.629175 0.347158 0.590723
0.670497 0.399954 0.613367
0.674525 0.406546 0.618280
0.050050 0.315984 0.484901
0.050507 0.323674 0.493629
0.050538 0.308110 0.524010
0.049805 0.284153 0.518837
0.239643 0.436561 0.604471
0.680323 0.572778 0.712856
0.780667 0.585824 0.721309
0.809934 0.612070 0.736996
0.813687 0.618692 0.740658
0.053986 0.368292 0.557702
0.054475 0.369512 0.568627
0.055482 0.374640 0.590143
0.119036 0.521752 0.657984
0.548074 0.688869 0.751400
0.756664 0.712886 0.780667
0.828000 0.707546 0.787717
0.872312 0.744076 0.806027
0.873533 0.745815 0.806882
0.055695 0.400214 0.596063
0.055970 0.409277 0.600763
0.056886 0.424598 0.612879
0.122850 0.582666 0.688441
0.525704 0.738643 0.770016
0.710109 0.767147 0.798459
0.831357 0.778958 0.813535
0.884611 0.786831 0.823606
0.887816 0.792538 0.826749
0.056245 0.418280 0.604791
0.056245 0.418647 0.605005
0.057130 0.433539 0.615259
0.158236 0.640452 0.708858
0.664851 0.817777 0.813687
0.756832 0.830045 0.829099
0.821439 0.846098 0.840879
0.911803 0.875639 0.868650
0.914458 0.877562 0.869993
0.056245 0.418769 0.605035
0.056245 0.418891 0.605127
0.057618 0.437781 0.617639
0.162509 0.649638 0.712337
0.679500 0.822080 0.817044
0.760891 0.833005 0.830747
0.823453 0.848814 0.842405
0.912047 0.877714 0.869718
0.914946 0.878782 0.870756
