example-Advanced/bin/data/ofxGpuLutCube/LUT/Movie-51.cube
# (C) 2014 VisionColor & Patchflyer [www.vision-color.com]
# Generator: VC Patchmatch v.2.1.1 [64/53]
# All work and no play makes Jack a dull boy.
# LUT generated from: Kodak Elite Color 200_FC
LUT_3D_SIZE 17
0.027558 0.027283 0.027497
0.028748 0.027680 0.027893
0.036988 0.030488 0.031189
0.053071 0.029969 0.029480
0.071565 0.030945 0.029145
0.095857 0.032227 0.029053
0.130373 0.037232 0.029572
0.162844 0.045380 0.030701
0.193393 0.049256 0.030640
0.225895 0.054902 0.031403
0.258732 0.059419 0.031952
0.294682 0.062409 0.031922
0.333471 0.066438 0.032380
0.371099 0.071778 0.033295
0.387427 0.073762 0.033295
0.389960 0.074067 0.033295
0.390082 0.074067 0.033295
0.028595 0.029053 0.028565
0.030732 0.029999 0.029541
0.040314 0.033478 0.033448
0.058228 0.032441 0.030579
0.078950 0.034333 0.029969
0.104555 0.039704 0.031037
0.135225 0.043732 0.031281
0.164920 0.046357 0.031189
0.199924 0.050294 0.031037
0.232364 0.057557 0.032074
0.264042 0.061158 0.032349
0.297490 0.063325 0.032136
0.336065 0.067964 0.032776
0.372076 0.072816 0.033509
0.389197 0.074769 0.033478
0.391943 0.075013 0.033478
0.391882 0.074952 0.033448
0.034485 0.040589 0.034028
0.037171 0.042390 0.034821
0.055940 0.050965 0.042023
0.076600 0.052094 0.038636
0.101778 0.053468 0.038392
0.127871 0.054170 0.036530
0.153475 0.053620 0.034607
0.176303 0.052705 0.033143
0.213291 0.054292 0.032197
0.242741 0.061952 0.033204
0.271489 0.063630 0.032929
0.304753 0.065766 0.032837
0.340764 0.070619 0.033448
0.376043 0.075105 0.033967
0.392981 0.076814 0.033875
0.395941 0.077028 0.033845
0.395819 0.076875 0.033814
0.036286 0.057252 0.034730
0.039216 0.063844 0.034150
0.060182 0.073518 0.041627
0.095888 0.081880 0.053742
0.122957 0.083162 0.051514
0.160098 0.080964 0.047181
0.193332 0.078645 0.043946
0.226078 0.076570 0.041138
0.263706 0.078218 0.039673
0.299565 0.083589 0.040253
0.310826 0.080507 0.038300
0.339361 0.083040 0.038178
0.369818 0.085878 0.038025
0.403601 0.090761 0.038819
0.418708 0.091432 0.038605
0.420905 0.091096 0.038361
0.420020 0.090455 0.038117
0.040162 0.071504 0.048615
0.043275 0.086458 0.052033
0.049104 0.101686 0.041444
0.083955 0.112764 0.049256
0.144167 0.122835 0.070649
0.188602 0.121645 0.067475
0.235157 0.119295 0.062867
0.284993 0.115785 0.056947
0.321584 0.114748 0.054261
0.370916 0.122927 0.056703
0.371069 0.112917 0.051423
0.398108 0.113252 0.050294
0.424567 0.114015 0.049042
0.454505 0.115846 0.048859
0.468452 0.117556 0.049317
0.470436 0.116884 0.048951
0.468635 0.115846 0.048463
0.041199 0.091402 0.059266
0.044526 0.112764 0.065400
0.042206 0.136416 0.053803
0.053254 0.145571 0.041108
0.111757 0.156710 0.058961
0.206394 0.174685 0.095918
0.273884 0.171511 0.087831
0.338399 0.168490 0.081453
0.382162 0.157717 0.073213
0.413489 0.152438 0.070222
0.442023 0.155825 0.070832
0.473610 0.153872 0.068635
0.501854 0.152926 0.067231
0.521111 0.151064 0.065553
0.533684 0.151095 0.065126
0.534264 0.150057 0.064546
0.532433 0.148867 0.063996
0.044160 0.106264 0.068971
0.042390 0.143954 0.078859
0.034730 0.185122 0.070039
0.033112 0.187289 0.044648
0.065888 0.188663 0.040162
0.154788 0.199344 0.069673
0.292348 0.226627 0.118135
0.384878 0.227329 0.112642
0.444511 0.218509 0.103975
0.482307 0.206165 0.095003
0.519402 0.212406 0.097932
0.559014 0.208499 0.094850
0.591470 0.205798 0.091585
0.614786 0.207935 0.092927
0.626627 0.208881 0.093568
0.626108 0.207782 0.093019
0.624277 0.206348 0.092256
0.040925 0.177218 0.100099
0.038941 0.190249 0.101106
0.029999 0.224247 0.085573
0.029328 0.232822 0.069581
0.030854 0.228916 0.039551
0.099763 0.230381 0.047700
0.260761 0.264729 0.108370
0.408133 0.292622 0.148653
0.499596 0.291981 0.143069
0.564263 0.286488 0.134432
0.607874 0.287587 0.134157
0.662699 0.291585 0.134463
0.706188 0.298573 0.138308
0.736492 0.301808 0.141756
0.745922 0.308034 0.144930
0.746014 0.306691 0.144350
0.744945 0.305379 0.143709
0.045686 0.217868 0.132540
0.045380 0.221897 0.133303
0.043091 0.234501 0.131624
0.035645 0.261936 0.119234
0.029969 0.284215 0.081392
0.041627 0.264744 0.035615
0.190723 0.290761 0.080598
0.404349 0.352193 0.167391
0.548470 0.386313 0.185214
0.648325 0.402792 0.186801
0.700526 0.391836 0.176120
0.772473 0.415183 0.189853
0.821485 0.432486 0.203052
0.844114 0.442191 0.209461
0.852552 0.443168 0.210651
0.854292 0.442313 0.210529
0.854017 0.441703 0.210254
0.055238 0.261814 0.172366
0.055085 0.265293 0.172702
0.053773 0.273686 0.170901
0.049805 0.299260 0.166354
0.038880 0.336980 0.132280
0.038361 0.337575 0.075517
0.087373 0.303990 0.051865
0.390906 0.417639 0.158007
0.592676 0.492790 0.212467
0.656626 0.488945 0.210544
0.782086 0.531868 0.224552
0.858900 0.565957 0.247654
0.888975 0.587442 0.267948
0.897978 0.586954 0.271946
0.905791 0.589303 0.275669
0.906950 0.591257 0.277867
0.907042 0.591623 0.278080
0.068605 0.309117 0.217838
0.069123 0.312200 0.218875
0.069398 0.317693 0.219242
0.068025 0.337194 0.216129
0.059083 0.381140 0.185840
0.038270 0.398199 0.101869
0.061784 0.368200 0.043854
0.275074 0.432395 0.106157
0.550439 0.530480 0.203281
0.702861 0.587137 0.229160
0.827375 0.648356 0.252384
0.898100 0.710521 0.298741
0.916167 0.723766 0.317296
0.924865 0.730205 0.333440
0.927184 0.741100 0.361013
0.927825 0.742718 0.364248
0.927916 0.743542 0.364767
0.083009 0.358923 0.260716
0.082795 0.359289 0.259983
0.083558 0.363622 0.261601
0.087526 0.381689 0.266636
0.081239 0.429297 0.236439
0.056855 0.461707 0.149676
0.053361 0.443732 0.066316
0.232334 0.486351 0.089403
0.551598 0.621790 0.199786
0.749371 0.712902 0.259403
0.861769 0.770703 0.279423
0.915434 0.813611 0.314519
0.932372 0.826108 0.344305
0.935424 0.835355 0.399023
0.936034 0.840085 0.421241
0.936156 0.841337 0.425574
0.936187 0.842130 0.426184
0.100923 0.404395 0.295354
0.103700 0.412146 0.300114
0.103914 0.414343 0.299931
0.110353 0.434394 0.304845
0.127138 0.496773 0.308125
0.094942 0.546410 0.208148
0.066682 0.535225 0.091356
0.205432 0.541878 0.076341
0.549310 0.720653 0.218189
0.782208 0.830610 0.295201
0.880079 0.846983 0.301213
0.920501 0.859983 0.330236
0.936645 0.868376 0.382147
0.937377 0.875944 0.449805
0.937316 0.879759 0.469154
0.937316 0.880522 0.472114
0.937316 0.880674 0.472419
0.065522 0.289494 0.207553
0.122042 0.443153 0.327092
0.134646 0.473152 0.343908
0.152773 0.506371 0.361181
0.191714 0.587213 0.389868
0.166094 0.656672 0.288746
0.110994 0.613306 0.130404
0.239139 0.583719 0.121721
0.556481 0.773877 0.324010
0.773419 0.865766 0.406485
0.874266 0.879637 0.408057
0.918090 0.880796 0.429007
0.934112 0.884947 0.451453
0.937316 0.888701 0.482765
0.937224 0.889708 0.488594
0.937224 0.889952 0.489143
0.937224 0.889982 0.489326
0.057160 0.238773 0.170993
0.097444 0.393011 0.290074
0.177737 0.536919 0.393927
0.201694 0.577020 0.417243
0.239475 0.662531 0.440726
0.204257 0.707851 0.331228
0.194965 0.656825 0.221347
0.354635 0.670100 0.268223
0.585534 0.801801 0.420752
0.775891 0.873686 0.464424
0.883101 0.886595 0.446052
0.921324 0.886717 0.466072
0.934997 0.890410 0.487617
0.937133 0.891051 0.493202
0.937224 0.891112 0.493568
0.937224 0.891112 0.493568
0.937224 0.891112 0.493568
0.063142 0.264347 0.194186
0.119142 0.435554 0.325322
0.204349 0.580377 0.421393
0.220096 0.607233 0.436103
0.255406 0.688563 0.457374
0.216800 0.718105 0.346426
0.231067 0.671809 0.260380
0.390158 0.695003 0.315923
0.590448 0.807416 0.442496
0.776898 0.875456 0.477150
0.885054 0.887449 0.452857
0.922637 0.887022 0.467964
0.935760 0.890623 0.489479
0.937224 0.891081 0.493507
0.937224 0.891112 0.493568
0.937224 0.891112 0.493568
0.937224 0.891112 0.493568
0.072175 0.291814 0.227695
0.128328 0.452949 0.337316
0.207797 0.585992 0.425055
0.221744 0.611078 0.437201
0.256687 0.690303 0.458961
0.217807 0.718807 0.347799
0.234363 0.672572 0.263218
0.394156 0.697032 0.319570
0.592950 0.808942 0.444816
0.779431 0.876066 0.477546
0.885969 0.887449 0.452827
0.922911 0.887083 0.468360
0.935821 0.890654 0.489632
0.937224 0.891112 0.493568
0.937224 0.891112 0.493568
0.937224 0.891112 0.493568
0.937224 0.891112 0.493568
0.028046 0.027741 0.028382
0.029206 0.027924 0.028779
0.038575 0.031220 0.032868
0.055726 0.029786 0.030091
0.075746 0.030426 0.029541
0.099580 0.030640 0.028992
0.129030 0.033021 0.028870
0.160891 0.039216 0.029786
0.195438 0.044007 0.029816
0.226932 0.049470 0.030396
0.257450 0.054719 0.031128
0.292180 0.057862 0.031067
0.331487 0.062928 0.031769
0.368536 0.069062 0.032959
0.386572 0.071626 0.033021
0.389899 0.072328 0.033051
0.390051 0.072633 0.033082
0.029328 0.030243 0.030701
0.030976 0.030640 0.030823
0.040681 0.033661 0.034668
0.057862 0.031464 0.030823
0.078553 0.032929 0.030274
0.105806 0.037354 0.030701
0.139284 0.040803 0.030884
0.172885 0.043244 0.030701
0.209140 0.047608 0.030823
0.239536 0.053803 0.031373
0.263035 0.057954 0.031769
0.295811 0.060700 0.031647
0.333379 0.065370 0.032319
0.370245 0.070680 0.033234
0.388098 0.073030 0.033234
0.391241 0.073579 0.033265
0.391150 0.073732 0.033265
0.035187 0.041657 0.037934
0.037598 0.042603 0.038392
0.056275 0.051423 0.044831
0.073854 0.050385 0.041352
0.099306 0.049866 0.039002
0.127443 0.050629 0.036194
0.155276 0.050721 0.034455
0.185916 0.051057 0.033143
0.220951 0.051911 0.032136
0.253117 0.059327 0.032776
0.270970 0.060273 0.032288
0.303349 0.063264 0.032319
0.338537 0.068330 0.033051
0.374517 0.073213 0.033722
0.392187 0.075288 0.033661
0.395453 0.075746 0.033661
0.395239 0.075807 0.033661
0.036561 0.057923 0.039429
0.038514 0.061128 0.039063
0.056123 0.070436 0.045350
0.088228 0.076173 0.056947
0.117128 0.075990 0.051606
0.155856 0.074464 0.046326
0.192538 0.073548 0.042969
0.225010 0.071687 0.040253
0.256718 0.071534 0.038087
0.291661 0.076661 0.037934
0.311803 0.077272 0.037018
0.337804 0.080385 0.037201
0.367926 0.083742 0.037263
0.401099 0.088411 0.037903
0.416999 0.089570 0.037873
0.419654 0.089570 0.037781
0.418891 0.089204 0.037629
0.040742 0.071748 0.058076
0.042664 0.080842 0.057801
0.049042 0.097963 0.048646
0.077699 0.108248 0.051240
0.139620 0.117342 0.070741
0.183658 0.115938 0.067201
0.233082 0.114046 0.061707
0.283970 0.111269 0.055604
0.319905 0.111116 0.053010
0.363317 0.116030 0.053864
0.372107 0.107881 0.049226
0.395697 0.110231 0.049042
0.422522 0.111879 0.048249
0.452308 0.113954 0.048066
0.466743 0.115999 0.048676
0.469215 0.115663 0.048432
0.467658 0.114870 0.048035
0.041718 0.093324 0.064820
0.044892 0.106813 0.069429
0.044648 0.131716 0.062623
0.048615 0.142641 0.044465
0.106996 0.153658 0.060700
0.205142 0.171084 0.096956
0.272480 0.166842 0.087617
0.337026 0.164645 0.080690
0.380941 0.157076 0.074067
0.414618 0.150668 0.069612
0.443122 0.150332 0.068238
0.472328 0.151034 0.067384
0.500328 0.151308 0.066529
0.519860 0.149905 0.065064
0.532952 0.150240 0.064759
0.533684 0.149355 0.064271
0.532189 0.148440 0.063844
0.045014 0.114076 0.078126
0.045472 0.138216 0.088106
0.038758 0.177615 0.080964
0.035981 0.186343 0.057710
0.058259 0.185824 0.041871
0.151949 0.196780 0.072847
0.290364 0.225040 0.119783
0.383505 0.228153 0.114748
0.444022 0.221347 0.106416
0.485695 0.206714 0.095674
0.523583 0.206577 0.095338
0.559258 0.206424 0.093874
0.591287 0.205066 0.091249
0.614908 0.207294 0.092561
0.627115 0.208942 0.093629
0.626902 0.208118 0.093202
0.625376 0.206928 0.092561
0.044404 0.180728 0.110719
0.042206 0.188449 0.109224
0.033783 0.219791 0.095033
0.031128 0.232883 0.080354
0.032197 0.233097 0.050294
0.092897 0.231479 0.047852
0.252583 0.265583 0.105562
0.406302 0.298360 0.153719
0.501686 0.299245 0.148348
0.567559 0.289998 0.137362
0.617243 0.287861 0.134218
0.665293 0.290761 0.134340
0.707103 0.298451 0.138338
0.737469 0.301991 0.141878
0.747112 0.309316 0.145541
0.747600 0.308400 0.145174
0.746777 0.307393 0.144686
0.049592 0.222446 0.144472
0.046601 0.214267 0.132967
0.044312 0.227268 0.131655
0.039521 0.260868 0.130495
0.031250 0.289738 0.091951
0.038117 0.273136 0.039582
0.183551 0.296162 0.081209
0.397177 0.355550 0.164736
0.540413 0.390341 0.189609
0.648890 0.406332 0.189578
0.713619 0.397848 0.179141
0.776074 0.417105 0.190753
0.823163 0.434318 0.203876
0.845273 0.444297 0.210376
0.854292 0.445701 0.211841
0.856275 0.445304 0.211933
0.856153 0.445090 0.211841
0.059236 0.267308 0.184421
0.058473 0.269352 0.182834
0.054353 0.255314 0.168246
0.051575 0.265141 0.163638
0.045258 0.330022 0.152392
0.040406 0.347585 0.089799
0.095979 0.322484 0.056474
0.376104 0.415991 0.153857
0.579660 0.487282 0.211765
0.679057 0.503609 0.215579
0.791058 0.539284 0.227359
0.860273 0.569223 0.248905
0.889647 0.590402 0.269169
0.899046 0.590921 0.273838
0.906920 0.593668 0.277775
0.908141 0.596963 0.281300
0.908324 0.597910 0.281819
0.073823 0.315526 0.232761
0.074067 0.317571 0.232975
0.074403 0.322148 0.233433
0.062379 0.295903 0.200259
0.060517 0.344823 0.198672
0.043336 0.409644 0.117693
0.066468 0.379339 0.045655
0.317174 0.460334 0.120226
0.571176 0.548424 0.210117
0.715251 0.597299 0.230869
0.837110 0.656443 0.254917
0.898680 0.713390 0.299260
0.916716 0.727092 0.318273
0.925505 0.735180 0.336034
0.927703 0.745922 0.363912
0.928405 0.747967 0.367422
0.928557 0.749249 0.368215
0.086976 0.364019 0.271061
0.086732 0.365118 0.269993
0.087343 0.368444 0.270573
0.090272 0.384771 0.273289
0.085359 0.430915 0.246296
0.059846 0.466560 0.158160
0.058000 0.453971 0.070161
0.245075 0.498405 0.092729
0.564569 0.634424 0.207172
0.749279 0.715740 0.259739
0.862013 0.773297 0.279759
0.915923 0.816114 0.314611
0.932769 0.828031 0.344915
0.935637 0.839170 0.402884
0.936248 0.844450 0.424842
0.936370 0.846281 0.428901
0.936431 0.847410 0.429908
0.110292 0.419684 0.315435
0.110567 0.422522 0.314061
0.109926 0.423041 0.311955
0.114992 0.439887 0.312993
0.131380 0.498482 0.317159
0.100404 0.550408 0.218677
0.065736 0.539162 0.093507
0.197528 0.539559 0.074540
0.542443 0.719097 0.215869
0.780346 0.831769 0.295109
0.879591 0.847929 0.302129
0.920317 0.860533 0.330755
0.936675 0.869535 0.383093
0.937407 0.877775 0.454017
0.937346 0.881498 0.471962
0.937346 0.882322 0.475044
0.937346 0.882597 0.475410
0.133761 0.451179 0.353582
0.134035 0.463020 0.346227
0.146883 0.489113 0.360235
0.159426 0.514122 0.370153
0.194583 0.589685 0.394324
0.172198 0.659571 0.299489
0.111818 0.616785 0.134920
0.234653 0.583413 0.121294
0.549035 0.769268 0.318303
0.771130 0.865187 0.405661
0.873320 0.879759 0.408698
0.917845 0.881346 0.431571
0.933837 0.886442 0.461769
0.937285 0.889586 0.484291
0.937224 0.890227 0.490333
0.937224 0.890501 0.491249
0.937224 0.890532 0.491371
0.112947 0.404700 0.328466
0.112123 0.416388 0.321782
0.189670 0.554620 0.407691
0.206180 0.583734 0.422614
0.242374 0.664668 0.445457
0.207614 0.709133 0.337331
0.192126 0.658198 0.221073
0.349630 0.669490 0.266941
0.580560 0.799023 0.418006
0.772656 0.872984 0.464485
0.882246 0.886503 0.445319
0.921019 0.886625 0.465522
0.934997 0.890410 0.487617
0.937102 0.891051 0.493172
0.937224 0.891112 0.493568
0.937224 0.891112 0.493568
0.937224 0.891112 0.493568
0.135500 0.450050 0.362982
0.132326 0.450294 0.349950
0.209384 0.587182 0.428138
0.222110 0.611139 0.438239
0.257481 0.689082 0.461402
0.219852 0.718898 0.352468
0.226307 0.672480 0.258183
0.383810 0.691981 0.311559
0.585168 0.804395 0.439109
0.773541 0.874693 0.476905
0.884047 0.887388 0.452583
0.922301 0.886931 0.467384
0.935699 0.890623 0.489357
0.937224 0.891081 0.493507
0.937224 0.891112 0.493568
0.937224 0.891112 0.493568
0.937224 0.891112 0.493568
0.150729 0.477577 0.381903
0.143587 0.469398 0.364477
0.213535 0.593652 0.432746
0.224216 0.615534 0.439887
0.258610 0.690822 0.462654
0.220890 0.719600 0.353872
0.229572 0.673274 0.261021
0.387472 0.693935 0.315114
0.587579 0.805890 0.441367
0.775921 0.875273 0.477272
0.884932 0.887388 0.452491
0.922576 0.886961 0.467720
0.935760 0.890623 0.489479
0.937224 0.891112 0.493568
0.937224 0.891112 0.493568
0.937224 0.891112 0.493568
0.937224 0.891112 0.493568
0.030396 0.029938 0.034485
0.031800 0.030030 0.034852
0.039612 0.031128 0.037415
0.056916 0.029480 0.034913
0.077058 0.029847 0.036225
0.101472 0.030091 0.036622
0.127352 0.031037 0.036744
0.160159 0.033600 0.034302
0.196933 0.037201 0.028717
0.227604 0.041993 0.028992
0.257542 0.046967 0.029633
0.291081 0.051087 0.029786
0.328862 0.057191 0.030793
0.367071 0.064363 0.032349
0.384619 0.066957 0.032349
0.388403 0.068025 0.032441
0.388983 0.068757 0.032532
0.032105 0.033265 0.038300
0.034852 0.034241 0.039094
0.042023 0.034363 0.040497
0.059724 0.030854 0.036591
0.081392 0.031647 0.037324
0.111879 0.033875 0.035920
0.143038 0.035920 0.034638
0.175296 0.036164 0.031861
0.209934 0.039857 0.029603
0.242374 0.044587 0.029572
0.262821 0.049836 0.030182
0.294743 0.053468 0.030274
0.331029 0.059388 0.031281
0.368688 0.065705 0.032593
0.386145 0.068086 0.032532
0.389715 0.069001 0.032593
0.390051 0.069581 0.032685
0.035767 0.043000 0.047272
0.038788 0.045014 0.048402
0.052522 0.051148 0.051057
0.069673 0.049683 0.048890
0.097841 0.046418 0.042512
0.128359 0.045289 0.037842
0.159487 0.044678 0.035035
0.197421 0.045228 0.033143
0.229099 0.046265 0.031739
0.265110 0.052430 0.031464
0.272801 0.053681 0.030945
0.302892 0.058106 0.031281
0.337591 0.063844 0.032258
0.373236 0.069062 0.033173
0.390326 0.070832 0.033021
0.393774 0.071565 0.033051
0.393896 0.071992 0.033112
0.037873 0.057832 0.056306
0.040101 0.061616 0.055726
0.054047 0.068299 0.057008
0.082307 0.074556 0.064210
0.114015 0.071717 0.054780
0.152132 0.069093 0.049439
0.192416 0.067109 0.044587
0.232212 0.066041 0.040650
0.263340 0.067475 0.038025
0.297795 0.071809 0.037110
0.311711 0.071443 0.035584
0.335027 0.075288 0.035828
0.365545 0.079011 0.035889
0.396857 0.082582 0.035859
0.413184 0.084413 0.035889
0.416297 0.084810 0.035920
0.415717 0.084688 0.035889
0.041321 0.071382 0.067109
0.043153 0.079805 0.069429
0.048920 0.092226 0.062623
0.066621 0.103548 0.059541
0.128145 0.110842 0.078706
0.174380 0.107729 0.070436
0.230198 0.105989 0.061891
0.283055 0.102998 0.053834
0.315373 0.101381 0.049958
0.347448 0.102174 0.048341
0.375219 0.101717 0.046693
0.393256 0.104067 0.046387
0.419623 0.107332 0.046448
0.448524 0.109743 0.046387
0.463722 0.112367 0.047211
0.466590 0.112276 0.047059
0.465400 0.111757 0.046784
0.042939 0.094118 0.075166
0.046021 0.104829 0.081178
0.050263 0.127687 0.083650
0.052888 0.142763 0.068238
0.090761 0.149081 0.061524
0.197086 0.165774 0.101625
0.266987 0.159243 0.089570
0.332174 0.157626 0.081758
0.377340 0.151278 0.073579
0.412512 0.146090 0.067994
0.445869 0.144015 0.065492
0.472694 0.143984 0.064179
0.497108 0.146609 0.064454
0.516075 0.146090 0.063447
0.530388 0.147097 0.063447
0.530846 0.146456 0.063081
0.529778 0.145876 0.062776
0.048646 0.121706 0.097841
0.049561 0.143893 0.106569
0.045350 0.172152 0.100282
0.043091 0.186679 0.087648
0.049531 0.187259 0.058503
0.135164 0.192416 0.076753
0.282490 0.222171 0.125978
0.378408 0.225742 0.117098
0.440543 0.219242 0.107454
0.487556 0.206928 0.096651
0.528832 0.200397 0.092958
0.561654 0.199405 0.090455
0.590463 0.202243 0.090028
0.614694 0.204822 0.091218
0.626841 0.207752 0.092988
0.626932 0.207233 0.092714
0.625864 0.206409 0.092287
0.050263 0.183200 0.131197
0.049470 0.195560 0.134554
0.043732 0.224125 0.124636
0.038636 0.235599 0.108888
0.035645 0.242771 0.075441
0.075319 0.231205 0.047181
0.233539 0.262867 0.101442
0.399619 0.301717 0.159548
0.499809 0.303944 0.154086
0.566033 0.293080 0.142061
0.626139 0.285573 0.133883
0.674754 0.286336 0.133425
0.707805 0.296437 0.137453
0.737652 0.300618 0.141176
0.747570 0.309316 0.145480
0.748425 0.308919 0.145388
0.748058 0.308461 0.145174
0.058686 0.232578 0.172122
0.057038 0.220340 0.164431
0.052918 0.232120 0.155947
0.046815 0.266667 0.151858
0.036652 0.294469 0.113680
0.042115 0.289708 0.063813
0.168536 0.300618 0.081636
0.383749 0.358785 0.164614
0.530129 0.393881 0.196506
0.642054 0.407889 0.193790
0.728237 0.405173 0.182681
0.786816 0.419059 0.191516
0.825238 0.435203 0.204456
0.845991 0.444877 0.210590
0.856458 0.447318 0.212696
0.858656 0.447471 0.213031
0.858778 0.447715 0.213153
0.070802 0.280552 0.220249
0.069398 0.281773 0.216495
0.069215 0.285161 0.216861
0.064393 0.297612 0.206424
0.057801 0.330816 0.190906
0.044526 0.362814 0.118364
0.087800 0.338445 0.061280
0.336248 0.407599 0.144701
0.556435 0.478706 0.211398
0.693278 0.515969 0.220432
0.810010 0.553262 0.233555
0.862440 0.572976 0.250614
0.890410 0.592477 0.270085
0.900328 0.594095 0.275608
0.908202 0.597696 0.280186
0.909545 0.602762 0.285389
0.909819 0.604227 0.286183
0.081666 0.326452 0.257176
0.081270 0.327672 0.255375
0.081270 0.330632 0.254520
0.071626 0.289982 0.225010
0.065095 0.288594 0.205936
0.064515 0.415625 0.186114
0.056291 0.394629 0.060029
0.302739 0.467933 0.123369
0.590463 0.568475 0.217655
0.735241 0.614786 0.234592
0.853895 0.669627 0.259800
0.899962 0.717174 0.300328
0.917388 0.730388 0.319341
0.925933 0.738659 0.337896
0.928161 0.750072 0.366354
0.928893 0.752483 0.370077
0.929076 0.754192 0.371176
0.100832 0.380713 0.303899
0.098878 0.380072 0.298772
0.097810 0.381353 0.295415
0.099062 0.394842 0.294377
0.098268 0.437781 0.275639
0.069520 0.478737 0.177203
0.071397 0.478355 0.073579
0.293614 0.536477 0.108446
0.613840 0.672480 0.225864
0.750195 0.720348 0.260471
0.863050 0.777203 0.280430
0.916564 0.819074 0.314885
0.933074 0.829526 0.345373
0.935790 0.842161 0.405478
0.936400 0.848081 0.427375
0.936553 0.850187 0.431617
0.936614 0.851682 0.432929
0.129366 0.439948 0.353552
0.127993 0.441138 0.347631
0.126070 0.441016 0.342016
0.129152 0.454963 0.338659
0.143648 0.504784 0.342260
0.113008 0.561883 0.241260
0.065980 0.546242 0.097139
0.190631 0.538308 0.073136
0.537179 0.719554 0.214527
0.779248 0.833295 0.297398
0.879408 0.849180 0.303105
0.920165 0.860929 0.332433
0.936706 0.870024 0.383368
0.937407 0.878569 0.455360
0.937377 0.882322 0.472724
0.937346 0.883268 0.475959
0.937377 0.883604 0.476234
0.168215 0.506493 0.402899
0.169528 0.513268 0.397498
0.170077 0.516442 0.394812
0.180179 0.536583 0.400549
0.203769 0.595453 0.410285
0.183459 0.666499 0.317494
0.114565 0.621881 0.141054
0.235050 0.585824 0.124895
0.544488 0.766613 0.316609
0.769787 0.865003 0.405692
0.873320 0.879759 0.408179
0.917967 0.881437 0.431876
0.933776 0.886839 0.464317
0.937255 0.889921 0.485237
0.937224 0.890501 0.491249
0.937224 0.890684 0.491310
0.937224 0.890532 0.489632
0.219791 0.585443 0.458717
0.218784 0.590021 0.450843
0.215213 0.589502 0.441688
0.225620 0.611231 0.447456
0.254398 0.673884 0.464851
0.213931 0.712489 0.347189
0.189563 0.659113 0.220371
0.345541 0.668696 0.265324
0.576898 0.796918 0.415747
0.770367 0.872404 0.463905
0.882185 0.886351 0.444129
0.921050 0.886473 0.464698
0.935058 0.890410 0.487587
0.937102 0.891051 0.493141
0.937224 0.891112 0.493568
0.937224 0.891081 0.493233
0.937224 0.890929 0.491798
0.259098 0.650111 0.496773
0.243320 0.630976 0.474586
0.232700 0.619165 0.458534
0.241672 0.638209 0.462379
0.269352 0.697566 0.480964
0.225589 0.721920 0.362539
0.223224 0.673243 0.257023
0.378622 0.689235 0.307408
0.581262 0.802075 0.436118
0.771038 0.874052 0.476173
0.883833 0.887297 0.451575
0.922240 0.886778 0.466438
0.935668 0.890593 0.489113
0.937224 0.891081 0.493507
0.937224 0.891112 0.493568
0.937224 0.891112 0.493568
0.937224 0.890990 0.492500
0.272160 0.670314 0.509972
0.251438 0.643397 0.482979
0.235477 0.623255 0.461555
0.244175 0.641932 0.465095
0.270848 0.699611 0.482795
0.226017 0.722896 0.363027
0.226490 0.674220 0.260105
0.381918 0.690974 0.310582
0.583368 0.803357 0.438071
0.773327 0.874601 0.476478
0.884688 0.887297 0.451545
0.922454 0.886839 0.466865
0.935699 0.890623 0.489357
0.937224 0.891112 0.493568
0.937224 0.891112 0.493568
0.937224 0.891112 0.493568
0.937224 0.891051 0.493172
0.032410 0.031861 0.039765
0.034333 0.031800 0.041474
0.041993 0.031098 0.044587
0.056886 0.029206 0.046387
0.077058 0.029511 0.045960
0.101259 0.029999 0.045624
0.128664 0.031128 0.044282
0.166140 0.033814 0.043275
0.210513 0.036805 0.038575
0.231388 0.037751 0.034882
0.261631 0.039673 0.032532
0.293156 0.040742 0.030579
0.327153 0.042359 0.029664
0.360113 0.045167 0.029358
