example-Advanced/bin/data/ofxGpuLutCube/LUT/Movie-51.cube
# (C) 2014 VisionColor & Patchflyer [www.vision-color.com]
# Generator: VC Patchmatch v.2.1.1 [64/53]
# All work and no play makes Jack a dull boy.
# LUT generated from: Kodak Elite Color 200_FC
LUT_3D_SIZE 5
0.027558 0.027283 0.027497
0.071565 0.030945 0.029145
0.193393 0.049256 0.030640
0.333471 0.066438 0.032380
0.390082 0.074067 0.033295
0.040162 0.071504 0.048615
0.144167 0.122835 0.070649
0.321584 0.114748 0.054261
0.424567 0.114015 0.049042
0.468635 0.115846 0.048463
0.045686 0.217868 0.132540
0.029969 0.284215 0.081392
0.548470 0.386313 0.185214
0.821485 0.432486 0.203052
0.854017 0.441703 0.210254
0.100923 0.404395 0.295354
0.127138 0.496773 0.308125
0.549310 0.720653 0.218189
0.936645 0.868376 0.382147
0.937316 0.880674 0.472419
0.072175 0.291814 0.227695
0.256687 0.690303 0.458961
0.592950 0.808942 0.444816
0.935821 0.890654 0.489632
0.937224 0.891112 0.493568
0.029145 0.030762 0.051392
0.077455 0.029175 0.053742
0.220737 0.038605 0.049805
0.341497 0.044862 0.041321
0.389807 0.047547 0.038727
0.039887 0.072358 0.092744
0.105348 0.106233 0.103151
0.312566 0.079438 0.054047
0.405005 0.059419 0.034485
0.428321 0.065248 0.036744
0.070375 0.246464 0.226505
0.064118 0.322225 0.205173
0.508797 0.398367 0.215061
0.821820 0.377203 0.180316
0.866529 0.423636 0.215412
0.157046 0.479500 0.411566
0.196292 0.551110 0.434150
0.527398 0.751659 0.252644
0.937530 0.871519 0.372015
0.938323 0.876371 0.405127
0.310094 0.724330 0.567926
0.302312 0.734554 0.538476
0.602045 0.809644 0.427070
0.937346 0.880217 0.419165
0.938231 0.879210 0.411933
0.026581 0.033936 0.094972
0.056275 0.028351 0.110567
0.203494 0.035676 0.116030
0.375372 0.048310 0.112367
0.422126 0.054994 0.134707
0.036713 0.078584 0.153353
0.051057 0.097200 0.233494
0.325429 0.089876 0.205020
0.433478 0.059419 0.133455
0.481727 0.085023 0.166644
0.067597 0.243961 0.295827
0.077211 0.313588 0.380301
0.481468 0.487266 0.466148
0.758862 0.300893 0.252705
0.858305 0.492424 0.441825
0.217807 0.563653 0.528710
0.309209 0.699458 0.622980
0.459968 0.750668 0.436469
0.935180 0.886503 0.483497
0.935485 0.901579 0.631525
0.352789 0.768368 0.660090
0.376989 0.802152 0.696452
0.615793 0.847364 0.567483
0.933562 0.904936 0.618235
0.935729 0.912077 0.694530
0.025696 0.040558 0.168185
0.042451 0.032319 0.197208
0.199313 0.037446 0.217746
0.410407 0.056123 0.230625
0.436042 0.066499 0.268376
0.031373 0.078279 0.229160
0.027039 0.088991 0.314382
0.248493 0.095552 0.339666
0.446632 0.082673 0.320287
0.507561 0.140017 0.389044
0.051789 0.261051 0.383124
0.056611 0.313558 0.469993
0.282841 0.441855 0.672862
0.824826 0.510521 0.770321
0.870390 0.617838 0.833646
0.275395 0.621042 0.674937
0.402441 0.772824 0.823667
0.675837 0.893034 0.902770
0.902037 0.894408 0.882780
0.937407 0.900450 0.889006
0.379034 0.752285 0.795346
0.429389 0.796536 0.849912
0.795010 0.927459 0.919341
0.902281 0.935607 0.877531
0.940093 0.931823 0.877775
0.025391 0.043030 0.213016
0.040925 0.032990 0.232059
0.198367 0.038270 0.244022
0.422065 0.059419 0.254643
0.435309 0.067201 0.276951
0.028992 0.077058 0.265507
0.025513 0.089235 0.348699
0.221790 0.094118 0.375860
0.447242 0.089845 0.355200
0.503288 0.144564 0.417182
0.051637 0.284489 0.430884
0.050111 0.328420 0.526253
0.422858 0.558160 0.775952
0.863371 0.600748 0.824445
0.880186 0.651560 0.847990
0.281285 0.626078 0.728542
0.380926 0.742641 0.823941
0.696895 0.873991 0.903929
0.908049 0.911070 0.925719
0.937987 0.910033 0.924224
0.379675 0.742336 0.801633
0.438849 0.801358 0.856352
0.793271 0.926482 0.925963
0.905516 0.939269 0.933654
0.948547 0.948486 0.938933
