example-Advanced/bin/data/ofxGpuLutCube/LUT/Movie-51.cube
# (C) 2014 VisionColor & Patchflyer [www.vision-color.com]
# Generator: VC Patchmatch v.2.1.1 [64/53]
# All work and no play makes Jack a dull boy.
# LUT generated from: Kodak Elite Color 200_FC
LUT_3D_SIZE 9
0.027558 0.027283 0.027497
0.036988 0.030488 0.031189
0.071565 0.030945 0.029145
0.130373 0.037232 0.029572
0.193393 0.049256 0.030640
0.258732 0.059419 0.031952
0.333471 0.066438 0.032380
0.387427 0.073762 0.033295
0.390082 0.074067 0.033295
0.034485 0.040589 0.034028
0.055940 0.050965 0.042023
0.101778 0.053468 0.038392
0.153475 0.053620 0.034607
0.213291 0.054292 0.032197
0.271489 0.063630 0.032929
0.340764 0.070619 0.033448
0.392981 0.076814 0.033875
0.395819 0.076875 0.033814
0.040162 0.071504 0.048615
0.049104 0.101686 0.041444
0.144167 0.122835 0.070649
0.235157 0.119295 0.062867
0.321584 0.114748 0.054261
0.371069 0.112917 0.051423
0.424567 0.114015 0.049042
0.468452 0.117556 0.049317
0.468635 0.115846 0.048463
0.044160 0.106264 0.068971
0.034730 0.185122 0.070039
0.065888 0.188663 0.040162
0.292348 0.226627 0.118135
0.444511 0.218509 0.103975
0.519402 0.212406 0.097932
0.591470 0.205798 0.091585
0.626627 0.208881 0.093568
0.624277 0.206348 0.092256
0.045686 0.217868 0.132540
0.043091 0.234501 0.131624
0.029969 0.284215 0.081392
0.190723 0.290761 0.080598
0.548470 0.386313 0.185214
0.700526 0.391836 0.176120
0.821485 0.432486 0.203052
0.852552 0.443168 0.210651
0.854017 0.441703 0.210254
0.068605 0.309117 0.217838
0.069398 0.317693 0.219242
0.059083 0.381140 0.185840
0.061784 0.368200 0.043854
0.550439 0.530480 0.203281
0.827375 0.648356 0.252384
0.916167 0.723766 0.317296
0.927184 0.741100 0.361013
0.927916 0.743542 0.364767
0.100923 0.404395 0.295354
0.103914 0.414343 0.299931
0.127138 0.496773 0.308125
0.066682 0.535225 0.091356
0.549310 0.720653 0.218189
0.880079 0.846983 0.301213
0.936645 0.868376 0.382147
0.937316 0.879759 0.469154
0.937316 0.880674 0.472419
0.057160 0.238773 0.170993
0.177737 0.536919 0.393927
0.239475 0.662531 0.440726
0.194965 0.656825 0.221347
0.585534 0.801801 0.420752
0.883101 0.886595 0.446052
0.934997 0.890410 0.487617
0.937224 0.891112 0.493568
0.937224 0.891112 0.493568
0.072175 0.291814 0.227695
0.207797 0.585992 0.425055
0.256687 0.690303 0.458961
0.234363 0.672572 0.263218
0.592950 0.808942 0.444816
0.885969 0.887449 0.452827
0.935821 0.890654 0.489632
0.937224 0.891112 0.493568
0.937224 0.891112 0.493568
0.030396 0.029938 0.034485
0.039612 0.031128 0.037415
0.077058 0.029847 0.036225
0.127352 0.031037 0.036744
0.196933 0.037201 0.028717
0.257542 0.046967 0.029633
0.328862 0.057191 0.030793
0.384619 0.066957 0.032349
0.388983 0.068757 0.032532
0.035767 0.043000 0.047272
0.052522 0.051148 0.051057
0.097841 0.046418 0.042512
0.159487 0.044678 0.035035
0.229099 0.046265 0.031739
0.272801 0.053681 0.030945
0.337591 0.063844 0.032258
0.390326 0.070832 0.033021
0.393896 0.071992 0.033112
0.041321 0.071382 0.067109
0.048920 0.092226 0.062623
0.128145 0.110842 0.078706
0.230198 0.105989 0.061891
0.315373 0.101381 0.049958
0.375219 0.101717 0.046693
0.419623 0.107332 0.046448
0.463722 0.112367 0.047211
0.465400 0.111757 0.046784
0.048646 0.121706 0.097841
0.045350 0.172152 0.100282
0.049531 0.187259 0.058503
0.282490 0.222171 0.125978
0.440543 0.219242 0.107454
0.528832 0.200397 0.092958
0.590463 0.202243 0.090028
0.626841 0.207752 0.092988
0.625864 0.206409 0.092287
0.058686 0.232578 0.172122
0.052918 0.232120 0.155947
0.036652 0.294469 0.113680
0.168536 0.300618 0.081636
0.530129 0.393881 0.196506
0.728237 0.405173 0.182681
0.825238 0.435203 0.204456
0.856458 0.447318 0.212696
0.858778 0.447715 0.213153
0.081666 0.326452 0.257176
0.081270 0.330632 0.254520
0.065095 0.288594 0.205936
0.056291 0.394629 0.060029
0.590463 0.568475 0.217655
0.853895 0.669627 0.259800
0.917388 0.730388 0.319341
0.928161 0.750072 0.366354
0.929076 0.754192 0.371176
0.129366 0.439948 0.353552
0.126070 0.441016 0.342016
0.143648 0.504784 0.342260
0.065980 0.546242 0.097139
0.537179 0.719554 0.214527
0.879408 0.849180 0.303105
0.936706 0.870024 0.383368
0.937377 0.882322 0.472724
0.937377 0.883604 0.476234
0.219791 0.585443 0.458717
0.215213 0.589502 0.441688
0.254398 0.673884 0.464851
0.189563 0.659113 0.220371
0.576898 0.796918 0.415747
0.882185 0.886351 0.444129
0.935058 0.890410 0.487587
0.937224 0.891112 0.493568
0.937224 0.890929 0.491798
0.272160 0.670314 0.509972
0.235477 0.623255 0.461555
0.270848 0.699611 0.482795
0.226490 0.674220 0.260105
0.583368 0.803357 0.438071
0.884688 0.887297 0.451545
0.935699 0.890623 0.489357
0.937224 0.891112 0.493568
0.937224 0.891051 0.493172
0.029145 0.030762 0.051392
0.043061 0.030121 0.055116
0.077455 0.029175 0.053742
0.130617 0.031647 0.053559
0.220737 0.038605 0.049805
0.272587 0.041627 0.044160
0.341497 0.044862 0.041321
0.388739 0.047486 0.039826
0.389807 0.047547 0.038727
0.034760 0.047181 0.065888
0.048493 0.051637 0.075166
0.095338 0.045686 0.074189
0.169192 0.044434 0.056641
0.238071 0.043183 0.048890
0.296178 0.043732 0.045045
0.348333 0.045289 0.040833
0.392187 0.047822 0.040192
0.393317 0.047913 0.039429
0.039887 0.072358 0.092744
0.054353 0.091981 0.106081
0.105348 0.106233 0.103151
0.219669 0.096559 0.077607
0.312566 0.079438 0.054047
0.377417 0.065187 0.040497
0.405005 0.059419 0.034485
0.426246 0.064088 0.036316
0.428321 0.065248 0.036744
0.054719 0.139101 0.156283
0.058198 0.166903 0.160922
0.066773 0.201419 0.141024
0.260578 0.224094 0.155123
0.420737 0.201999 0.118502
0.515129 0.162387 0.077852
0.548653 0.147921 0.065888
0.575357 0.159426 0.071077
0.577798 0.159823 0.071382
0.070375 0.246464 0.226505
0.074495 0.269108 0.248508
0.064118 0.322225 0.205173
0.108217 0.295125 0.072114
0.508797 0.398367 0.215061
0.740078 0.395193 0.189105
0.821820 0.377203 0.180316
0.861555 0.412833 0.205737
0.866529 0.423636 0.215412
0.099428 0.352392 0.321050
0.100465 0.356985 0.321019
0.116426 0.417456 0.348272
0.074952 0.445579 0.134905
0.507103 0.560723 0.210834
0.856062 0.696941 0.271458
0.924254 0.747539 0.336706
0.931029 0.772931 0.383886
0.932006 0.779828 0.389013
0.157046 0.479500 0.411566
0.156863 0.481636 0.405859
0.196292 0.551110 0.434150
0.110231 0.623301 0.166705
0.527398 0.751659 0.252644
0.885069 0.862242 0.313024
0.937530 0.871519 0.372015
0.938262 0.876005 0.407202
0.938323 0.876371 0.405127
0.285496 0.679561 0.542809
0.277470 0.670741 0.525780
0.293706 0.714473 0.529809
0.215122 0.684291 0.265202
0.592798 0.803967 0.417975
0.899718 0.876280 0.387518
0.936980 0.879850 0.416785
0.938170 0.879850 0.416144
0.938262 0.878843 0.409552
0.310094 0.724330 0.567926
0.294835 0.701259 0.542809
0.302312 0.734554 0.538476
0.240894 0.692439 0.290593
0.602045 0.809644 0.427070
0.902556 0.875944 0.387518
0.937346 0.880217 0.419165
0.938140 0.880217 0.418647
0.938231 0.879210 0.411933
0.029877 0.033143 0.065400
0.044923 0.030823 0.083101
0.076295 0.029664 0.082246
0.130556 0.032227 0.078798
0.205020 0.036408 0.074098
0.282994 0.042359 0.070558
0.363165 0.048798 0.070253
0.410407 0.052796 0.074159
0.412695 0.053071 0.074220
0.033600 0.054719 0.096773
0.040192 0.052064 0.106325
0.078431 0.043641 0.109010
0.168429 0.043854 0.099916
0.246738 0.044556 0.084718
0.303319 0.044373 0.070222
0.370855 0.049409 0.071351
0.413794 0.053101 0.074617
0.416052 0.053376 0.074830
0.040009 0.083986 0.135012
0.043488 0.086397 0.138949
0.078859 0.102785 0.164157
0.211368 0.100282 0.151614
0.325154 0.080537 0.103578
0.402136 0.064332 0.082460
0.423896 0.056977 0.069154
0.448524 0.065705 0.076234
0.452979 0.068147 0.078584
0.055604 0.161837 0.206058
0.055238 0.156130 0.195895
0.074861 0.197238 0.242771
0.236530 0.247364 0.234607
0.393454 0.210269 0.176242
0.494087 0.139635 0.104540
0.494316 0.095796 0.064485
0.575540 0.142260 0.099016
0.582712 0.146288 0.103471
0.072297 0.249760 0.266285
0.074800 0.262287 0.277607
0.091493 0.343008 0.329397
0.132357 0.343038 0.212772
0.486839 0.420615 0.278202
0.720027 0.353033 0.195270
0.775464 0.276738 0.145281
0.852399 0.393088 0.243549
0.858259 0.406714 0.258991
0.103975 0.366247 0.363897
0.106477 0.374060 0.367132
0.142458 0.451423 0.415839
0.121309 0.499611 0.257588
0.424598 0.553658 0.223316
0.851545 0.701518 0.280400
0.930327 0.763836 0.383505
0.932738 0.806958 0.445808
0.933013 0.812451 0.451484
0.185824 0.519554 0.469001
0.189761 0.525719 0.469825
0.247379 0.614023 0.519890
0.226749 0.729000 0.366979
0.470588 0.720623 0.303212
0.892317 0.875273 0.383795
0.938140 0.877867 0.404974
0.938018 0.881010 0.429694
0.937896 0.882719 0.438972
0.318151 0.722988 0.598535
0.318700 0.729152 0.593103
0.329259 0.753780 0.600122
0.305745 0.754360 0.427558
0.583795 0.805188 0.446952
0.912261 0.876829 0.402090
0.937865 0.880430 0.420172
0.938018 0.881621 0.427985
0.937865 0.883391 0.439765
0.339879 0.757748 0.622461
0.333593 0.752499 0.609339
0.338415 0.768307 0.610071
0.311818 0.754147 0.428931
0.594141 0.810620 0.451255
0.915099 0.876036 0.399405
0.938109 0.880278 0.419135
0.938048 0.881285 0.425757
0.937896 0.883055 0.437568
0.026581 0.033936 0.094972
0.028260 0.032959 0.101045
0.056275 0.028351 0.110567
0.124117 0.030579 0.117250
0.203494 0.035676 0.116030
0.290593 0.042115 0.112001
0.375372 0.048310 0.112367
0.420478 0.054444 0.131411
0.422126 0.054994 0.134707
0.028504 0.045075 0.115145
0.029969 0.044526 0.129152
0.054078 0.042145 0.156222
0.150088 0.045014 0.170901
0.272068 0.051850 0.165743
0.306645 0.043793 0.118441
0.380987 0.048981 0.113100
0.423987 0.055177 0.132082
0.425971 0.055818 0.135378
0.036713 0.078584 0.153353
0.036896 0.080110 0.164614
0.051057 0.097200 0.233494
0.163394 0.095918 0.235752
0.325429 0.089876 0.205020
0.415778 0.066224 0.161151
0.433478 0.059419 0.133455
0.476875 0.081941 0.160906
0.481727 0.085023 0.166644
0.049317 0.144717 0.212833
0.049012 0.152895 0.225864
0.047730 0.186923 0.298543
0.163851 0.234852 0.328298
0.387137 0.239582 0.315724
0.515038 0.152300 0.219074
0.513954 0.103716 0.159136
0.639597 0.201068 0.252674
0.652415 0.213916 0.268818
0.067597 0.243961 0.295827
0.068940 0.251698 0.305776
0.077211 0.313588 0.380301
0.203479 0.391043 0.434440
0.481468 0.487266 0.466148
0.666194 0.378393 0.337438
0.758862 0.300893 0.252705
0.856229 0.475273 0.422110
0.858305 0.492424 0.441825
0.110018 0.378882 0.402136
0.113161 0.385687 0.406683
0.153628 0.465858 0.477607
0.227955 0.570581 0.507317
0.333410 0.532113 0.300099
0.773602 0.656580 0.349432
0.923095 0.703487 0.401160
0.926299 0.787411 0.536736
0.928100 0.805432 0.553216
0.217807 0.563653 0.528710
0.232731 0.585473 0.544244
0.309209 0.699458 0.622980
0.398276 0.830869 0.658854
0.459968 0.750668 0.436469
0.873045 0.881407 0.451453
0.935180 0.886503 0.483497
0.935882 0.898985 0.604929
0.935485 0.901579 0.631525
0.340185 0.749660 0.647028
0.350286 0.762417 0.662165
0.373877 0.797818 0.692302
0.486076 0.855039 0.697795
0.604685 0.845273 0.569863
0.913924 0.899382 0.561318
0.933379 0.904875 0.617655
0.935576 0.909575 0.666423
0.935760 0.912230 0.696513
0.352789 0.768368 0.660090
0.355810 0.770260 0.668696
0.376989 0.802152 0.696452
0.489433 0.855283 0.696483
0.615793 0.847364 0.567483
0.916121 0.900084 0.568460
0.933562 0.904936 0.618235
0.935576 0.909514 0.665629
0.935729 0.912077 0.694530
0.025635 0.036500 0.129763
0.026001 0.035492 0.137392
0.048707 0.029847 0.149874
0.112642 0.031189 0.157290
0.205264 0.036622 0.165988
0.298375 0.043854 0.166873
0.392737 0.051057 0.167452
0.432197 0.059724 0.199619
0.433814 0.060212 0.203311
0.027802 0.046998 0.147372
0.027955 0.046693 0.157290
0.044739 0.036896 0.183627
0.136263 0.037995 0.201358
0.228031 0.040772 0.187625
0.312505 0.045502 0.172885
0.398077 0.051789 0.170016
0.435706 0.061158 0.202853
0.437751 0.061982 0.207462
0.034180 0.078889 0.188510
0.034272 0.081544 0.197208
0.034516 0.096559 0.295689
0.111528 0.094728 0.311833
0.294392 0.101045 0.300206
0.424903 0.075471 0.255894
0.444221 0.068391 0.224887
0.499733 0.108034 0.274266
0.507408 0.114961 0.286168
0.044373 0.149172 0.251591
0.043061 0.155703 0.267369
0.035615 0.191531 0.353735
0.096025 0.235019 0.415717
0.326284 0.246830 0.420172
0.522759 0.191485 0.386999
0.549599 0.157961 0.346960
0.661280 0.262699 0.448615
0.672435 0.276448 0.469062
0.059846 0.250156 0.338781
0.060792 0.256626 0.347021
0.060395 0.304829 0.426795
0.125628 0.369711 0.507591
0.366125 0.448997 0.562020
0.665888 0.440574 0.608576
0.787778 0.417426 0.586191
0.854856 0.549142 0.703578
0.858763 0.563821 0.721706
0.115602 0.382177 0.440650
0.119814 0.391913 0.449714
0.155917 0.458015 0.528710
0.245212 0.552819 0.628382
0.509621 0.678462 0.700435
0.735210 0.728588 0.717815
0.882567 0.639231 0.600961
0.910185 0.750408 0.721325
0.912688 0.764202 0.732738
0.259983 0.616861 0.609964
0.294270 0.666178 0.650034
0.369177 0.771237 0.745663
0.515709 0.869352 0.846860
0.664225 0.897551 0.832425
0.678447 0.848402 0.620890
0.914305 0.873808 0.596201
0.934386 0.886839 0.749249
0.934722 0.890043 0.764492
0.366644 0.774258 0.725338
0.370703 0.775876 0.743282
0.411627 0.822263 0.804562
0.590616 0.887877 0.869902
0.779171 0.925475 0.893355
0.835386 0.919921 0.787610
0.912596 0.922026 0.783322
0.937835 0.924407 0.814481
0.938048 0.924681 0.816403
0.368688 0.777066 0.728511
0.371618 0.776699 0.745510
0.414405 0.824704 0.809506
0.597116 0.889220 0.871794
0.789181 0.926879 0.895247
0.844450 0.921813 0.796292
0.915587 0.923430 0.792721
0.937896 0.925689 0.823484
0.938140 0.925414 0.821164
0.025696 0.040558 0.168185
0.025483 0.040162 0.178897
0.042451 0.032319 0.197208
0.105074 0.032227 0.207675
0.199313 0.037446 0.217746
0.302983 0.046387 0.222812
0.410407 0.056123 0.230625
0.435706 0.066102 0.265751
0.436042 0.066499 0.268376
0.026490 0.045686 0.182528
0.026520 0.047089 0.191592
0.037476 0.038178 0.222660
0.099886 0.035981 0.229465
0.206653 0.040681 0.232578
0.315404 0.048219 0.228733
0.409339 0.056519 0.232395
0.439063 0.067659 0.265019
0.440040 0.068696 0.268803
0.031373 0.078279 0.229160
0.031800 0.082673 0.238743
0.027039 0.088991 0.314382
0.080232 0.087434 0.347570
0.248493 0.095552 0.339666
0.415198 0.085817 0.335882
0.446632 0.082673 0.320287
0.502037 0.133577 0.378790
0.507561 0.140017 0.389044
0.038666 0.157076 0.299413
0.038209 0.163088 0.308415
0.030640 0.193576 0.390112
0.055940 0.253361 0.507042
0.251698 0.246967 0.491325
0.490333 0.201312 0.478264
0.579889 0.217716 0.498268
0.657725 0.293599 0.579355
0.667094 0.303029 0.591104
0.051789 0.261051 0.383124
0.054139 0.269123 0.391516
0.056611 0.313558 0.469993
0.064744 0.363851 0.594217
0.282841 0.441855 0.672862
0.650645 0.492821 0.759609
0.824826 0.510521 0.770321
0.865568 0.604013 0.825742
0.870390 0.617838 0.833646
0.112917 0.392370 0.502953
0.125124 0.412848 0.524102
0.155306 0.473121 0.620539
0.204166 0.535241 0.718837
0.488807 0.680446 0.817746
0.669413 0.725231 0.850385
0.881010 0.702190 0.857206
0.920989 0.825910 0.883299
0.922820 0.834165 0.887999
0.275395 0.621042 0.674937
0.332143 0.694499 0.741344
0.402441 0.772824 0.823667
0.529809 0.855406 0.883909
0.675837 0.893034 0.902770
0.765225 0.896635 0.895872
0.902037 0.894408 0.882780
0.935607 0.894041 0.882414
0.937407 0.900450 0.889006
0.378363 0.755062 0.793179
0.379370 0.748898 0.797574
0.426337 0.794308 0.847379
0.613840 0.885191 0.900114
0.788754 0.926757 0.918791
0.847166 0.932555 0.900450
0.899107 0.934691 0.874784
0.939239 0.930205 0.871885
0.940093 0.931456 0.878080
0.379034 0.752285 0.795346
0.379675 0.748165 0.798489
0.429389 0.796536 0.849912
0.622293 0.887419 0.901823
0.795010 0.927459 0.919341
0.853941 0.933410 0.901061
0.902281 0.935607 0.877531
0.939116 0.931151 0.874083
0.940093 0.931823 0.877775
0.025544 0.043122 0.208042
0.024750 0.040864 0.219059
0.040497 0.033021 0.231205
0.100740 0.032410 0.236210
0.196231 0.038056 0.243656
0.303716 0.048035 0.246983
0.421454 0.059174 0.253971
0.430549 0.063661 0.257420
0.436377 0.066194 0.265019
0.025605 0.044556 0.215335
0.025574 0.046601 0.227085
0.033570 0.041718 0.259342
0.090486 0.036072 0.259342
0.197971 0.040925 0.261601
0.315190 0.050050 0.258518
0.413336 0.058808 0.257908
0.437110 0.069795 0.286137
0.437842 0.070436 0.287785
0.029206 0.077668 0.264134
0.030304 0.086000 0.277806
0.025513 0.088136 0.344182
0.065461 0.082765 0.378058
0.219898 0.091951 0.371649
0.392554 0.083436 0.357092
0.445930 0.088167 0.351690
0.496803 0.137392 0.407538
0.501610 0.142397 0.413703
0.033265 0.169833 0.347509
0.032685 0.175235 0.354925
0.025269 0.201175 0.432898
0.045350 0.255131 0.553429
0.212055 0.243091 0.534035
0.474342 0.227466 0.522133
0.595682 0.233478 0.518929
0.661326 0.297536 0.586160
0.669963 0.305898 0.594858
0.050721 0.280888 0.426764
0.053834 0.290852 0.436713
0.049439 0.324208 0.518013
0.076814 0.390982 0.667521
0.395056 0.535241 0.761913
0.756146 0.615976 0.833097
0.860410 0.591806 0.819959
0.875853 0.633097 0.842893
0.878508 0.644450 0.846036
0.119936 0.413703 0.548974
0.139040 0.445609 0.585290
0.159274 0.491402 0.671901
0.354620 0.637201 0.793240
0.642451 0.804715 0.881041
0.828168 0.857771 0.906676
0.901213 0.815137 0.896269
0.927001 0.855589 0.907805
0.928038 0.860075 0.909056
0.280217 0.624613 0.723507
0.327581 0.680858 0.762692
0.377661 0.739071 0.820371
0.534661 0.822965 0.876982
0.689143 0.870817 0.902129
0.791562 0.890898 0.913909
0.905028 0.907683 0.924407
0.936217 0.903197 0.921691
0.937652 0.908324 0.923308
0.378485 0.740993 0.800320
0.379400 0.741970 0.801450
0.431617 0.795590 0.852872
0.625223 0.887327 0.904326
0.786801 0.925444 0.925322
0.837705 0.932189 0.928801
0.902556 0.938354 0.932769
0.947448 0.947265 0.937682
0.948272 0.947753 0.938048
0.379644 0.742428 0.801541
0.380102 0.742824 0.802121
0.435462 0.798947 0.855131
0.634134 0.890013 0.905943
0.792294 0.926390 0.925658
0.843076 0.932952 0.928679
0.905119 0.939300 0.932647
0.947540 0.947967 0.937591
0.948211 0.947936 0.937743
0.025391 0.043030 0.213016
0.024720 0.040833 0.220035
0.040925 0.032990 0.232059
0.102968 0.032502 0.236851
0.198367 0.038270 0.244022
0.304631 0.048127 0.247257
0.422065 0.059419 0.254643
0.430396 0.064912 0.269047
0.435309 0.067201 0.276951
0.025483 0.044221 0.216770
0.025483 0.046540 0.228702
0.033570 0.042023 0.262242
0.092287 0.036439 0.261631
0.199924 0.041230 0.263340
0.317998 0.050446 0.260136
0.414313 0.059083 0.259556
0.437476 0.070222 0.287816
0.438209 0.070863 0.289311
0.028992 0.077058 0.265507
0.030274 0.086519 0.280919
0.025513 0.089235 0.348699
0.066377 0.084932 0.382025
0.221790 0.094118 0.375860
0.394232 0.084077 0.359350
0.447242 0.089845 0.355200
0.498909 0.140017 0.411658
0.503288 0.144564 0.417182
0.032959 0.171572 0.350866
0.032380 0.177279 0.358312
0.024872 0.204318 0.438651
0.045716 0.258122 0.558007
0.212940 0.245838 0.539620
0.478889 0.232502 0.528191
0.609689 0.247578 0.533761
0.666880 0.302907 0.591714
0.674327 0.310079 0.599191
0.051637 0.284489 0.430884
0.054566 0.293965 0.440513
0.050111 0.328420 0.526253
0.083223 0.397177 0.674052
0.422858 0.558160 0.775952
0.775219 0.634958 0.840360
0.863371 0.600748 0.824445
0.877653 0.640726 0.844999
0.880186 0.651560 0.847990
0.123476 0.419959 0.556664
0.142672 0.451575 0.592523
0.163424 0.497993 0.679835
0.375006 0.651148 0.801877
0.654719 0.816495 0.884947
0.834150 0.862043 0.908202
0.903716 0.825071 0.899016
0.927581 0.858885 0.908843
0.928161 0.860533 0.909361
0.281285 0.626078 0.728542
0.331426 0.684779 0.766598
0.380926 0.742641 0.823941
0.543816 0.827665 0.878935
0.696895 0.873991 0.903929
0.800534 0.894377 0.915434
0.908049 0.911070 0.925719
0.936797 0.906462 0.923125
0.937987 0.910033 0.924224
0.377234 0.739406 0.799863
0.379095 0.741573 0.801389
0.433143 0.796902 0.854246
0.630320 0.888304 0.905119
0.788540 0.925170 0.925292
0.840055 0.931670 0.928801
0.904875 0.938628 0.933288
0.947631 0.947692 0.938567
0.948394 0.948119 0.938750
0.379675 0.742336 0.801633
0.380346 0.743038 0.802365
0.438849 0.801358 0.856352
0.638865 0.891386 0.906920
0.793271 0.926482 0.925963
0.842496 0.932860 0.929320
0.905516 0.939269 0.933654
0.947662 0.948119 0.938720
0.948547 0.948486 0.938933
