example-Advanced/bin/data/ofxGpuLutCube/LUT/Movie-52.cube
#Generated by Picture Instruments - Look Creator
TITLE "Kodak Portra 100t"
LUT_3D_SIZE 9
0 0 0
0.0823529 0.0196078 0.00392157
0.156863 0.0588235 0.0156863
0.231373 0.0862745 0.0196078
0.317647 0.105882 0.0235294
0.411765 0.12549 0.027451
0.513725 0.14902 0.0196078
0.639216 0.188235 0.00784314
0.776471 0.239216 0.0196078
0.0666667 0.113725 0.0470588
0.117647 0.121569 0.0509804
0.180392 0.12549 0.0352941
0.247059 0.129412 0.0313725
0.337255 0.14902 0.0352941
0.435294 0.168627 0.0313725
0.541176 0.196078 0.0352941
0.658824 0.227451 0.027451
0.784314 0.270588 0.027451
0.129412 0.207843 0.0941176
0.152941 0.211765 0.0901961
0.203922 0.219608 0.0862745
0.286275 0.231373 0.0745098
0.372549 0.239216 0.054902
0.470588 0.258824 0.0666667
0.576471 0.278431 0.0705882
0.690196 0.305882 0.0627451
0.807843 0.337255 0.0627451
0.184314 0.313725 0.133333
0.211765 0.329412 0.141176
0.25098 0.337255 0.141176
0.321569 0.352941 0.129412
0.415686 0.360784 0.117647
0.513725 0.376471 0.113725
0.615686 0.388235 0.101961
0.721569 0.415686 0.109804
0.839216 0.447059 0.129412
0.262745 0.462745 0.207843
0.278431 0.462745 0.207843
0.317647 0.47451 0.211765
0.372549 0.478431 0.207843
0.454902 0.498039 0.2
0.556863 0.513725 0.184314
0.65098 0.52549 0.176471
0.764706 0.54902 0.184314
0.87451 0.576471 0.203922
0.34902 0.615686 0.301961
0.364706 0.619608 0.301961
0.388235 0.619608 0.298039
0.435294 0.627451 0.305882
0.501961 0.635294 0.298039
0.588235 0.654902 0.290196
0.686275 0.666667 0.270588
0.788235 0.686275 0.286275
0.894118 0.705882 0.313725
0.447059 0.768627 0.415686
0.45098 0.764706 0.411765
0.47451 0.760784 0.411765
0.513725 0.768627 0.415686
0.564706 0.772549 0.419608
0.643137 0.788235 0.419608
0.713725 0.792157 0.407843
0.815686 0.807843 0.403922
0.917647 0.827451 0.443137
0.572549 0.886275 0.560784
0.576471 0.886275 0.560784
0.596078 0.890196 0.564706
0.623529 0.890196 0.568627
0.666667 0.898039 0.580392
0.709804 0.894118 0.580392
0.772549 0.901961 0.580392
0.843137 0.901961 0.576471
0.921569 0.913725 0.584314
0.737255 0.980392 0.733333
0.72549 0.976471 0.721569
0.737255 0.972549 0.721569
0.756863 0.976471 0.729412
0.784314 0.976471 0.737255
0.823529 0.980392 0.756863
0.866667 0.980392 0.764706
0.901961 0.980392 0.764706
0.952941 0.984314 0.780392
0.0431373 0.0352941 0.0862745
0.0980392 0.0431373 0.0862745
0.160784 0.0588235 0.0862745
0.235294 0.0941176 0.0941176
0.317647 0.117647 0.101961
0.419608 0.141176 0.105882
0.517647 0.160784 0.0980392
0.654902 0.207843 0.109804
0.784314 0.243137 0.105882
0.0862745 0.121569 0.101961
0.121569 0.12549 0.105882
0.180392 0.129412 0.105882
0.258824 0.145098 0.113725
0.34902 0.164706 0.113725
0.443137 0.180392 0.113725
0.545098 0.203922 0.113725
0.666667 0.235294 0.113725
0.788235 0.27451 0.117647
0.137255 0.207843 0.12549
0.168627 0.219608 0.137255
0.215686 0.223529 0.133333
0.294118 0.231373 0.129412
0.384314 0.247059 0.129412
0.470588 0.258824 0.12549
0.572549 0.282353 0.129412
0.690196 0.309804 0.133333
0.803922 0.341176 0.133333
0.2 0.32549 0.172549
0.219608 0.333333 0.176471
0.258824 0.341176 0.180392
0.333333 0.356863 0.176471
0.419608 0.364706 0.160784
0.517647 0.376471 0.160784
0.615686 0.392157 0.156863
0.72549 0.415686 0.164706
0.843137 0.454902 0.188235
0.266667 0.454902 0.235294
0.286275 0.470588 0.243137
0.321569 0.478431 0.243137
0.376471 0.482353 0.239216
0.447059 0.490196 0.227451
0.54902 0.513725 0.219608
0.654902 0.529412 0.215686
0.772549 0.556863 0.231373
0.87451 0.576471 0.247059
0.345098 0.603922 0.317647
0.364706 0.619608 0.32549
0.4 0.631373 0.333333
0.439216 0.627451 0.329412
0.509804 0.643137 0.329412
0.588235 0.647059 0.313725
0.682353 0.662745 0.298039
0.792157 0.690196 0.321569
0.894118 0.705882 0.345098
0.435294 0.745098 0.419608
0.458824 0.764706 0.435294
0.482353 0.768627 0.435294
0.517647 0.768627 0.435294
0.568627 0.772549 0.443137
0.647059 0.788235 0.443137
0.713725 0.788235 0.431373
0.823529 0.811765 0.431373
0.917647 0.823529 0.462745
0.556863 0.87451 0.556863
0.580392 0.886275 0.568627
0.592157 0.882353 0.568627
0.619608 0.886275 0.576471
0.662745 0.890196 0.588235
0.713725 0.898039 0.592157
0.784314 0.905882 0.6
0.847059 0.901961 0.592157
0.921569 0.909804 0.596078
0.72549 0.972549 0.729412
0.721569 0.972549 0.721569
0.733333 0.968627 0.72549
0.760784 0.976471 0.737255
0.792157 0.980392 0.74902
0.823529 0.976471 0.756863
0.87451 0.984314 0.780392
0.917647 0.988235 0.784314
0.94902 0.984314 0.788235
0.0784314 0.0705882 0.152941
0.113725 0.0666667 0.14902
0.180392 0.0862745 0.164706
0.25098 0.0901961 0.160784
0.333333 0.109804 0.164706
0.415686 0.137255 0.172549
0.521569 0.176471 0.188235
0.65098 0.207843 0.196078
0.772549 0.243137 0.203922
0.113725 0.141176 0.164706
0.137255 0.133333 0.164706
0.196078 0.145098 0.180392
0.266667 0.145098 0.176471
0.34902 0.156863 0.172549
0.435294 0.188235 0.192157
0.545098 0.219608 0.203922
0.670588 0.247059 0.207843
0.784314 0.270588 0.211765
0.160784 0.223529 0.192157
0.180392 0.223529 0.2
0.227451 0.231373 0.207843
0.286275 0.227451 0.2
0.376471 0.247059 0.203922
0.470588 0.266667 0.211765
0.572549 0.286275 0.219608
0.686275 0.309804 0.219608
0.811765 0.34902 0.239216
0.211765 0.329412 0.231373
0.231373 0.337255 0.239216
0.282353 0.352941 0.258824
0.345098 0.360784 0.254902
0.427451 0.368627 0.243137
0.521569 0.384314 0.247059
0.619608 0.396078 0.25098
0.721569 0.415686 0.254902
0.835294 0.45098 0.270588
0.282353 0.466667 0.298039
0.301961 0.47451 0.305882
0.341176 0.482353 0.313725
0.388235 0.490196 0.317647
0.466667 0.505882 0.305882
0.560784 0.517647 0.298039
0.662745 0.537255 0.301961
0.772549 0.556863 0.309804
0.87451 0.580392 0.329412
0.352941 0.6 0.368627
0.380392 0.619608 0.384314
0.403922 0.627451 0.388235
0.45098 0.631373 0.388235
0.509804 0.639216 0.384314
0.592157 0.654902 0.380392
0.701961 0.678431 0.376471
0.792157 0.690196 0.384314
0.901961 0.713725 0.411765
0.45098 0.752941 0.466667
0.466667 0.764706 0.478431
0.490196 0.768627 0.482353
0.533333 0.776471 0.490196
0.584314 0.784314 0.498039
0.643137 0.784314 0.486275
0.72549 0.8 0.486275
0.827451 0.819608 0.490196
0.921569 0.831373 0.521569
0.576471 0.878431 0.596078
0.588235 0.886275 0.603922
0.607843 0.890196 0.603922
0.635294 0.894118 0.611765
0.670588 0.890196 0.615686
0.721569 0.898039 0.627451
0.780392 0.901961 0.627451
0.843137 0.905882 0.623529
0.929412 0.921569 0.631373
0.733333 0.972549 0.741176
0.733333 0.976471 0.745098
0.745098 0.972549 0.745098
0.764706 0.972549 0.752941
0.792157 0.972549 0.760784
0.835294 0.980392 0.776471
0.870588 0.984314 0.784314
0.913725 0.984314 0.792157
0.960784 0.988235 0.803922
0.0980392 0.0980392 0.243137
0.133333 0.101961 0.247059
0.192157 0.113725 0.254902
0.262745 0.117647 0.258824
0.352941 0.12549 0.262745
0.431373 0.129412 0.254902
0.529412 0.156863 0.266667
0.635294 0.180392 0.278431
0.764706 0.254902 0.313725
0.129412 0.152941 0.258824
0.152941 0.152941 0.254902
0.211765 0.160784 0.266667
0.278431 0.164706 0.27451
0.368627 0.172549 0.278431
0.462745 0.188235 0.290196
0.54902 0.196078 0.282353
0.662745 0.239216 0.305882
0.792157 0.290196 0.329412
0.172549 0.235294 0.270588
0.2 0.25098 0.286275
0.231373 0.239216 0.290196
0.309804 0.254902 0.313725
0.392157 0.258824 0.313725
0.470588 0.266667 0.305882
0.572549 0.298039 0.329412
0.682353 0.32549 0.337255
0.807843 0.352941 0.345098
0.219608 0.341176 0.321569
0.247059 0.352941 0.333333
0.282353 0.352941 0.337255
0.360784 0.368627 0.364706
0.427451 0.372549 0.360784
0.513725 0.384314 0.356863
0.611765 0.403922 0.364706
0.705882 0.411765 0.356863
0.831373 0.454902 0.380392
0.294118 0.466667 0.380392
0.309804 0.47451 0.380392
0.34902 0.486275 0.396078
0.403922 0.498039 0.411765
0.47451 0.505882 0.411765
0.564706 0.521569 0.403922
0.670588 0.541176 0.411765
0.760784 0.54902 0.407843
0.866667 0.580392 0.427451
0.364706 0.607843 0.443137
0.392157 0.627451 0.458824
0.411765 0.627451 0.458824
0.462745 0.639216 0.470588
0.521569 0.647059 0.478431
0.596078 0.658824 0.470588
0.694118 0.67451 0.458824
0.796078 0.690196 0.47451
0.894118 0.705882 0.490196
0.45098 0.752941 0.521569
0.470588 0.764706 0.529412
0.501961 0.768627 0.545098
0.545098 0.776471 0.552941
0.596078 0.784314 0.568627
0.658824 0.796078 0.560784
0.729412 0.8 0.556863
0.827451 0.815686 0.552941
0.909804 0.823529 0.572549
0.584314 0.878431 0.639216
0.596078 0.882353 0.643137
0.611765 0.886275 0.643137
0.654902 0.894118 0.658824
0.682353 0.894118 0.658824
0.733333 0.894118 0.666667
0.784314 0.901961 0.666667
0.85098 0.905882 0.666667
0.937255 0.921569 0.67451
0.737255 0.972549 0.768627
0.741176 0.972549 0.768627
0.74902 0.972549 0.772549
0.772549 0.976471 0.776471
0.803922 0.980392 0.784314
0.835294 0.976471 0.792157
0.870588 0.980392 0.8
0.917647 0.984314 0.811765
0.952941 0.988235 0.819608
0.109804 0.129412 0.34902
0.145098 0.137255 0.352941
0.196078 0.137255 0.356863
0.278431 0.152941 0.368627
0.352941 0.14902 0.376471
0.443137 0.156863 0.380392
0.537255 0.164706 0.376471
0.658824 0.196078 0.4
0.772549 0.219608 0.411765
0.133333 0.172549 0.352941
0.160784 0.176471 0.364706
0.215686 0.184314 0.372549
0.294118 0.192157 0.380392
0.380392 0.196078 0.4
0.47451 0.207843 0.407843
0.572549 0.219608 0.407843
0.678431 0.231373 0.415686
0.803922 0.270588 0.435294
0.188235 0.254902 0.380392
0.203922 0.262745 0.396078
0.247059 0.262745 0.403922
0.317647 0.270588 0.411765
0.403922 0.278431 0.431373
0.482353 0.27451 0.419608
0.584314 0.290196 0.427451
0.686275 0.301961 0.431373
0.811765 0.341176 0.454902
0.231373 0.345098 0.403922
0.254902 0.360784 0.415686
0.298039 0.368627 0.431373
0.352941 0.372549 0.45098
0.439216 0.388235 0.466667
0.517647 0.388235 0.462745
0.611765 0.403922 0.466667
0.717647 0.423529 0.47451
0.819608 0.45098 0.494118
0.298039 0.47451 0.466667
0.321569 0.486275 0.482353
0.356863 0.494118 0.490196
0.415686 0.505882 0.505882
0.490196 0.521569 0.529412
0.568627 0.529412 0.52549
0.65098 0.533333 0.521569
0.745098 0.54902 0.517647
0.854902 0.572549 0.529412
0.380392 0.607843 0.521569
0.403922 0.631373 0.537255
0.427451 0.631373 0.541176
0.47451 0.643137 0.556863
0.537255 0.65098 0.564706
0.611765 0.666667 0.568627
0.709804 0.690196 0.572549
0.8 0.694118 0.576471
0.894118 0.713725 0.584314
0.466667 0.756863 0.588235
0.482353 0.768627 0.6
0.509804 0.772549 0.603922
0.541176 0.768627 0.607843
0.603922 0.780392 0.627451
0.666667 0.792157 0.635294
0.741176 0.807843 0.635294
0.839216 0.823529 0.639216
0.917647 0.827451 0.65098
0.572549 0.886275 0.662745
0.580392 0.886275 0.670588
0.611765 0.890196 0.686275
0.65098 0.882353 0.694118
0.690196 0.894118 0.705882
0.737255 0.890196 0.713725
0.796078 0.905882 0.717647
0.862745 0.909804 0.721569
0.937255 0.92549 0.72549
0.721569 0.972549 0.776471
0.72549 0.968627 0.776471
0.760784 0.980392 0.803922
0.784314 0.980392 0.807843
0.811765 0.980392 0.819608
0.843137 0.980392 0.823529
0.878431 0.980392 0.831373
0.909804 0.984314 0.831373
0.960784 0.984314 0.843137
0.121569 0.160784 0.454902
0.14902 0.164706 0.462745
0.203922 0.168627 0.470588
0.286275 0.184314 0.486275
0.376471 0.192157 0.498039
0.462745 0.196078 0.509804
0.552941 0.2 0.509804
0.658824 0.207843 0.513725
0.784314 0.247059 0.537255
0.145098 0.196078 0.462745
0.168627 0.2 0.478431
0.227451 0.215686 0.490196
0.301961 0.215686 0.498039
0.392157 0.227451 0.517647
0.486275 0.239216 0.537255
0.580392 0.247059 0.541176
0.686275 0.247059 0.537255
0.807843 0.286275 0.556863
0.188235 0.270588 0.494118
0.207843 0.270588 0.498039
0.25098 0.27451 0.505882
0.32549 0.286275 0.521569
0.415686 0.305882 0.541176
0.505882 0.309804 0.556863
0.588235 0.309804 0.54902
0.709804 0.333333 0.560784
0.819608 0.360784 0.572549
0.262745 0.380392 0.517647
0.286275 0.388235 0.529412
0.305882 0.380392 0.541176
0.352941 0.380392 0.54902
0.443137 0.4 0.568627
0.533333 0.411765 0.584314
0.627451 0.419608 0.584314
0.72549 0.427451 0.580392
0.835294 0.454902 0.596078
0.313725 0.490196 0.556863
0.329412 0.494118 0.564706
0.360784 0.498039 0.572549
0.415686 0.513725 0.584314
0.494118 0.52549 0.615686
0.576471 0.537255 0.623529
0.666667 0.541176 0.623529
0.745098 0.545098 0.611765
0.847059 0.564706 0.619608
0.396078 0.635294 0.627451
0.4 0.631373 0.623529
0.431373 0.635294 0.627451
0.482353 0.647059 0.639216
0.552941 0.666667 0.658824
0.627451 0.67451 0.67451
0.709804 0.690196 0.678431
0.788235 0.690196 0.670588
0.882353 0.705882 0.670588
0.494118 0.768627 0.67451
0.494118 0.760784 0.670588
0.52549 0.772549 0.678431
0.560784 0.776471 0.686275
0.615686 0.788235 0.698039
0.682353 0.796078 0.717647
0.756863 0.811765 0.721569
0.839216 0.815686 0.713725
0.929412 0.835294 0.733333
0.6 0.894118 0.741176
0.6 0.890196 0.737255
0.615686 0.886275 0.733333
0.647059 0.890196 0.745098
0.694118 0.898039 0.756863
0.752941 0.898039 0.768627
0.807843 0.905882 0.780392
0.87451 0.917647 0.784314
0.941176 0.917647 0.784314
0.721569 0.976471 0.815686
0.721569 0.976471 0.811765
0.737255 0.980392 0.819608
0.764706 0.980392 0.827451
0.811765 0.980392 0.847059
0.854902 0.980392 0.858824
0.886275 0.980392 0.862745
0.921569 0.984314 0.866667
0.968627 0.988235 0.878431
0.145098 0.203922 0.588235
0.176471 0.207843 0.6
0.235294 0.211765 0.603922
0.305882 0.219608 0.607843
0.388235 0.227451 0.615686
0.494118 0.243137 0.639216
0.576471 0.239216 0.639216
0.678431 0.262745 0.65098
0.796078 0.290196 0.662745
0.168627 0.235294 0.6
0.192157 0.243137 0.615686
0.25098 0.247059 0.623529
0.317647 0.25098 0.631373
0.411765 0.266667 0.643137
0.509804 0.27451 0.654902
0.611765 0.282353 0.67451
0.701961 0.298039 0.670588
0.819608 0.329412 0.690196
0.196078 0.294118 0.611765
0.227451 0.305882 0.631373
0.27451 0.305882 0.635294
0.341176 0.317647 0.647059
0.427451 0.329412 0.658824
0.529412 0.345098 0.670588
0.623529 0.34902 0.686275
0.713725 0.364706 0.678431
0.827451 0.388235 0.694118
0.262745 0.392157 0.631373
0.278431 0.4 0.647059
0.298039 0.388235 0.65098
0.368627 0.403922 0.662745
0.454902 0.419608 0.67451
0.54902 0.435294 0.690196
0.643137 0.443137 0.701961
0.733333 0.458824 0.701961
0.839216 0.478431 0.705882
0.333333 0.513725 0.654902
0.34902 0.521569 0.666667
0.384314 0.52549 0.670588
0.423529 0.521569 0.682353
0.482353 0.517647 0.698039
0.584314 0.54902 0.717647
0.67451 0.564706 0.72549
0.756863 0.568627 0.72549
0.85098 0.580392 0.721569
0.396078 0.631373 0.690196
0.403922 0.635294 0.694118
0.439216 0.647059 0.705882
0.47451 0.643137 0.705882
0.537255 0.65098 0.713725
0.619608 0.670588 0.741176
0.717647 0.690196 0.760784
0.796078 0.690196 0.756863
0.870588 0.694118 0.74902
0.486275 0.764706 0.745098
0.501961 0.772549 0.752941
0.517647 0.772549 0.74902
0.556863 0.776471 0.752941
0.607843 0.780392 0.760784
0.678431 0.792157 0.776471
0.768627 0.815686 0.807843
0.839216 0.819608 0.803922
0.913725 0.823529 0.8
0.603922 0.87451 0.792157
0.611765 0.882353 0.788235
0.623529 0.87451 0.792157
0.666667 0.894118 0.807843
0.701961 0.890196 0.811765
0.752941 0.901961 0.819608
0.819608 0.909804 0.839216
0.87451 0.909804 0.843137
0.945098 0.921569 0.843137
0.729412 0.972549 0.854902
0.745098 0.980392 0.866667
0.74902 0.976471 0.858824
0.780392 0.980392 0.87451
0.796078 0.976471 0.866667
0.839216 0.980392 0.878431
0.894118 0.984314 0.898039
0.933333 0.984314 0.905882
0.968627 0.988235 0.905882
0.2 0.254902 0.713725
0.235294 0.270588 0.737255
0.286275 0.278431 0.741176
0.34902 0.27451 0.737255
0.439216 0.294118 0.752941
0.541176 0.317647 0.776471
0.627451 0.32549 0.776471
0.72549 0.333333 0.784314
0.811765 0.352941 0.784314
0.231373 0.298039 0.74902
0.254902 0.301961 0.760784
0.309804 0.317647 0.776471
0.364706 0.305882 0.764706
0.458824 0.329412 0.780392
0.556863 0.34902 0.796078
0.658824 0.368627 0.807843
0.74902 0.368627 0.811765
0.831373 0.388235 0.803922
0.247059 0.345098 0.752941
0.266667 0.34902 0.764706
0.313725 0.356863 0.772549
0.392157 0.372549 0.784314
0.466667 0.376471 0.784314
0.564706 0.4 0.796078
0.666667 0.423529 0.811765
0.752941 0.423529 0.811765
0.835294 0.443137 0.807843
0.27451 0.419608 0.760784
0.301961 0.431373 0.780392
0.341176 0.435294 0.784314
0.396078 0.435294 0.780392
0.494118 0.462745 0.8
0.580392 0.482353 0.807843
0.682353 0.509804 0.819608
0.768627 0.505882 0.819608
0.843137 0.521569 0.815686
0.380392 0.556863 0.776471
0.396078 0.560784 0.788235
0.4 0.552941 0.792157
0.419608 0.52549 0.792157
0.505882 0.54902 0.807843
0.6 0.564706 0.811765
0.701961 0.603922 0.831373
0.784314 0.607843 0.835294
0.866667 0.615686 0.831373
0.415686 0.658824 0.784314
0.427451 0.666667 0.788235
0.447059 0.662745 0.792157
0.494118 0.670588 0.803922
0.556863 0.67451 0.819608
0.619608 0.670588 0.827451
0.72549 0.701961 0.843137
0.811765 0.709804 0.85098
0.894118 0.729412 0.858824
0.498039 0.776471 0.815686
0.521569 0.792157 0.831373
0.533333 0.784314 0.827451
0.568627 0.792157 0.835294
0.603922 0.784314 0.835294
0.666667 0.788235 0.839216
0.752941 0.8 0.862745
0.843137 0.819608 0.87451
0.921569 0.827451 0.878431
0.611765 0.890196 0.866667
0.611765 0.886275 0.866667
0.639216 0.898039 0.870588
0.658824 0.894118 0.870588
0.698039 0.894118 0.878431
0.752941 0.898039 0.878431
0.811765 0.898039 0.886275
0.894118 0.917647 0.909804
0.94902 0.921569 0.905882
0.745098 0.972549 0.909804
0.752941 0.976471 0.913725
0.768627 0.976471 0.917647
0.784314 0.976471 0.917647
0.819608 0.984314 0.92549
0.847059 0.980392 0.921569
0.898039 0.984314 0.937255
0.937255 0.984314 0.941176
0.976471 0.988235 0.941176
0.341176 0.380392 0.858824
0.364706 0.392157 0.878431
0.403922 0.4 0.882353
0.45098 0.403922 0.882353
0.521569 0.419608 0.882353
0.611765 0.443137 0.894118
0.694118 0.466667 0.898039
0.788235 0.494118 0.905882
0.870588 0.494118 0.913725
0.368627 0.419608 0.894118
0.384314 0.423529 0.905882
0.419608 0.427451 0.901961
0.47451 0.431373 0.905882
0.541176 0.447059 0.909804
0.619608 0.466667 0.913725
0.717647 0.494118 0.917647
0.796078 0.513725 0.917647
0.882353 0.521569 0.929412
0.380392 0.458824 0.898039
0.392157 0.462745 0.905882
0.427451 0.466667 0.905882
0.482353 0.478431 0.905882
0.556863 0.490196 0.909804
0.639216 0.513725 0.917647
0.717647 0.537255 0.917647
0.807843 0.552941 0.92549
0.886275 0.560784 0.929412
0.4 0.529412 0.905882
0.419608 0.533333 0.909804
0.443137 0.537255 0.909804
0.501961 0.541176 0.913725
0.572549 0.560784 0.917647
0.643137 0.572549 0.917647
0.733333 0.6 0.929412
0.827451 0.623529 0.937255
0.898039 0.619608 0.941176
0.454902 0.623529 0.905882
0.462745 0.627451 0.917647
0.470588 0.615686 0.913725
0.509804 0.619608 0.913725
0.580392 0.627451 0.921569
0.658824 0.647059 0.92549
0.745098 0.670588 0.929412
0.831373 0.690196 0.933333
0.917647 0.698039 0.945098
0.537255 0.74902 0.913725
0.545098 0.74902 0.917647
0.568627 0.752941 0.921569
0.584314 0.733333 0.917647
0.596078 0.713725 0.929412
0.666667 0.717647 0.92549
0.752941 0.737255 0.933333
0.85098 0.764706 0.945098
0.917647 0.768627 0.94902
0.6 0.839216 0.933333
0.607843 0.847059 0.937255
0.619608 0.839216 0.937255
0.635294 0.839216 0.933333
0.670588 0.839216 0.933333
0.717647 0.823529 0.937255
0.776471 0.819608 0.945098
0.862745 0.839216 0.94902
0.945098 0.85098 0.960784
0.694118 0.921569 0.94902
0.701961 0.92549 0.956863
0.713725 0.929412 0.956863
0.733333 0.929412 0.960784
0.752941 0.92549 0.956863
0.780392 0.92549 0.960784
0.815686 0.909804 0.956863
0.882353 0.905882 0.960784
0.956863 0.92549 0.968627
0.8 0.988235 0.976471
0.811765 0.988235 0.980392
0.815686 0.988235 0.980392
0.827451 0.988235 0.980392
0.847059 0.988235 0.980392
0.862745 0.988235 0.980392
0.894118 0.988235 0.980392
0.937255 0.988235 0.984314
0.984314 0.988235 0.984314
