example-Advanced/bin/data/ofxGpuLutCube/LUT/Movie-52.cube
#Generated by Picture Instruments - Look Creator
TITLE "Kodak Portra 100t"
LUT_3D_SIZE 17
0 0 0
0.0509804 0.00784314 0
0.0823529 0.0196078 0.00392157
0.121569 0.0431373 0.0117647
0.156863 0.0588235 0.0156863
0.188235 0.0705882 0.0156863
0.231373 0.0862745 0.0196078
0.266667 0.0862745 0.0196078
0.317647 0.105882 0.0235294
0.360784 0.113725 0.0235294
0.411765 0.12549 0.027451
0.462745 0.141176 0.0196078
0.513725 0.14902 0.0196078
0.584314 0.172549 0.0196078
0.639216 0.188235 0.00784314
0.717647 0.223529 0.0235294
0.776471 0.239216 0.0196078
0.0392157 0.0705882 0.0235294
0.0705882 0.0705882 0.0235294
0.105882 0.0784314 0.0235294
0.133333 0.0823529 0.0235294
0.156863 0.0823529 0.0196078
0.196078 0.0901961 0.0235294
0.239216 0.101961 0.0235294
0.27451 0.109804 0.0235294
0.32549 0.121569 0.027451
0.376471 0.133333 0.0313725
0.427451 0.14902 0.0313725
0.478431 0.160784 0.0313725
0.533333 0.172549 0.0235294
0.596078 0.192157 0.027451
0.658824 0.211765 0.027451
0.713725 0.227451 0.0196078
0.780392 0.247059 0.0196078
0.0666667 0.113725 0.0470588
0.0901961 0.117647 0.054902
0.117647 0.121569 0.0509804
0.141176 0.117647 0.0392157
0.180392 0.12549 0.0352941
0.211765 0.129412 0.0352941
0.247059 0.129412 0.0313725
0.286275 0.137255 0.0313725
0.337255 0.14902 0.0352941
0.380392 0.156863 0.0313725
0.435294 0.168627 0.0313725
0.486275 0.180392 0.0352941
0.541176 0.196078 0.0352941
0.603922 0.215686 0.0431373
0.658824 0.227451 0.027451
0.721569 0.247059 0.027451
0.784314 0.270588 0.027451
0.0980392 0.156863 0.0666667
0.109804 0.164706 0.0705882
0.133333 0.164706 0.0705882
0.160784 0.168627 0.0666667
0.196078 0.176471 0.0627451
0.223529 0.168627 0.0470588
0.266667 0.176471 0.0431373
0.313725 0.184314 0.0470588
0.352941 0.184314 0.0431373
0.4 0.196078 0.0431373
0.45098 0.207843 0.0470588
0.498039 0.215686 0.0431373
0.556863 0.235294 0.0470588
0.611765 0.243137 0.0352941
0.67451 0.266667 0.0470588
0.733333 0.282353 0.0392157
0.796078 0.301961 0.0431373
0.129412 0.207843 0.0941176
0.137255 0.211765 0.0901961
0.152941 0.211765 0.0901961
0.168627 0.211765 0.0823529
0.203922 0.219608 0.0862745
0.243137 0.227451 0.0784314
0.286275 0.231373 0.0745098
0.32549 0.231373 0.0588235
0.372549 0.239216 0.054902
0.423529 0.247059 0.0627451
0.470588 0.258824 0.0666667
0.513725 0.258824 0.054902
0.576471 0.278431 0.0705882
0.623529 0.282353 0.0509804
0.690196 0.305882 0.0627451
0.74902 0.32549 0.0666667
0.807843 0.337255 0.0627451
0.156863 0.262745 0.113725
0.164706 0.266667 0.113725
0.180392 0.266667 0.109804
0.203922 0.27451 0.117647
0.223529 0.27451 0.105882
0.270588 0.294118 0.113725
0.301961 0.286275 0.0980392
0.345098 0.294118 0.0941176
0.388235 0.290196 0.0784314
0.443137 0.305882 0.0823529
0.486275 0.305882 0.0705882
0.537255 0.317647 0.0784314
0.588235 0.32549 0.0745098
0.65098 0.341176 0.0823529
0.709804 0.360784 0.0862745
0.760784 0.368627 0.0862745
0.819608 0.388235 0.0941176
0.184314 0.313725 0.133333
0.2 0.329412 0.137255
0.211765 0.329412 0.141176
0.227451 0.329412 0.141176
0.25098 0.337255 0.141176
0.286275 0.341176 0.133333
0.321569 0.352941 0.129412
0.360784 0.352941 0.12549
0.415686 0.360784 0.117647
0.458824 0.364706 0.109804
0.513725 0.376471 0.113725
0.568627 0.384314 0.109804
0.615686 0.388235 0.101961
0.654902 0.392157 0.0862745
0.721569 0.415686 0.109804
0.780392 0.427451 0.121569
0.839216 0.447059 0.129412
0.231373 0.392157 0.172549
0.231373 0.392157 0.168627
0.247059 0.396078 0.172549
0.258824 0.396078 0.168627
0.286275 0.403922 0.172549
0.317647 0.415686 0.180392
0.345098 0.407843 0.160784
0.380392 0.415686 0.156863
0.427451 0.427451 0.152941
0.486275 0.439216 0.14902
0.529412 0.439216 0.145098
0.580392 0.45098 0.141176
0.635294 0.454902 0.133333
0.690196 0.470588 0.137255
0.74902 0.482353 0.14902
0.8 0.494118 0.156863
0.858824 0.513725 0.168627
0.262745 0.462745 0.207843
0.27451 0.470588 0.215686
0.278431 0.462745 0.207843
0.298039 0.470588 0.211765
0.317647 0.47451 0.211765
0.341176 0.47451 0.207843
0.372549 0.478431 0.207843
0.411765 0.490196 0.207843
0.454902 0.498039 0.2
0.494118 0.498039 0.188235
0.556863 0.513725 0.184314
0.6 0.517647 0.180392
0.65098 0.52549 0.176471
0.709804 0.537255 0.180392
0.764706 0.54902 0.184314
0.815686 0.560784 0.188235
0.87451 0.576471 0.203922
0.301961 0.533333 0.247059
0.305882 0.533333 0.243137
0.321569 0.541176 0.254902
0.32549 0.533333 0.243137
0.352941 0.545098 0.254902
0.368627 0.541176 0.247059
0.396078 0.545098 0.247059
0.439216 0.560784 0.254902
0.478431 0.568627 0.247059
0.517647 0.572549 0.235294
0.560784 0.580392 0.227451
0.619608 0.596078 0.227451
0.670588 0.596078 0.219608
0.721569 0.607843 0.227451
0.776471 0.619608 0.235294
0.839216 0.635294 0.247059
0.890196 0.647059 0.258824
0.34902 0.615686 0.301961
0.34902 0.611765 0.298039
0.364706 0.619608 0.301961
0.372549 0.619608 0.301961
0.388235 0.619608 0.298039
0.407843 0.619608 0.298039
0.435294 0.627451 0.305882
0.466667 0.631373 0.301961
0.501961 0.635294 0.298039
0.541176 0.643137 0.294118
0.588235 0.654902 0.290196
0.635294 0.658824 0.282353
0.686275 0.666667 0.270588
0.737255 0.678431 0.27451
0.788235 0.686275 0.286275
0.847059 0.698039 0.301961
0.894118 0.705882 0.313725
0.396078 0.698039 0.356863
0.4 0.694118 0.352941
0.407843 0.694118 0.352941
0.415686 0.694118 0.352941
0.427451 0.694118 0.352941
0.447059 0.694118 0.352941
0.47451 0.701961 0.360784
0.505882 0.713725 0.368627
0.533333 0.705882 0.356863
0.564706 0.709804 0.34902
0.603922 0.713725 0.345098
0.65098 0.721569 0.341176
0.701961 0.733333 0.341176
0.756863 0.745098 0.337255
0.803922 0.74902 0.341176
0.85098 0.756863 0.356863
0.901961 0.760784 0.372549
0.447059 0.768627 0.415686
0.447059 0.760784 0.411765
0.45098 0.764706 0.411765
0.458824 0.756863 0.403922
0.47451 0.760784 0.411765
0.498039 0.772549 0.423529
0.513725 0.768627 0.415686
0.541176 0.776471 0.423529
0.564706 0.772549 0.419608
0.603922 0.784314 0.427451
0.643137 0.788235 0.419608
0.67451 0.792157 0.419608
0.713725 0.792157 0.407843
0.768627 0.8 0.407843
0.815686 0.807843 0.403922
0.870588 0.819608 0.419608
0.917647 0.827451 0.443137
0.509804 0.835294 0.490196
0.505882 0.827451 0.482353
0.509804 0.831373 0.482353
0.517647 0.831373 0.482353
0.529412 0.831373 0.486275
0.545098 0.831373 0.486275
0.564706 0.831373 0.490196
0.584314 0.835294 0.494118
0.611765 0.839216 0.498039
0.639216 0.843137 0.501961
0.670588 0.843137 0.494118
0.709804 0.85098 0.498039
0.74902 0.854902 0.498039
0.776471 0.85098 0.490196
0.819608 0.854902 0.482353
0.882353 0.870588 0.498039
0.933333 0.882353 0.517647
0.572549 0.886275 0.560784
0.568627 0.878431 0.552941
0.576471 0.886275 0.560784
0.588235 0.890196 0.568627
0.596078 0.890196 0.564706
0.611765 0.894118 0.568627
0.623529 0.890196 0.568627
0.643137 0.890196 0.572549
0.666667 0.898039 0.580392
0.682353 0.890196 0.576471
0.709804 0.894118 0.580392
0.741176 0.894118 0.576471
0.772549 0.901961 0.580392
0.807843 0.898039 0.576471
0.843137 0.901961 0.576471
0.878431 0.909804 0.576471
0.921569 0.913725 0.584314
0.65098 0.941176 0.647059
0.647059 0.937255 0.643137
0.647059 0.929412 0.639216
0.654902 0.937255 0.643137
0.654902 0.933333 0.635294
0.666667 0.933333 0.639216
0.682353 0.933333 0.643137
0.701961 0.937255 0.65098
0.721569 0.941176 0.654902
0.745098 0.94902 0.666667
0.756863 0.933333 0.662745
0.780392 0.937255 0.662745
0.811765 0.941176 0.670588
0.847059 0.94902 0.678431
0.870588 0.94902 0.670588
0.898039 0.941176 0.670588
0.929412 0.952941 0.678431
0.737255 0.980392 0.733333
0.721569 0.972549 0.717647
0.72549 0.976471 0.721569
0.729412 0.972549 0.721569
0.737255 0.972549 0.721569
0.745098 0.972549 0.72549
0.756863 0.976471 0.729412
0.772549 0.976471 0.737255
0.784314 0.976471 0.737255
0.803922 0.972549 0.745098
0.823529 0.980392 0.756863
0.843137 0.980392 0.760784
0.866667 0.980392 0.764706
0.886275 0.984314 0.764706
0.901961 0.980392 0.764706
0.929412 0.984314 0.772549
0.952941 0.984314 0.780392
0.0156863 0.0156863 0.0509804
0.054902 0.0156863 0.0509804
0.0901961 0.027451 0.0509804
0.12549 0.0470588 0.054902
0.156863 0.0666667 0.0627451
0.192157 0.0784314 0.0627451
0.235294 0.0901961 0.0666667
0.278431 0.105882 0.0705882
0.317647 0.105882 0.0588235
0.364706 0.121569 0.0627451
0.411765 0.129412 0.0588235
0.462745 0.141176 0.054902
0.517647 0.156863 0.054902
0.580392 0.172549 0.0509804
0.647059 0.196078 0.054902
0.721569 0.227451 0.0666667
0.788235 0.247059 0.0666667
0.0470588 0.0666667 0.0588235
0.0745098 0.0745098 0.0627451
0.101961 0.0823529 0.0666667
0.133333 0.0862745 0.0705882
0.168627 0.0941176 0.0705882
0.2 0.0941176 0.0627451
0.239216 0.105882 0.0666667
0.282353 0.117647 0.0666667
0.32549 0.121569 0.0627451
0.376471 0.137255 0.0666667
0.423529 0.145098 0.0627451
0.478431 0.160784 0.0666667
0.533333 0.176471 0.0666667
0.592157 0.192157 0.0627451
0.654902 0.211765 0.0588235
0.721569 0.231373 0.0588235
0.788235 0.258824 0.0666667
0.0745098 0.113725 0.0705882
0.0980392 0.121569 0.0823529
0.117647 0.12549 0.0784314
0.14902 0.12549 0.0745098
0.172549 0.117647 0.0666667
0.215686 0.133333 0.0745098
0.254902 0.141176 0.0745098
0.290196 0.145098 0.0705882
0.341176 0.152941 0.0705882
0.384314 0.160784 0.0705882
0.439216 0.176471 0.0745098
0.486275 0.184314 0.0745098
0.541176 0.196078 0.0666667
0.6 0.211765 0.0666667
0.658824 0.231373 0.0627451
0.721569 0.247059 0.0627451
0.788235 0.27451 0.0666667
0.109804 0.164706 0.0941176
0.113725 0.156863 0.0901961
0.133333 0.160784 0.0901961
0.164706 0.172549 0.0941176
0.2 0.176471 0.0901961
0.235294 0.176471 0.0862745
0.27451 0.180392 0.0823529
0.305882 0.180392 0.0745098
0.356863 0.192157 0.0823529
0.403922 0.203922 0.0823529
0.45098 0.211765 0.0823529
0.498039 0.215686 0.0745098
0.54902 0.227451 0.0745098
0.611765 0.247059 0.0745098
0.666667 0.258824 0.0666667
0.729412 0.278431 0.0666667
0.8 0.305882 0.0862745
0.133333 0.207843 0.105882
0.145098 0.215686 0.113725
0.152941 0.207843 0.105882
0.180392 0.223529 0.109804
0.211765 0.223529 0.105882
0.25098 0.231373 0.101961
0.282353 0.227451 0.0901961
0.329412 0.235294 0.0901961
0.380392 0.247059 0.0941176
0.415686 0.243137 0.0823529
0.462745 0.25098 0.0862745
0.521569 0.266667 0.0980392
0.572549 0.27451 0.0901961
0.623529 0.286275 0.0862745
0.686275 0.305882 0.0941176
0.74902 0.32549 0.101961
0.807843 0.341176 0.101961
0.156863 0.258824 0.121569
0.172549 0.270588 0.129412
0.184314 0.270588 0.129412
0.203922 0.27451 0.129412
0.231373 0.278431 0.129412
0.266667 0.286275 0.12549
0.305882 0.290196 0.117647
0.352941 0.298039 0.117647
0.392157 0.294118 0.105882
0.447059 0.305882 0.105882
0.494118 0.313725 0.105882
0.533333 0.313725 0.0980392
0.592157 0.329412 0.105882
0.647059 0.341176 0.105882
0.701961 0.352941 0.105882
0.768627 0.380392 0.12549
0.823529 0.388235 0.12549
0.196078 0.32549 0.152941
0.196078 0.321569 0.14902
0.215686 0.333333 0.156863
0.231373 0.337255 0.156863
0.258824 0.345098 0.160784
0.286275 0.341176 0.14902
0.321569 0.34902 0.145098
0.368627 0.356863 0.141176
0.415686 0.360784 0.133333
0.470588 0.376471 0.141176
0.509804 0.372549 0.12549
0.564706 0.380392 0.121569
0.615686 0.392157 0.12549
0.666667 0.4 0.12549
0.721569 0.411765 0.129412
0.784314 0.431373 0.145098
0.843137 0.45098 0.152941
0.219608 0.380392 0.176471
0.235294 0.392157 0.184314
0.247059 0.396078 0.184314
0.262745 0.4 0.184314
0.286275 0.407843 0.188235
0.317647 0.407843 0.188235
0.345098 0.415686 0.180392
0.384314 0.419608 0.172549
0.431373 0.427451 0.168627
0.482353 0.431373 0.160784
0.529412 0.439216 0.156863
0.576471 0.443137 0.152941
0.635294 0.454902 0.152941
0.690196 0.466667 0.152941
0.752941 0.486275 0.168627
0.796078 0.490196 0.168627
0.858824 0.513725 0.188235
0.262745 0.454902 0.211765
0.278431 0.466667 0.223529
0.286275 0.470588 0.223529
0.298039 0.470588 0.223529
0.317647 0.470588 0.223529
0.337255 0.47451 0.219608
0.376471 0.486275 0.223529
0.411765 0.490196 0.215686
0.454902 0.494118 0.211765
0.501961 0.505882 0.207843
0.545098 0.509804 0.192157
0.6 0.517647 0.192157
0.65098 0.52549 0.188235
0.709804 0.537255 0.196078
0.764706 0.54902 0.2
0.819608 0.560784 0.207843
0.878431 0.580392 0.227451
0.298039 0.521569 0.254902
0.309804 0.533333 0.258824
0.317647 0.537255 0.258824
0.333333 0.537255 0.258824
0.356863 0.54902 0.266667
0.380392 0.54902 0.266667
0.403922 0.552941 0.266667
0.439216 0.560784 0.262745
0.470588 0.560784 0.25098
0.517647 0.568627 0.25098
0.572549 0.588235 0.25098
0.603922 0.576471 0.219608
0.670588 0.6 0.235294
0.72549 0.607843 0.239216
0.780392 0.623529 0.25098
0.831373 0.627451 0.254902
0.882353 0.639216 0.262745
0.341176 0.6 0.294118
0.352941 0.615686 0.305882
0.368627 0.619608 0.309804
0.372549 0.619608 0.309804
0.396078 0.627451 0.313725
0.407843 0.619608 0.305882
0.435294 0.623529 0.305882
0.462745 0.631373 0.309804
0.505882 0.643137 0.309804
0.537255 0.639216 0.298039
0.588235 0.654902 0.301961
0.631373 0.654902 0.286275
0.690196 0.670588 0.286275
0.737255 0.678431 0.290196
0.792157 0.690196 0.298039
0.847059 0.698039 0.313725
0.898039 0.709804 0.329412
0.384314 0.67451 0.34902
0.4 0.690196 0.360784
0.403922 0.694118 0.360784
0.415686 0.690196 0.356863
0.435294 0.701961 0.368627
0.447059 0.694118 0.360784
0.470588 0.698039 0.364706
0.505882 0.709804 0.376471
0.541176 0.713725 0.372549
0.572549 0.713725 0.364706
0.603922 0.717647 0.356863
0.647059 0.72549 0.352941
0.701961 0.729412 0.34902
0.756863 0.741176 0.345098
0.8 0.74902 0.34902
0.858824 0.760784 0.368627
0.909804 0.776471 0.396078
0.439216 0.752941 0.411765
0.447059 0.760784 0.419608
0.45098 0.760784 0.419608
0.458824 0.760784 0.415686
0.478431 0.764706 0.423529
0.498039 0.768627 0.427451
0.513725 0.764706 0.423529
0.541176 0.772549 0.431373
0.568627 0.776471 0.431373
0.603922 0.780392 0.427451
0.647059 0.788235 0.431373
0.67451 0.788235 0.427451
0.713725 0.792157 0.419608
0.760784 0.8 0.419608
0.815686 0.807843 0.411765
0.870588 0.815686 0.431373
0.917647 0.827451 0.454902
0.498039 0.819608 0.482353
0.498039 0.823529 0.482353
0.501961 0.819608 0.478431
0.513725 0.823529 0.486275
0.52549 0.823529 0.482353
0.545098 0.831373 0.490196
0.560784 0.827451 0.490196
0.584314 0.835294 0.498039
0.611765 0.835294 0.505882
0.639216 0.843137 0.509804
0.666667 0.839216 0.498039
0.709804 0.85098 0.505882
0.745098 0.847059 0.498039
0.776471 0.85098 0.494118
0.823529 0.858824 0.494118
0.878431 0.866667 0.501961
0.929412 0.882353 0.521569
0.556863 0.87451 0.54902
0.568627 0.882353 0.556863
0.576471 0.882353 0.560784
0.576471 0.878431 0.556863
0.596078 0.890196 0.568627
0.607843 0.890196 0.568627
0.627451 0.890196 0.576471
0.643137 0.890196 0.576471
0.666667 0.898039 0.584314
0.686275 0.894118 0.584314
0.713725 0.898039 0.584314
0.756863 0.909804 0.596078
0.776471 0.905882 0.588235
0.815686 0.913725 0.588235
0.843137 0.901961 0.584314
0.87451 0.905882 0.580392
0.917647 0.909804 0.584314
0.635294 0.92549 0.631373
0.647059 0.933333 0.639216
0.654902 0.941176 0.647059
0.65098 0.929412 0.639216
0.65098 0.92549 0.639216
0.67451 0.933333 0.647059
0.690196 0.941176 0.65098
0.701961 0.937255 0.654902
0.721569 0.941176 0.662745
0.74902 0.945098 0.670588
0.764706 0.941176 0.670588
0.784314 0.941176 0.666667
0.815686 0.945098 0.67451
0.843137 0.94902 0.678431
0.870588 0.94902 0.67451
0.905882 0.94902 0.682353
0.92549 0.94902 0.682353
0.717647 0.968627 0.717647
0.721569 0.972549 0.721569
0.72549 0.972549 0.721569
0.72549 0.968627 0.721569
0.741176 0.972549 0.729412
0.741176 0.972549 0.72549
0.756863 0.976471 0.733333
0.768627 0.972549 0.733333
0.784314 0.976471 0.741176
0.807843 0.976471 0.74902
0.827451 0.980392 0.760784
0.843137 0.980392 0.756863
0.870588 0.980392 0.768627
0.882353 0.980392 0.764706
0.913725 0.984314 0.780392
0.933333 0.984314 0.780392
0.94902 0.984314 0.780392
0.0431373 0.0352941 0.0862745
0.0666667 0.0352941 0.0823529
0.0980392 0.0431373 0.0862745
0.133333 0.0509804 0.0941176
0.160784 0.0588235 0.0862745
0.192157 0.0666667 0.0862745
0.235294 0.0941176 0.0941176
0.27451 0.105882 0.0980392
0.317647 0.117647 0.101961
0.372549 0.133333 0.105882
0.419608 0.141176 0.105882
0.470588 0.152941 0.105882
0.517647 0.160784 0.0980392
0.580392 0.176471 0.0980392
0.654902 0.207843 0.109804
0.713725 0.219608 0.101961
0.784314 0.243137 0.105882
0.0705882 0.0862745 0.0980392
0.0823529 0.0823529 0.0941176
0.109804 0.0862745 0.0980392
0.133333 0.0862745 0.0941176
0.168627 0.0941176 0.0941176
0.207843 0.109804 0.105882
0.243137 0.113725 0.105882
0.294118 0.129412 0.105882
0.329412 0.133333 0.105882
0.380392 0.145098 0.105882
0.427451 0.152941 0.101961
0.478431 0.160784 0.101961
0.541176 0.184314 0.113725
0.592157 0.192157 0.101961
0.670588 0.223529 0.121569
0.72549 0.239216 0.113725
0.784314 0.254902 0.109804
0.0862745 0.121569 0.101961
0.105882 0.12549 0.109804
0.121569 0.12549 0.105882
0.145098 0.12549 0.101961
0.180392 0.129412 0.105882
0.211765 0.133333 0.105882
0.258824 0.145098 0.113725
0.305882 0.156863 0.113725
0.34902 0.164706 0.113725
0.388235 0.164706 0.105882
0.443137 0.180392 0.113725
0.486275 0.184314 0.105882
0.545098 0.203922 0.113725
0.596078 0.211765 0.105882
0.666667 0.235294 0.113725
0.729412 0.258824 0.117647
0.788235 0.27451 0.117647
0.113725 0.160784 0.113725
0.121569 0.164706 0.109804
0.141176 0.164706 0.117647
0.168627 0.176471 0.121569
0.203922 0.180392 0.117647
0.239216 0.180392 0.117647
0.270588 0.180392 0.113725
0.309804 0.184314 0.109804
0.356863 0.196078 0.113725
0.4 0.2 0.113725
0.45098 0.211765 0.117647
0.498039 0.219608 0.117647
0.556863 0.235294 0.121569
0.615686 0.25098 0.121569
0.67451 0.266667 0.117647
0.737255 0.286275 0.12549
0.796078 0.305882 0.12549
0.137255 0.207843 0.12549
0.145098 0.215686 0.129412
0.168627 0.219608 0.137255
0.184314 0.219608 0.133333
0.215686 0.223529 0.133333
0.25098 0.227451 0.12549
0.294118 0.231373 0.129412
0.333333 0.239216 0.121569
0.384314 0.247059 0.129412
0.427451 0.25098 0.12549
0.470588 0.258824 0.12549
0.52549 0.27451 0.133333
0.572549 0.282353 0.129412
0.623529 0.290196 0.12549
0.690196 0.309804 0.133333
0.745098 0.321569 0.133333
0.803922 0.341176 0.133333
0.160784 0.258824 0.145098
0.184314 0.27451 0.160784
0.192157 0.270588 0.152941
0.219608 0.282353 0.160784
0.239216 0.282353 0.152941
0.270588 0.286275 0.152941
0.309804 0.290196 0.141176
0.352941 0.298039 0.141176
0.4 0.301961 0.141176
0.458824 0.313725 0.141176
0.486275 0.305882 0.133333
0.541176 0.321569 0.141176
0.592157 0.329412 0.137255
0.65098 0.345098 0.145098
0.701961 0.352941 0.145098
0.764706 0.376471 0.152941
0.823529 0.392157 0.152941
0.2 0.32549 0.172549
0.215686 0.337255 0.180392
0.219608 0.333333 0.176471
0.235294 0.337255 0.176471
0.258824 0.341176 0.180392
0.290196 0.345098 0.176471
0.333333 0.356863 0.176471
0.372549 0.356863 0.164706
0.419608 0.364706 0.160784
0.466667 0.372549 0.160784
0.517647 0.376471 0.160784
0.560784 0.380392 0.14902
0.615686 0.392157 0.156863
0.678431 0.407843 0.168627
0.72549 0.415686 0.164706
0.784314 0.435294 0.176471
0.843137 0.454902 0.188235
0.227451 0.380392 0.196078
0.243137 0.4 0.203922
0.25098 0.4 0.203922
0.270588 0.403922 0.211765
0.294118 0.411765 0.215686
0.321569 0.415686 0.211765
0.34902 0.415686 0.2
0.392157 0.423529 0.2
0.435294 0.427451 0.192157
0.478431 0.435294 0.184314
0.537255 0.443137 0.188235
0.588235 0.454902 0.188235
0.639216 0.458824 0.184314
0.694118 0.470588 0.184314
0.74902 0.482353 0.192157
0.803922 0.498039 0.203922
0.862745 0.521569 0.219608
0.266667 0.454902 0.235294
0.27451 0.466667 0.239216
0.286275 0.470588 0.243137
0.301961 0.470588 0.239216
0.321569 0.478431 0.243137
0.345098 0.478431 0.243137
0.376471 0.482353 0.239216
0.419608 0.494118 0.243137
0.447059 0.490196 0.227451
0.494118 0.494118 0.219608
0.54902 0.513725 0.219608
0.603922 0.517647 0.219608
0.654902 0.529412 0.215686
0.705882 0.537255 0.215686
0.772549 0.556863 0.231373
0.819608 0.560784 0.231373
0.87451 0.576471 0.247059
0.301961 0.521569 0.270588
0.313725 0.537255 0.27451
0.32549 0.541176 0.278431
0.337255 0.545098 0.282353
0.352941 0.545098 0.282353
0.380392 0.54902 0.282353
0.411765 0.560784 0.286275
0.439216 0.564706 0.286275
0.478431 0.564706 0.278431
0.52549 0.572549 0.270588
0.568627 0.580392 0.262745
0.623529 0.596078 0.258824
0.67451 0.603922 0.262745
0.72549 0.607843 0.262745
0.780392 0.619608 0.270588
0.827451 0.627451 0.270588
0.882353 0.639216 0.290196
0.345098 0.603922 0.317647
0.356863 0.615686 0.32549
0.364706 0.619608 0.32549
0.372549 0.615686 0.321569
0.4 0.631373 0.333333
0.427451 0.639216 0.341176
0.439216 0.627451 0.329412
0.466667 0.635294 0.32549
0.509804 0.643137 0.329412
0.545098 0.643137 0.317647
0.588235 0.647059 0.313725
0.631373 0.654902 0.309804
0.682353 0.662745 0.298039
0.737255 0.678431 0.305882
0.792157 0.690196 0.321569
0.847059 0.698039 0.333333
0.894118 0.705882 0.345098
0.392157 0.682353 0.368627
0.4 0.690196 0.372549
0.4 0.682353 0.368627
0.419608 0.694118 0.376471
0.435294 0.698039 0.380392
0.454902 0.698039 0.380392
0.47451 0.698039 0.380392
0.505882 0.709804 0.388235
0.541176 0.713725 0.388235
0.576471 0.717647 0.380392
0.611765 0.72549 0.380392
0.654902 0.729412 0.372549
0.698039 0.737255 0.368627
0.756863 0.745098 0.364706
0.807843 0.74902 0.368627
0.854902 0.760784 0.384314
0.905882 0.768627 0.403922
0.435294 0.745098 0.419608
0.447059 0.760784 0.427451
0.458824 0.764706 0.435294
0.466667 0.764706 0.435294
0.482353 0.768627 0.435294
0.501961 0.772549 0.439216
0.517647 0.768627 0.435294
0.54902 0.780392 0.447059
0.568627 0.772549 0.443137
0.603922 0.780392 0.443137
0.647059 0.788235 0.443137
0.686275 0.8 0.447059
0.713725 0.788235 0.431373
0.764706 0.8 0.431373
0.823529 0.811765 0.431373
0.870588 0.819608 0.443137
0.917647 0.823529 0.462745
0.498039 0.819608 0.490196
0.505882 0.827451 0.494118
0.509804 0.819608 0.490196
0.52549 0.835294 0.501961
0.537255 0.831373 0.501961
0.54902 0.831373 0.505882
0.568627 0.835294 0.505882
0.592157 0.839216 0.513725
0.615686 0.843137 0.513725
0.643137 0.843137 0.517647
0.67451 0.843137 0.517647
0.713725 0.85098 0.513725
0.737255 0.847059 0.509804
0.780392 0.854902 0.509804
0.823529 0.858824 0.505882
0.878431 0.862745 0.509804
0.933333 0.882353 0.533333
0.556863 0.87451 0.556863
0.568627 0.882353 0.564706
0.580392 0.886275 0.568627
0.584314 0.882353 0.568627
0.592157 0.882353 0.568627
0.603922 0.882353 0.572549
0.619608 0.886275 0.576471
0.647059 0.890196 0.584314
0.662745 0.890196 0.588235
0.686275 0.890196 0.596078
0.713725 0.898039 0.592157
0.752941 0.901961 0.6
0.784314 0.905882 0.6
0.815686 0.909804 0.6
0.847059 0.901961 0.592157
0.878431 0.905882 0.588235
0.921569 0.909804 0.596078
0.639216 0.92549 0.639216
0.639216 0.92549 0.639216
0.647059 0.929412 0.643137
0.662745 0.941176 0.654902
0.658824 0.933333 0.647059
0.67451 0.933333 0.65098
0.686275 0.933333 0.654902
0.701961 0.937255 0.662745
0.72549 0.941176 0.67451
0.741176 0.937255 0.666667
0.768627 0.945098 0.682353
0.788235 0.941176 0.678431
0.815686 0.941176 0.678431
0.843137 0.94902 0.686275
0.87451 0.952941 0.686275
0.898039 0.94902 0.678431
0.937255 0.956863 0.694118
0.72549 0.972549 0.729412
0.72549 0.972549 0.729412
0.721569 0.972549 0.721569
0.733333 0.976471 0.729412
0.733333 0.968627 0.72549
0.752941 0.976471 0.737255
0.760784 0.976471 0.737255
0.772549 0.972549 0.741176
0.792157 0.980392 0.74902
0.8 0.972549 0.74902
0.823529 0.976471 0.756863
0.847059 0.980392 0.768627
0.87451 0.984314 0.780392
0.886275 0.984314 0.768627
0.917647 0.988235 0.784314
0.937255 0.984314 0.788235
0.94902 0.984314 0.788235
0.054902 0.0470588 0.109804
0.0823529 0.0588235 0.117647
0.105882 0.054902 0.117647
0.133333 0.0627451 0.117647
0.168627 0.0666667 0.121569
0.196078 0.0705882 0.117647
0.239216 0.0823529 0.117647
0.282353 0.0901961 0.121569
0.32549 0.121569 0.137255
0.368627 0.133333 0.137255
0.415686 0.145098 0.137255
0.47451 0.160784 0.145098
0.521569 0.168627 0.141176
0.584314 0.184314 0.145098
0.654902 0.211765 0.152941
0.713725 0.223529 0.14902
0.784314 0.247059 0.156863
0.0823529 0.0941176 0.12549
0.0980392 0.0941176 0.12549
0.121569 0.101961 0.129412
0.145098 0.101961 0.133333
0.176471 0.101961 0.12549
0.211765 0.105882 0.12549
0.25098 0.113725 0.129412
