example-Advanced/bin/data/ofxGpuLutCube/LUT/Nature-126.cube
TITLE "woodgreen"
# LUT size
# data domain
# LUT data points
# 

# Copyright: (C) Copyright 2015 James Miller
# Created by: James Miller, www.DeLuts.co.uk

LUT_3D_SIZE 8

0.160156 0.162415 0.161835
0.201520 0.164533 0.163740
0.249019 0.167040 0.165758
0.422821 0.176679 0.170636
0.560721 0.186323 0.174560
0.647989 0.192984 0.177146
0.710222 0.197828 0.179108
0.762573 0.201904 0.180878
0.161931 0.204010 0.163783
0.201442 0.204271 0.163801
0.243569 0.206482 0.165649
0.378994 0.213466 0.169686
0.542515 0.223916 0.174155
0.640900 0.231083 0.176998
0.709922 0.236307 0.179169
0.766388 0.240662 0.180974
0.163605 0.246098 0.165632
0.203134 0.246412 0.165737
0.244428 0.247101 0.165728
0.389322 0.256165 0.169879
0.565168 0.269675 0.174665
0.668305 0.280016 0.177660
0.740753 0.288155 0.179875
0.800114 0.294883 0.181719
0.165327 0.341418 0.168767
0.205156 0.345899 0.169007
0.256221 0.361289 0.169338
0.435438 0.393472 0.171025
0.615453 0.424443 0.175930
0.719317 0.445565 0.178934
0.794883 0.462298 0.181179
0.851876 0.474086 0.183023
0.165990 0.496878 0.173257
0.206430 0.505685 0.173697
0.286308 0.532109 0.174312
0.492885 0.571634 0.175140
0.648895 0.592904 0.176889
0.746826 0.609418 0.179710
0.814431 0.621046 0.181802
0.861215 0.629229 0.183428
0.165907 0.617135 0.176805
0.215894 0.627755 0.177368
0.340750 0.652470 0.177900
0.528551 0.682613 0.178532
0.667393 0.698033 0.178777
0.752328 0.707228 0.180062
0.816280 0.716596 0.182033
0.861751 0.723183 0.183690
0.185255 0.712137 0.180032
0.252236 0.718842 0.180154
0.383357 0.738081 0.180581
0.554317 0.761924 0.181104
0.678550 0.774815 0.181784
0.758166 0.782457 0.182687
0.817065 0.787319 0.184008
0.861982 0.793004 0.185921
0.220551 0.785797 0.182373
0.290083 0.791247 0.182548
0.413902 0.807595 0.183018
0.573813 0.826817 0.184815
0.686467 0.837847 0.186258
0.763921 0.844814 0.187203
0.819938 0.848410 0.187740
0.861938 0.850800 0.188293
0.161957 0.164320 0.203539
0.201412 0.164690 0.203605
0.250889 0.167189 0.205710
0.422747 0.176945 0.210754
0.561192 0.186750 0.214883
0.649026 0.193499 0.217682
0.711470 0.198321 0.219683
0.763925 0.202484 0.221501
0.161748 0.204080 0.203526
0.203146 0.206369 0.205588
0.246377 0.208658 0.207541
0.393415 0.216313 0.211910
0.552203 0.226628 0.216395
0.647867 0.233582 0.219282
0.716034 0.238804 0.221510
0.772082 0.243051 0.223306
0.163435 0.246142 0.205527
0.204974 0.248627 0.207558
0.248383 0.249987 0.207672
0.405588 0.260986 0.212250
0.576782 0.274737 0.217002
0.677791 0.285488 0.219997
0.749128 0.293802 0.222220
0.808105 0.300698 0.224165
0.165218 0.342394 0.208736
0.206997 0.356245 0.211077
0.263820 0.373906 0.211618
0.452144 0.407397 0.213370
0.627359 0.438346 0.218266
0.728542 0.459255 0.221279
0.802547 0.475412 0.223580
0.857731 0.486899 0.225399
0.165784 0.497838 0.213313
0.208065 0.516484 0.215764
0.297568 0.544761 0.216618
0.506156 0.583095 0.217433
0.657845 0.602814 0.219120
0.753082 0.618757 0.221989
0.818839 0.630197 0.224091
0.864406 0.637931 0.225725
0.165623 0.618003 0.216902
0.219897 0.636601 0.219526
0.353180 0.661783 0.220206
0.540179 0.690822 0.220982
0.674700 0.705387 0.221274
0.757603 0.714072 0.222486
0.820021 0.723253 0.224653
0.864833 0.729632 0.226393
0.184265 0.712790 0.220437
0.259007 0.726088 0.222900
0.393755 0.745858 0.223493
0.564453 0.768895 0.224147
0.685046 0.781285 0.224871
0.763375 0.788457 0.225799
0.820652 0.792929 0.226946
0.865051 0.798309 0.228956
0.220782 0.786935 0.223702
0.296553 0.797603 0.225978
0.423427 0.814340 0.226462
0.583065 0.832947 0.228467
0.692535 0.843519 0.229736
0.768969 0.849967 0.230595
0.823308 0.853188 0.230996
0.864990 0.855290 0.231463
0.163670 0.166299 0.245814
0.203177 0.166700 0.245815
0.247964 0.167145 0.246120
0.417097 0.176636 0.251269
0.563415 0.187020 0.256199
0.653220 0.193983 0.259578
0.717582 0.199075 0.262351
0.770530 0.203291 0.264745
0.163448 0.206102 0.245693
0.204930 0.208391 0.247903
0.246669 0.208827 0.248383
0.399706 0.216840 0.253440
0.559597 0.227491 0.258724
0.655369 0.234676 0.262460
0.724056 0.239925 0.265512
0.780273 0.244315 0.268141
0.163221 0.246343 0.246042
0.204799 0.249089 0.248836
0.253270 0.254573 0.253004
0.426640 0.269474 0.258397
0.595354 0.283125 0.264147
0.694864 0.294856 0.268293
0.765455 0.304805 0.272875
0.824812 0.314432 0.278242
0.164987 0.349653 0.253013
0.206704 0.364049 0.258676
0.265934 0.396602 0.264287
0.473018 0.433415 0.263044
0.646406 0.465184 0.270115
0.745174 0.486895 0.275408
0.816197 0.503697 0.280504
0.866111 0.515620 0.285518
0.165192 0.509665 0.268140
0.207262 0.527662 0.274763
0.296504 0.570944 0.280483
0.520238 0.610770 0.278460
0.670244 0.629159 0.280277
0.760372 0.646022 0.286390
0.823329 0.657239 0.292446
0.867789 0.665148 0.298785
0.163897 0.631439 0.290096
0.211308 0.649026 0.298414
0.350355 0.687866 0.306118
0.549805 0.717721 0.302438
0.682613 0.731790 0.302063
0.762587 0.740020 0.304129
0.823743 0.749228 0.311868
0.868007 0.755911 0.320203
0.168331 0.727435 0.316951
0.234755 0.741930 0.327929
0.389871 0.773002 0.337873
0.570644 0.796784 0.333984
0.690639 0.807739 0.333243
0.768367 0.814689 0.334673
0.824184 0.818311 0.335667
0.868138 0.824271 0.344648
0.195788 0.802791 0.342726
0.271197 0.815295 0.353555
0.420637 0.841217 0.364772
0.587376 0.860487 0.361123
0.697457 0.869193 0.359881
0.773765 0.875510 0.360739
0.827331 0.878693 0.361162
0.868391 0.880493 0.361442
0.165558 0.169922 0.344622
0.205440 0.170428 0.346645
0.247746 0.171064 0.356955
0.405487 0.176562 0.369442
0.562687 0.187635 0.381199
0.655622 0.194933 0.390499
0.723332 0.200431 0.399244
0.776978 0.204825 0.406821
0.165379 0.209813 0.345006
0.207162 0.212341 0.355364
0.250405 0.213126 0.365405
0.404123 0.217861 0.379224
0.566323 0.228720 0.392931
0.662375 0.236032 0.403504
0.730987 0.241403 0.412872
0.787576 0.245907 0.421147
0.165240 0.251124 0.359183
0.207018 0.255201 0.371512
0.254965 0.264077 0.393589
0.433637 0.275474 0.409939
0.603860 0.290008 0.427325
0.703561 0.303114 0.440979
0.773982 0.314253 0.452742
0.833121 0.324694 0.462943
0.163352 0.367323 0.394091
0.205161 0.380646 0.408526
0.250916 0.414133 0.431972
0.485160 0.474212 0.462093
0.659066 0.507076 0.479558
0.755166 0.528394 0.493190
0.823744 0.543963 0.504582
0.870579 0.554421 0.513776
0.161569 0.530152 0.438184
0.203831 0.544765 0.452602
0.261418 0.589155 0.474679
0.521340 0.649549 0.500109
0.673933 0.665658 0.502171
0.765193 0.679727 0.514949
0.827087 0.689680 0.525526
0.870832 0.696760 0.534258
0.159188 0.650094 0.473066
0.202022 0.664333 0.486960
0.300219 0.706269 0.507560
0.549155 0.750528 0.530130
0.683685 0.762700 0.531913
0.766593 0.768215 0.533277
0.826778 0.776262 0.543012
0.870505 0.782031 0.551135
0.156498 0.743177 0.500601
0.205776 0.756003 0.513471
0.356118 0.790410 0.533142
0.569484 0.824528 0.552290
0.690853 0.833924 0.553598
0.771881 0.838802 0.554596
0.827100 0.841823 0.555311
0.870235 0.846689 0.562544
0.169251 0.817985 0.520839
0.232658 0.829852 0.533247
0.398028 0.857457 0.551557
0.585353 0.884338 0.567675
0.697728 0.891113 0.568477
0.776646 0.895094 0.569118
0.829917 0.897592 0.569536
0.870679 0.899017 0.569850
0.166704 0.175180 0.485683
0.207053 0.175646 0.488277
0.249102 0.176614 0.502982
0.406551 0.181593 0.525168
0.559082 0.188812 0.533534
0.655583 0.196446 0.544120
0.725167 0.202131 0.552407
0.780783 0.206648 0.559222
0.166591 0.215057 0.490112
0.208562 0.217665 0.501190
0.251822 0.218763 0.516188
0.415423 0.223563 0.538526
0.567335 0.230168 0.546574
0.664416 0.237597 0.557547
0.733407 0.243033 0.566079
0.790833 0.247567 0.573212
0.166020 0.258597 0.515956
0.208165 0.263275 0.528726
0.255471 0.275112 0.555655
0.450304 0.286769 0.581207
0.606812 0.296108 0.590367
0.706734 0.310337 0.603812
0.777256 0.322022 0.613961
0.836260 0.332702 0.622097
0.163029 0.391379 0.563960
0.205222 0.404968 0.576987
0.248540 0.440569 0.603620
0.493783 0.503013 0.641911
0.656272 0.520028 0.649802
0.752869 0.540527 0.661006
0.821490 0.555590 0.669525
0.868120 0.565464 0.676025
0.157388 0.545127 0.598637
0.200186 0.558446 0.610351
0.246626 0.600054 0.632765
0.510254 0.661011 0.662859
0.675367 0.685865 0.677577
0.767025 0.698103 0.685952
0.828692 0.706935 0.692727
0.871944 0.713322 0.698316
0.153133 0.662375 0.625837
0.196834 0.674722 0.636497
0.272308 0.713810 0.656032
0.539411 0.759696 0.680446
0.684344 0.778918 0.692540
0.768572 0.783975 0.693900
0.828164 0.790889 0.699759
0.871342 0.796060 0.705030
0.150277 0.753340 0.645443
0.194611 0.764797 0.655195
0.333213 0.797612 0.673004
0.561170 0.832258 0.692605
0.691625 0.847874 0.703212
0.773660 0.852544 0.704507
0.828556 0.855098 0.705087
0.871120 0.859122 0.709647
0.149942 0.827493 0.659328
0.202737 0.837882 0.668575
0.383985 0.864419 0.685403
0.577200 0.890437 0.701735
0.698596 0.901598 0.711273
0.778394 0.905221 0.712416
0.830976 0.907100 0.712869
0.871643 0.908116 0.713087
0.166922 0.179330 0.591705
0.207607 0.179989 0.594007
0.250340 0.181004 0.608774
0.415423 0.186358 0.633091
0.566284 0.193045 0.642840
0.657845 0.197894 0.647199
0.727565 0.203574 0.654249
0.784904 0.208182 0.660039
0.166695 0.219278 0.597382
0.209071 0.221884 0.606489
0.253793 0.223131 0.622136
0.428898 0.228437 0.646345
0.577222 0.234632 0.655138
0.667598 0.238988 0.658853
0.736664 0.244424 0.666251
0.794525 0.249028 0.672115
0.165758 0.266261 0.627616
0.208235 0.272003 0.638162
0.257376 0.287515 0.664150
0.466688 0.301584 0.691415
0.618936 0.310930 0.700888
0.710519 0.319052 0.705453
0.780963 0.331604 0.714272
0.839896 0.342708 0.721335
0.161734 0.410082 0.674953
0.204555 0.423641 0.685512
0.248505 0.461818 0.710589
0.505921 0.522478 0.747044
0.662563 0.537868 0.754913
0.752018 0.546744 0.757725
0.819964 0.561205 0.764657
0.866159 0.570779 0.769684
0.155435 0.562387 0.706286
0.198979 0.575391 0.715494
0.246591 0.617227 0.735801
0.520298 0.673575 0.764108
0.678584 0.696136 0.776947
0.765346 0.702135 0.779057
0.826700 0.710366 0.784158
0.869982 0.716588 0.788452
0.149724 0.672220 0.723615
0.194018 0.683367 0.731772
0.271079 0.719600 0.748443
0.537144 0.763463 0.771654
0.681265 0.781900 0.782567
0.770643 0.791835 0.789176
0.829389 0.798637 0.794033
0.872411 0.803632 0.798078
0.148276 0.760917 0.738373
0.190552 0.771545 0.746042
0.332472 0.801714 0.762111
0.558323 0.835249 0.780879
0.688577 0.850507 0.790375
0.775530 0.859227 0.796700
0.829799 0.862043 0.797834
0.872232 0.865784 0.801196
0.150112 0.834464 0.750000
0.198255 0.843502 0.757303
0.383292 0.868143 0.772775
0.574001 0.892901 0.787855
0.695670 0.903547 0.796317
0.780134 0.910322 0.802298
0.832140 0.912489 0.803336
0.872733 0.913443 0.803659
0.166840 0.182665 0.667093
0.207930 0.183258 0.669634
0.253169 0.184270 0.684274
0.428105 0.190077 0.708448
0.576163 0.196825 0.718501
0.666787 0.201394 0.722987
0.732382 0.204948 0.725765
0.790680 0.209691 0.731057
0.166560 0.222495 0.673370
0.209289 0.224975 0.682247
0.258244 0.226484 0.698356
0.444314 0.232291 0.722543
0.589229 0.238403 0.731114
0.678140 0.242636 0.734698
0.742414 0.245850 0.736887
0.800864 0.250475 0.742301
0.165322 0.275159 0.705653
0.208134 0.282597 0.715424
0.262591 0.303166 0.740583
0.482034 0.320979 0.767269
0.630327 0.329093 0.776498
0.720746 0.338200 0.781089
0.785099 0.344530 0.783495
0.843672 0.355830 0.789699
0.160618 0.426361 0.750959
0.203814 0.440512 0.760389
0.250750 0.480874 0.784206
0.518141 0.538282 0.817740
0.668736 0.552756 0.825317
0.757146 0.561144 0.828160
0.819493 0.566228 0.829655
0.865003 0.575309 0.833971
0.153848 0.576752 0.780374
0.197880 0.589926 0.788339
0.252982 0.630916 0.806798
0.531830 0.682770 0.833078
0.682979 0.703727 0.844801
0.768655 0.709442 0.846994
0.825889 0.712529 0.847948
0.868766 0.718196 0.851223
0.149179 0.684292 0.796195
0.192736 0.695500 0.803018
0.285736 0.730207 0.818490
0.546461 0.770595 0.839752
0.685276 0.787794 0.849618
0.773533 0.797441 0.855552
0.828788 0.800589 0.856903
0.871377 0.805062 0.859946
0.149309 0.768293 0.806030
0.188254 0.778067 0.812182
0.339682 0.805476 0.826555
0.558389 0.837110 0.843785
0.687417 0.851728 0.852535
0.774475 0.860269 0.858359
0.830492 0.865805 0.862540
0.873365 0.869908 0.865932
0.150247 0.839879 0.815447
0.207707 0.847787 0.821572
0.387255 0.870819 0.835497
0.573377 0.894222 0.849814
0.694532 0.904515 0.857688
0.779066 0.911120 0.863264
0.832746 0.915357 0.867179
0.873831 0.916817 0.868038
0.166809 0.185425 0.731964
0.208056 0.186174 0.734554
0.257577 0.187343 0.749895
0.443106 0.193612 0.774349
0.588209 0.200361 0.784241
0.678131 0.205017 0.789041
0.743273 0.208326 0.791870
0.798218 0.211273 0.793518
0.166347 0.225346 0.738905
0.209324 0.227910 0.747520
0.263929 0.229584 0.764666
0.461025 0.235923 0.789023
0.602652 0.242048 0.797599
0.690826 0.246395 0.801544
0.754198 0.249564 0.803345
0.808520 0.252288 0.804404
0.164707 0.287149 0.771829
0.207812 0.295846 0.781076
0.269968 0.320561 0.806366
0.496055 0.340350 0.831857
0.639901 0.349382 0.840306
0.729344 0.358664 0.844744
0.792899 0.364471 0.846854
0.846566 0.367497 0.847826
0.159385 0.442200 0.814357
0.202986 0.456220 0.823116
0.255414 0.498204 0.846292
0.528878 0.551235 0.877114
0.674338 0.564863 0.884334
0.761579 0.572762 0.887067
0.822204 0.577497 0.888484
0.864698 0.579537 0.889077
0.152440 0.589626 0.841409
0.196891 0.602765 0.848895
0.266628 0.642731 0.866586
0.541835 0.690713 0.891214
0.687404 0.710428 0.902226
0.771798 0.715894 0.904384
0.827497 0.718732 0.905299
0.868561 0.720258 0.905735
0.150626 0.695047 0.856022
0.191629 0.706246 0.862331
0.307094 0.739485 0.877585
0.554788 0.776699 0.897343
0.689453 0.793013 0.906647
0.776441 0.802451 0.912371
0.830327 0.805477 0.913713
0.871203 0.806915 0.914141
0.150831 0.778002 0.865282
0.189035 0.787236 0.871002
0.357844 0.813132 0.885180
0.565447 0.842481 0.901141
0.691419 0.856231 0.909415
0.777261 0.864506 0.914961
0.831813 0.869690 0.918893
0.872981 0.871360 0.919704
0.154022 0.844360 0.871338
0.220489 0.851876 0.877267
0.392107 0.873448 0.890111
0.573438 0.895469 0.903525
0.694009 0.905356 0.911120
0.778421 0.911852 0.916508
0.831709 0.916020 0.920266
0.874390 0.919220 0.923370